app/assets/luts/01_soft_portrait.cube
TITLE "Pocket Soft Portrait"
# 轻微提亮 + 暖肤，适合人物与 vlog。
# Pocket Live Capture built-in preset (free to use)
# POCKET_CUBE_ORDER=rgb_fastest
LUT_3D_SIZE 9
0.082800 0.071400 0.067200
0.199800 0.071400 0.067200
0.316800 0.071400 0.067200
0.433800 0.071400 0.067200
0.550800 0.071400 0.067200
0.667800 0.071400 0.067200
0.784800 0.071400 0.067200
0.901800 0.071400 0.067200
1.000000 0.071400 0.067200
0.082800 0.186150 0.067200
0.199800 0.186150 0.067200
0.316800 0.186150 0.067200
0.433800 0.186150 0.067200
0.550800 0.186150 0.067200
0.667800 0.186150 0.067200
0.784800 0.186150 0.067200
0.901800 0.186150 0.067200
1.000000 0.186150 0.067200
0.082800 0.300900 0.067200
0.199800 0.300900 0.067200
0.316800 0.300900 0.067200
0.433800 0.300900 0.067200
0.550800 0.300900 0.067200
0.667800 0.300900 0.067200
0.784800 0.300900 0.067200
0.901800 0.300900 0.067200
1.000000 0.300900 0.067200
0.082800 0.415650 0.067200
0.199800 0.415650 0.067200
0.316800 0.415650 0.067200
0.433800 0.415650 0.067200
0.550800 0.415650 0.067200
0.667800 0.415650 0.067200
0.784800 0.415650 0.067200
0.901800 0.415650 0.067200
1.000000 0.415650 0.067200
0.082800 0.530400 0.067200
0.199800 0.530400 0.067200
0.316800 0.530400 0.067200
0.433800 0.530400 0.067200
0.550800 0.530400 0.067200
0.667800 0.530400 0.067200
0.784800 0.530400 0.067200
0.901800 0.530400 0.067200
1.000000 0.530400 0.067200
0.082800 0.645150 0.067200
0.199800 0.645150 0.067200
0.316800 0.645150 0.067200
0.433800 0.645150 0.067200
0.550800 0.645150 0.067200
0.667800 0.645150 0.067200
0.784800 0.645150 0.067200
0.901800 0.645150 0.067200
1.000000 0.645150 0.067200
0.082800 0.759900 0.067200
0.199800 0.759900 0.067200
0.316800 0.759900 0.067200
0.433800 0.759900 0.067200
0.550800 0.759900 0.067200
0.667800 0.759900 0.067200
0.784800 0.759900 0.067200
0.901800 0.759900 0.067200
1.000000 0.759900 0.067200
0.082800 0.874650 0.067200
0.199800 0.874650 0.067200
0.316800 0.874650 0.067200
0.433800 0.874650 0.067200
0.550800 0.874650 0.067200
0.667800 0.874650 0.067200
0.784800 0.874650 0.067200
0.901800 0.874650 0.067200
1.000000 0.874650 0.067200
0.082800 0.989400 0.067200
0.199800 0.989400 0.067200
0.316800 0.989400 0.067200
0.433800 0.989400 0.067200
0.550800 0.989400 0.067200
0.667800 0.989400 0.067200
0.784800 0.989400 0.067200
0.901800 0.989400 0.067200
1.000000 0.989400 0.067200
0.082800 0.071400 0.175200
0.199800 0.071400 0.175200
0.316800 0.071400 0.175200
0.433800 0.071400 0.175200
0.550800 0.071400 0.175200
0.667800 0.071400 0.175200
0.784800 0.071400 0.175200
0.901800 0.071400 0.175200
1.000000 0.071400 0.175200
0.082800 0.186150 0.175200
0.199800 0.186150 0.175200
0.316800 0.186150 0.175200
0.433800 0.186150 0.175200
0.550800 0.186150 0.175200
0.667800 0.186150 0.175200
0.784800 0.186150 0.175200
0.901800 0.186150 0.175200
1.000000 0.186150 0.175200
0.082800 0.300900 0.175200
0.199800 0.300900 0.175200
0.316800 0.300900 0.175200
0.433800 0.300900 0.175200
0.550800 0.300900 0.175200
0.667800 0.300900 0.175200
0.784800 0.300900 0.175200
0.901800 0.300900 0.175200
1.000000 0.300900 0.175200
0.082800 0.415650 0.175200
0.199800 0.415650 0.175200
0.316800 0.415650 0.175200
0.433800 0.415650 0.175200
0.550800 0.415650 0.175200
0.667800 0.415650 0.175200
0.784800 0.415650 0.175200
0.901800 0.415650 0.175200
1.000000 0.415650 0.175200
0.082800 0.530400 0.175200
0.199800 0.530400 0.175200
0.316800 0.530400 0.175200
0.433800 0.530400 0.175200
0.550800 0.530400 0.175200
0.667800 0.530400 0.175200
0.784800 0.530400 0.175200
0.901800 0.530400 0.175200
1.000000 0.530400 0.175200
0.082800 0.645150 0.175200
0.199800 0.645150 0.175200
0.316800 0.645150 0.175200
0.433800 0.645150 0.175200
0.550800 0.645150 0.175200
0.667800 0.645150 0.175200
0.784800 0.645150 0.175200
0.901800 0.645150 0.175200
1.000000 0.645150 0.175200
0.082800 0.759900 0.175200
0.199800 0.759900 0.175200
0.316800 0.759900 0.175200
0.433800 0.759900 0.175200
0.550800 0.759900 0.175200
0.667800 0.759900 0.175200
0.784800 0.759900 0.175200
0.901800 0.759900 0.175200
1.000000 0.759900 0.175200
0.082800 0.874650 0.175200
0.199800 0.874650 0.175200
0.316800 0.874650 0.175200
0.433800 0.874650 0.175200
0.550800 0.874650 0.175200
0.667800 0.874650 0.175200
0.784800 0.874650 0.175200
0.901800 0.874650 0.175200
1.000000 0.874650 0.175200
0.082800 0.989400 0.175200
0.199800 0.989400 0.175200
0.316800 0.989400 0.175200
0.433800 0.989400 0.175200
0.550800 0.989400 0.175200
0.667800 0.989400 0.175200
0.784800 0.989400 0.175200
0.901800 0.989400 0.175200
1.000000 0.989400 0.175200
0.082800 0.071400 0.283200
0.199800 0.071400 0.283200
0.316800 0.071400 0.283200
0.433800 0.071400 0.283200
0.550800 0.071400 0.283200
0.667800 0.071400 0.283200
0.784800 0.071400 0.283200
0.901800 0.071400 0.283200
1.000000 0.071400 0.283200
0.082800 0.186150 0.283200
0.199800 0.186150 0.283200
0.316800 0.186150 0.283200
0.433800 0.186150 0.283200
0.550800 0.186150 0.283200
0.667800 0.186150 0.283200
0.784800 0.186150 0.283200
0.901800 0.186150 0.283200
1.000000 0.186150 0.283200
0.082800 0.300900 0.283200
0.199800 0.300900 0.283200
0.316800 0.300900 0.283200
0.433800 0.300900 0.283200
0.550800 0.300900 0.283200
0.667800 0.300900 0.283200
0.784800 0.300900 0.283200
0.901800 0.300900 0.283200
1.000000 0.300900 0.283200
0.082800 0.415650 0.283200
0.199800 0.415650 0.283200
0.316800 0.415650 0.283200
0.433800 0.415650 0.283200
0.550800 0.415650 0.283200
0.667800 0.415650 0.283200
0.784800 0.415650 0.283200
0.901800 0.415650 0.283200
1.000000 0.415650 0.283200
0.082800 0.530400 0.283200
0.199800 0.530400 0.283200
0.316800 0.530400 0.283200
0.433800 0.530400 0.283200
0.550800 0.530400 0.283200
0.667800 0.530400 0.283200
0.784800 0.530400 0.283200
0.901800 0.530400 0.283200
1.000000 0.530400 0.283200
0.082800 0.645150 0.283200
0.199800 0.645150 0.283200
0.316800 0.645150 0.283200
0.433800 0.645150 0.283200
0.550800 0.645150 0.283200
0.667800 0.645150 0.283200
0.784800 0.645150 0.283200
0.901800 0.645150 0.283200
1.000000 0.645150 0.283200
0.082800 0.759900 0.283200
0.199800 0.759900 0.283200
0.316800 0.759900 0.283200
0.433800 0.759900 0.283200
0.550800 0.759900 0.283200
0.667800 0.759900 0.283200
0.784800 0.759900 0.283200
0.901800 0.759900 0.283200
1.000000 0.759900 0.283200
0.082800 0.874650 0.283200
0.199800 0.874650 0.283200
0.316800 0.874650 0.283200
0.433800 0.874650 0.283200
0.550800 0.874650 0.283200
0.667800 0.874650 0.283200
0.784800 0.874650 0.283200
0.901800 0.874650 0.283200
1.000000 0.874650 0.283200
0.082800 0.989400 0.283200
0.199800 0.989400 0.283200
0.316800 0.989400 0.283200
0.433800 0.989400 0.283200
0.550800 0.989400 0.283200
0.667800 0.989400 0.283200
0.784800 0.989400 0.283200
0.901800 0.989400 0.283200
1.000000 0.989400 0.283200
0.082800 0.071400 0.391200
0.199800 0.071400 0.391200
0.316800 0.071400 0.391200
0.433800 0.071400 0.391200
0.550800 0.071400 0.391200
0.667800 0.071400 0.391200
0.784800 0.071400 0.391200
0.901800 0.071400 0.391200
1.000000 0.071400 0.391200
0.082800 0.186150 0.391200
0.199800 0.186150 0.391200
0.316800 0.186150 0.391200
0.433800 0.186150 0.391200
0.550800 0.186150 0.391200
0.667800 0.186150 0.391200
0.784800 0.186150 0.391200
0.901800 0.186150 0.391200
1.000000 0.186150 0.391200
0.082800 0.300900 0.391200
0.199800 0.300900 0.391200
0.316800 0.300900 0.391200
0.433800 0.300900 0.391200
0.550800 0.300900 0.391200
0.667800 0.300900 0.391200
0.784800 0.300900 0.391200
0.901800 0.300900 0.391200
1.000000 0.300900 0.391200
0.082800 0.415650 0.391200
0.199800 0.415650 0.391200
0.316800 0.415650 0.391200
0.433800 0.415650 0.391200
0.550800 0.415650 0.391200
0.667800 0.415650 0.391200
0.784800 0.415650 0.391200
0.901800 0.415650 0.391200
1.000000 0.415650 0.391200
0.082800 0.530400 0.391200
0.199800 0.530400 0.391200
0.316800 0.530400 0.391200
0.433800 0.530400 0.391200
0.550800 0.530400 0.391200
0.667800 0.530400 0.391200
0.784800 0.530400 0.391200
0.901800 0.530400 0.391200
1.000000 0.530400 0.391200
0.082800 0.645150 0.391200
0.199800 0.645150 0.391200
0.316800 0.645150 0.391200
0.433800 0.645150 0.391200
0.550800 0.645150 0.391200
0.667800 0.645150 0.391200
0.784800 0.645150 0.391200
0.901800 0.645150 0.391200
1.000000 0.645150 0.391200
0.082800 0.759900 0.391200
0.199800 0.759900 0.391200
0.316800 0.759900 0.391200
0.433800 0.759900 0.391200
0.550800 0.759900 0.391200
0.667800 0.759900 0.391200
0.784800 0.759900 0.391200
0.901800 0.759900 0.391200
1.000000 0.759900 0.391200
0.082800 0.874650 0.391200
0.199800 0.874650 0.391200
0.316800 0.874650 0.391200
0.433800 0.874650 0.391200
0.550800 0.874650 0.391200
0.667800 0.874650 0.391200
0.784800 0.874650 0.391200
0.901800 0.874650 0.391200
1.000000 0.874650 0.391200
0.082800 0.989400 0.391200
0.199800 0.989400 0.391200
0.316800 0.989400 0.391200
0.433800 0.989400 0.391200
0.550800 0.989400 0.391200
0.667800 0.989400 0.391200
0.784800 0.989400 0.391200
0.901800 0.989400 0.391200
1.000000 0.989400 0.391200
0.082800 0.071400 0.499200
0.199800 0.071400 0.499200
0.316800 0.071400 0.499200
0.433800 0.071400 0.499200
0.550800 0.071400 0.499200
0.667800 0.071400 0.499200
0.784800 0.071400 0.499200
0.901800 0.071400 0.499200
1.000000 0.071400 0.499200
0.082800 0.186150 0.499200
0.199800 0.186150 0.499200
0.316800 0.186150 0.499200
0.433800 0.186150 0.499200
0.550800 0.186150 0.499200
0.667800 0.186150 0.499200
0.784800 0.186150 0.499200
0.901800 0.186150 0.499200
1.000000 0.186150 0.499200
0.082800 0.300900 0.499200
0.199800 0.300900 0.499200
0.316800 0.300900 0.499200
0.433800 0.300900 0.499200
0.550800 0.300900 0.499200
0.667800 0.300900 0.499200
0.784800 0.300900 0.499200
0.901800 0.300900 0.499200
1.000000 0.300900 0.499200
0.082800 0.415650 0.499200
0.199800 0.415650 0.499200
0.316800 0.415650 0.499200
0.433800 0.415650 0.499200
0.550800 0.415650 0.499200
0.667800 0.415650 0.499200
0.784800 0.415650 0.499200
0.901800 0.415650 0.499200
1.000000 0.415650 0.499200
0.082800 0.530400 0.499200
0.199800 0.530400 0.499200
0.316800 0.530400 0.499200
0.433800 0.530400 0.499200
0.550800 0.530400 0.499200
0.667800 0.530400 0.499200
0.784800 0.530400 0.499200
0.901800 0.530400 0.499200
1.000000 0.530400 0.499200
0.082800 0.645150 0.499200
0.199800 0.645150 0.499200
0.316800 0.645150 0.499200
0.433800 0.645150 0.499200
0.550800 0.645150 0.499200
0.667800 0.645150 0.499200
0.784800 0.645150 0.499200
0.901800 0.645150 0.499200
1.000000 0.645150 0.499200
0.082800 0.759900 0.499200
0.199800 0.759900 0.499200
0.316800 0.759900 0.499200
0.433800 0.759900 0.499200
0.550800 0.759900 0.499200
0.667800 0.759900 0.499200
0.784800 0.759900 0.499200
0.901800 0.759900 0.499200
1.000000 0.759900 0.499200
0.082800 0.874650 0.499200
0.199800 0.874650 0.499200
0.316800 0.874650 0.499200
0.433800 0.874650 0.499200
0.550800 0.874650 0.499200
0.667800 0.874650 0.499200
0.784800 0.874650 0.499200
0.901800 0.874650 0.499200
1.000000 0.874650 0.499200
0.082800 0.989400 0.499200
0.199800 0.989400 0.499200
0.316800 0.989400 0.499200
0.433800 0.989400 0.499200
0.550800 0.989400 0.499200
0.667800 0.989400 0.499200
0.784800 0.989400 0.499200
0.901800 0.989400 0.499200
1.000000 0.989400 0.499200
0.082800 0.071400 0.607200
0.199800 0.071400 0.607200
0.316800 0.071400 0.607200
0.433800 0.071400 0.607200
0.550800 0.071400 0.607200
0.667800 0.071400 0.607200
0.784800 0.071400 0.607200
0.901800 0.071400 0.607200
1.000000 0.071400 0.607200
0.082800 0.186150 0.607200
0.199800 0.186150 0.607200
0.316800 0.186150 0.607200
0.433800 0.186150 0.607200
0.550800 0.186150 0.607200
0.667800 0.186150 0.607200
0.784800 0.186150 0.607200
0.901800 0.186150 0.607200
1.000000 0.186150 0.607200
0.082800 0.300900 0.607200
0.199800 0.300900 0.607200
0.316800 0.300900 0.607200
0.433800 0.300900 0.607200
0.550800 0.300900 0.607200
0.667800 0.300900 0.607200
0.784800 0.300900 0.607200
0.901800 0.300900 0.607200
1.000000 0.300900 0.607200
0.082800 0.415650 0.607200
0.199800 0.415650 0.607200
0.316800 0.415650 0.607200
0.433800 0.415650 0.607200
0.550800 0.415650 0.607200
0.667800 0.415650 0.607200
0.784800 0.415650 0.607200
0.901800 0.415650 0.607200
1.000000 0.415650 0.607200
0.082800 0.530400 0.607200
0.199800 0.530400 0.607200
0.316800 0.530400 0.607200
0.433800 0.530400 0.607200
0.550800 0.530400 0.607200
0.667800 0.530400 0.607200
0.784800 0.530400 0.607200
0.901800 0.530400 0.607200
1.000000 0.530400 0.607200
0.082800 0.645150 0.607200
0.199800 0.645150 0.607200
0.316800 0.645150 0.607200
0.433800 0.645150 0.607200
0.550800 0.645150 0.607200
0.667800 0.645150 0.607200
0.784800 0.645150 0.607200
0.901800 0.645150 0.607200
1.000000 0.645150 0.607200
0.082800 0.759900 0.607200
0.199800 0.759900 0.607200
0.316800 0.759900 0.607200
0.433800 0.759900 0.607200
0.550800 0.759900 0.607200
0.667800 0.759900 0.607200
0.784800 0.759900 0.607200
0.901800 0.759900 0.607200
1.000000 0.759900 0.607200
0.082800 0.874650 0.607200
0.199800 0.874650 0.607200
0.316800 0.874650 0.607200
0.433800 0.874650 0.607200
0.550800 0.874650 0.607200
0.667800 0.874650 0.607200
0.784800 0.874650 0.607200
0.901800 0.874650 0.607200
1.000000 0.874650 0.607200
0.082800 0.989400 0.607200
0.199800 0.989400 0.607200
0.316800 0.989400 0.607200
0.433800 0.989400 0.607200
0.550800 0.989400 0.607200
0.667800 0.989400 0.607200
0.784800 0.989400 0.607200
0.901800 0.989400 0.607200
1.000000 0.989400 0.607200
0.082800 0.071400 0.715200
0.199800 0.071400 0.715200
0.316800 0.071400 0.715200
0.433800 0.071400 0.715200
0.550800 0.071400 0.715200
0.667800 0.071400 0.715200
0.784800 0.071400 0.715200
0.901800 0.071400 0.715200
1.000000 0.071400 0.715200
0.082800 0.186150 0.715200
0.199800 0.186150 0.715200
0.316800 0.186150 0.715200
0.433800 0.186150 0.715200
0.550800 0.186150 0.715200
0.667800 0.186150 0.715200
0.784800 0.186150 0.715200
0.901800 0.186150 0.715200
1.000000 0.186150 0.715200
0.082800 0.300900 0.715200
0.199800 0.300900 0.715200
0.316800 0.300900 0.715200
0.433800 0.300900 0.715200
0.550800 0.300900 0.715200
0.667800 0.300900 0.715200
0.784800 0.300900 0.715200
0.901800 0.300900 0.715200
1.000000 0.300900 0.715200
0.082800 0.415650 0.715200
0.199800 0.415650 0.715200
0.316800 0.415650 0.715200
0.433800 0.415650 0.715200
0.550800 0.415650 0.715200
0.667800 0.415650 0.715200
0.784800 0.415650 0.715200
0.901800 0.415650 0.715200
1.000000 0.415650 0.715200
0.082800 0.530400 0.715200
0.199800 0.530400 0.715200
0.316800 0.530400 0.715200
0.433800 0.530400 0.715200
0.550800 0.530400 0.715200
0.667800 0.530400 0.715200
0.784800 0.530400 0.715200
0.901800 0.530400 0.715200
1.000000 0.530400 0.715200
0.082800 0.645150 0.715200
0.199800 0.645150 0.715200
0.316800 0.645150 0.715200
0.433800 0.645150 0.715200
0.550800 0.645150 0.715200
0.667800 0.645150 0.715200
0.784800 0.645150 0.715200
0.901800 0.645150 0.715200
1.000000 0.645150 0.715200
0.082800 0.759900 0.715200
0.199800 0.759900 0.715200
0.316800 0.759900 0.715200
0.433800 0.759900 0.715200
0.550800 0.759900 0.715200
0.667800 0.759900 0.715200
0.784800 0.759900 0.715200
0.901800 0.759900 0.715200
1.000000 0.759900 0.715200
0.082800 0.874650 0.715200
0.199800 0.874650 0.715200
0.316800 0.874650 0.715200
0.433800 0.874650 0.715200
0.550800 0.874650 0.715200
0.667800 0.874650 0.715200
0.784800 0.874650 0.715200
0.901800 0.874650 0.715200
1.000000 0.874650 0.715200
0.082800 0.989400 0.715200
0.199800 0.989400 0.715200
0.316800 0.989400 0.715200
0.433800 0.989400 0.715200
0.550800 0.989400 0.715200
0.667800 0.989400 0.715200
0.784800 0.989400 0.715200
0.901800 0.989400 0.715200
1.000000 0.989400 0.715200
0.082800 0.071400 0.823200
0.199800 0.071400 0.823200
0.316800 0.071400 0.823200
0.433800 0.071400 0.823200
0.550800 0.071400 0.823200
0.667800 0.071400 0.823200
0.784800 0.071400 0.823200
0.901800 0.071400 0.823200
1.000000 0.071400 0.823200
0.082800 0.186150 0.823200
0.199800 0.186150 0.823200
0.316800 0.186150 0.823200
0.433800 0.186150 0.823200
0.550800 0.186150 0.823200
0.667800 0.186150 0.823200
0.784800 0.186150 0.823200
0.901800 0.186150 0.823200
1.000000 0.186150 0.823200
0.082800 0.300900 0.823200
0.199800 0.300900 0.823200
0.316800 0.300900 0.823200
0.433800 0.300900 0.823200
0.550800 0.300900 0.823200
0.667800 0.300900 0.823200
0.784800 0.300900 0.823200
0.901800 0.300900 0.823200
1.000000 0.300900 0.823200
0.082800 0.415650 0.823200
0.199800 0.415650 0.823200
0.316800 0.415650 0.823200
0.433800 0.415650 0.823200
0.550800 0.415650 0.823200
0.667800 0.415650 0.823200
0.784800 0.415650 0.823200
0.901800 0.415650 0.823200
1.000000 0.415650 0.823200
0.082800 0.530400 0.823200
0.199800 0.530400 0.823200
0.316800 0.530400 0.823200
0.433800 0.530400 0.823200
0.550800 0.530400 0.823200
0.667800 0.530400 0.823200
0.784800 0.530400 0.823200
0.901800 0.530400 0.823200
1.000000 0.530400 0.823200
0.082800 0.645150 0.823200
0.199800 0.645150 0.823200
0.316800 0.645150 0.823200
0.433800 0.645150 0.823200
0.550800 0.645150 0.823200
0.667800 0.645150 0.823200
0.784800 0.645150 0.823200
0.901800 0.645150 0.823200
1.000000 0.645150 0.823200
0.082800 0.759900 0.823200
0.199800 0.759900 0.823200
0.316800 0.759900 0.823200
0.433800 0.759900 0.823200
0.550800 0.759900 0.823200
0.667800 0.759900 0.823200
0.784800 0.759900 0.823200
0.901800 0.759900 0.823200
1.000000 0.759900 0.823200
0.082800 0.874650 0.823200
0.199800 0.874650 0.823200
0.316800 0.874650 0.823200
0.433800 0.874650 0.823200
0.550800 0.874650 0.823200
0.667800 0.874650 0.823200
0.784800 0.874650 0.823200
0.901800 0.874650 0.823200
1.000000 0.874650 0.823200
0.082800 0.989400 0.823200
0.199800 0.989400 0.823200
0.316800 0.989400 0.823200
0.433800 0.989400 0.823200
0.550800 0.989400 0.823200
0.667800 0.989400 0.823200
0.784800 0.989400 0.823200
0.901800 0.989400 0.823200
1.000000 0.989400 0.823200
0.082800 0.071400 0.931200
0.199800 0.071400 0.931200
0.316800 0.071400 0.931200
0.433800 0.071400 0.931200
0.550800 0.071400 0.931200
0.667800 0.071400 0.931200
0.784800 0.071400 0.931200
0.901800 0.071400 0.931200
1.000000 0.071400 0.931200
0.082800 0.186150 0.931200
0.199800 0.186150 0.931200
0.316800 0.186150 0.931200
0.433800 0.186150 0.931200
0.550800 0.186150 0.931200
0.667800 0.186150 0.931200
0.784800 0.186150 0.931200
0.901800 0.186150 0.931200
1.000000 0.186150 0.931200
0.082800 0.300900 0.931200
0.199800 0.300900 0.931200
0.316800 0.300900 0.931200
0.433800 0.300900 0.931200
0.550800 0.300900 0.931200
0.667800 0.300900 0.931200
0.784800 0.300900 0.931200
0.901800 0.300900 0.931200
1.000000 0.300900 0.931200
0.082800 0.415650 0.931200
0.199800 0.415650 0.931200
0.316800 0.415650 0.931200
0.433800 0.415650 0.931200
0.550800 0.415650 0.931200
0.667800 0.415650 0.931200
0.784800 0.415650 0.931200
0.901800 0.415650 0.931200
1.000000 0.415650 0.931200
0.082800 0.530400 0.931200
0.199800 0.530400 0.931200
0.316800 0.530400 0.931200
0.433800 0.530400 0.931200
0.550800 0.530400 0.931200
0.667800 0.530400 0.931200
0.784800 0.530400 0.931200
0.901800 0.530400 0.931200
1.000000 0.530400 0.931200
0.082800 0.645150 0.931200
0.199800 0.645150 0.931200
0.316800 0.645150 0.931200
0.433800 0.645150 0.931200
0.550800 0.645150 0.931200
0.667800 0.645150 0.931200
0.784800 0.645150 0.931200
0.901800 0.645150 0.931200
1.000000 0.645150 0.931200
0.082800 0.759900 0.931200
0.199800 0.759900 0.931200
0.316800 0.759900 0.931200
0.433800 0.759900 0.931200
0.550800 0.759900 0.931200
0.667800 0.759900 0.931200
0.784800 0.759900 0.931200
0.901800 0.759900 0.931200
1.000000 0.759900 0.931200
0.082800 0.874650 0.931200
0.199800 0.874650 0.931200
0.316800 0.874650 0.931200
0.433800 0.874650 0.931200
0.550800 0.874650 0.931200
0.667800 0.874650 0.931200
0.784800 0.874650 0.931200
0.901800 0.874650 0.931200
1.000000 0.874650 0.931200
0.082800 0.989400 0.931200
0.199800 0.989400 0.931200
0.316800 0.989400 0.931200
0.433800 0.989400 0.931200
0.550800 0.989400 0.931200
0.667800 0.989400 0.931200
0.784800 0.989400 0.931200
0.901800 0.989400 0.931200
1.000000 0.989400 0.931200
