app/assets/luts/01_soft_portrait.cube
TITLE "Pocket Soft Portrait"
# 轻微提亮 + 暖肤，适合人物与 vlog。
# Pocket Live Capture built-in preset (free to use)
# POCKET_CUBE_ORDER=rgb_fastest
LUT_3D_SIZE 5
0.082800 0.071400 0.067200
0.316800 0.071400 0.067200
0.550800 0.071400 0.067200
0.784800 0.071400 0.067200
1.000000 0.071400 0.067200
0.082800 0.300900 0.067200
0.316800 0.300900 0.067200
0.550800 0.300900 0.067200
0.784800 0.300900 0.067200
1.000000 0.300900 0.067200
0.082800 0.530400 0.067200
0.316800 0.530400 0.067200
0.550800 0.530400 0.067200
0.784800 0.530400 0.067200
1.000000 0.530400 0.067200
0.082800 0.759900 0.067200
0.316800 0.759900 0.067200
0.550800 0.759900 0.067200
0.784800 0.759900 0.067200
1.000000 0.759900 0.067200
0.082800 0.989400 0.067200
0.316800 0.989400 0.067200
0.550800 0.989400 0.067200
0.784800 0.989400 0.067200
1.000000 0.989400 0.067200
0.082800 0.071400 0.283200
0.316800 0.071400 0.283200
0.550800 0.071400 0.283200
0.784800 0.071400 0.283200
1.000000 0.071400 0.283200
0.082800 0.300900 0.283200
0.316800 0.300900 0.283200
0.550800 0.300900 0.283200
0.784800 0.300900 0.283200
1.000000 0.300900 0.283200
0.082800 0.530400 0.283200
0.316800 0.530400 0.283200
0.550800 0.530400 0.283200
0.784800 0.530400 0.283200
1.000000 0.530400 0.283200
0.082800 0.759900 0.283200
0.316800 0.759900 0.283200
0.550800 0.759900 0.283200
0.784800 0.759900 0.283200
1.000000 0.759900 0.283200
0.082800 0.989400 0.283200
0.316800 0.989400 0.283200
0.550800 0.989400 0.283200
0.784800 0.989400 0.283200
1.000000 0.989400 0.283200
0.082800 0.071400 0.499200
0.316800 0.071400 0.499200
0.550800 0.071400 0.499200
0.784800 0.071400 0.499200
1.000000 0.071400 0.499200
0.082800 0.300900 0.499200
0.316800 0.300900 0.499200
0.550800 0.300900 0.499200
0.784800 0.300900 0.499200
1.000000 0.300900 0.499200
0.082800 0.530400 0.499200
0.316800 0.530400 0.499200
0.550800 0.530400 0.499200
0.784800 0.530400 0.499200
1.000000 0.530400 0.499200
0.082800 0.759900 0.499200
0.316800 0.759900 0.499200
0.550800 0.759900 0.499200
0.784800 0.759900 0.499200
1.000000 0.759900 0.499200
0.082800 0.989400 0.499200
0.316800 0.989400 0.499200
0.550800 0.989400 0.499200
0.784800 0.989400 0.499200
1.000000 0.989400 0.499200
0.082800 0.071400 0.715200
0.316800 0.071400 0.715200
0.550800 0.071400 0.715200
0.784800 0.071400 0.715200
1.000000 0.071400 0.715200
0.082800 0.300900 0.715200
0.316800 0.300900 0.715200
0.550800 0.300900 0.715200
0.784800 0.300900 0.715200
1.000000 0.300900 0.715200
0.082800 0.530400 0.715200
0.316800 0.530400 0.715200
0.550800 0.530400 0.715200
0.784800 0.530400 0.715200
1.000000 0.530400 0.715200
0.082800 0.759900 0.715200
0.316800 0.759900 0.715200
0.550800 0.759900 0.715200
0.784800 0.759900 0.715200
1.000000 0.759900 0.715200
0.082800 0.989400 0.715200
0.316800 0.989400 0.715200
0.550800 0.989400 0.715200
0.784800 0.989400 0.715200
1.000000 0.989400 0.715200
0.082800 0.071400 0.931200
0.316800 0.071400 0.931200
0.550800 0.071400 0.931200
0.784800 0.071400 0.931200
1.000000 0.071400 0.931200
0.082800 0.300900 0.931200
0.316800 0.300900 0.931200
0.550800 0.300900 0.931200
0.784800 0.300900 0.931200
1.000000 0.300900 0.931200
0.082800 0.530400 0.931200
0.316800 0.530400 0.931200
0.550800 0.530400 0.931200
0.784800 0.530400 0.931200
1.000000 0.530400 0.931200
0.082800 0.759900 0.931200
0.316800 0.759900 0.931200
0.550800 0.759900 0.931200
0.784800 0.759900 0.931200
1.000000 0.759900 0.931200
0.082800 0.989400 0.931200
0.316800 0.989400 0.931200
0.550800 0.989400 0.931200
0.784800 0.989400 0.931200
1.000000 0.989400 0.931200
