app/assets/luts/01_soft_portrait.cube
TITLE "Pocket Soft Portrait"
# 轻微提亮 + 暖肤，适合人物与 vlog。
# Pocket Live Capture built-in preset (free to use)
# POCKET_CUBE_ORDER=rgb_fastest
LUT_3D_SIZE 17
0.082800 0.071400 0.067200
0.141300 0.071400 0.067200
0.199800 0.071400 0.067200
0.258300 0.071400 0.067200
0.316800 0.071400 0.067200
0.375300 0.071400 0.067200
0.433800 0.071400 0.067200
0.492300 0.071400 0.067200
0.550800 0.071400 0.067200
0.609300 0.071400 0.067200
0.667800 0.071400 0.067200
0.726300 0.071400 0.067200
0.784800 0.071400 0.067200
0.843300 0.071400 0.067200
0.901800 0.071400 0.067200
0.960300 0.071400 0.067200
1.000000 0.071400 0.067200
0.082800 0.128775 0.067200
0.141300 0.128775 0.067200
0.199800 0.128775 0.067200
0.258300 0.128775 0.067200
0.316800 0.128775 0.067200
0.375300 0.128775 0.067200
0.433800 0.128775 0.067200
0.492300 0.128775 0.067200
0.550800 0.128775 0.067200
0.609300 0.128775 0.067200
0.667800 0.128775 0.067200
0.726300 0.128775 0.067200
0.784800 0.128775 0.067200
0.843300 0.128775 0.067200
0.901800 0.128775 0.067200
0.960300 0.128775 0.067200
1.000000 0.128775 0.067200
0.082800 0.186150 0.067200
0.141300 0.186150 0.067200
0.199800 0.186150 0.067200
0.258300 0.186150 0.067200
0.316800 0.186150 0.067200
0.375300 0.186150 0.067200
0.433800 0.186150 0.067200
0.492300 0.186150 0.067200
0.550800 0.186150 0.067200
0.609300 0.186150 0.067200
0.667800 0.186150 0.067200
0.726300 0.186150 0.067200
0.784800 0.186150 0.067200
0.843300 0.186150 0.067200
0.901800 0.186150 0.067200
0.960300 0.186150 0.067200
1.000000 0.186150 0.067200
0.082800 0.243525 0.067200
0.141300 0.243525 0.067200
0.199800 0.243525 0.067200
0.258300 0.243525 0.067200
0.316800 0.243525 0.067200
0.375300 0.243525 0.067200
0.433800 0.243525 0.067200
0.492300 0.243525 0.067200
0.550800 0.243525 0.067200
0.609300 0.243525 0.067200
0.667800 0.243525 0.067200
0.726300 0.243525 0.067200
0.784800 0.243525 0.067200
0.843300 0.243525 0.067200
0.901800 0.243525 0.067200
0.960300 0.243525 0.067200
1.000000 0.243525 0.067200
0.082800 0.300900 0.067200
0.141300 0.300900 0.067200
0.199800 0.300900 0.067200
0.258300 0.300900 0.067200
0.316800 0.300900 0.067200
0.375300 0.300900 0.067200
0.433800 0.300900 0.067200
0.492300 0.300900 0.067200
0.550800 0.300900 0.067200
0.609300 0.300900 0.067200
0.667800 0.300900 0.067200
0.726300 0.300900 0.067200
0.784800 0.300900 0.067200
0.843300 0.300900 0.067200
0.901800 0.300900 0.067200
0.960300 0.300900 0.067200
1.000000 0.300900 0.067200
0.082800 0.358275 0.067200
0.141300 0.358275 0.067200
0.199800 0.358275 0.067200
0.258300 0.358275 0.067200
0.316800 0.358275 0.067200
0.375300 0.358275 0.067200
0.433800 0.358275 0.067200
0.492300 0.358275 0.067200
0.550800 0.358275 0.067200
0.609300 0.358275 0.067200
0.667800 0.358275 0.067200
0.726300 0.358275 0.067200
0.784800 0.358275 0.067200
0.843300 0.358275 0.067200
0.901800 0.358275 0.067200
0.960300 0.358275 0.067200
1.000000 0.358275 0.067200
0.082800 0.415650 0.067200
0.141300 0.415650 0.067200
0.199800 0.415650 0.067200
0.258300 0.415650 0.067200
0.316800 0.415650 0.067200
0.375300 0.415650 0.067200
0.433800 0.415650 0.067200
0.492300 0.415650 0.067200
0.550800 0.415650 0.067200
0.609300 0.415650 0.067200
0.667800 0.415650 0.067200
0.726300 0.415650 0.067200
0.784800 0.415650 0.067200
0.843300 0.415650 0.067200
0.901800 0.415650 0.067200
0.960300 0.415650 0.067200
1.000000 0.415650 0.067200
0.082800 0.473025 0.067200
0.141300 0.473025 0.067200
0.199800 0.473025 0.067200
0.258300 0.473025 0.067200
0.316800 0.473025 0.067200
0.375300 0.473025 0.067200
0.433800 0.473025 0.067200
0.492300 0.473025 0.067200
0.550800 0.473025 0.067200
0.609300 0.473025 0.067200
0.667800 0.473025 0.067200
0.726300 0.473025 0.067200
0.784800 0.473025 0.067200
0.843300 0.473025 0.067200
0.901800 0.473025 0.067200
0.960300 0.473025 0.067200
1.000000 0.473025 0.067200
0.082800 0.530400 0.067200
0.141300 0.530400 0.067200
0.199800 0.530400 0.067200
0.258300 0.530400 0.067200
0.316800 0.530400 0.067200
0.375300 0.530400 0.067200
0.433800 0.530400 0.067200
0.492300 0.530400 0.067200
0.550800 0.530400 0.067200
0.609300 0.530400 0.067200
0.667800 0.530400 0.067200
0.726300 0.530400 0.067200
0.784800 0.530400 0.067200
0.843300 0.530400 0.067200
0.901800 0.530400 0.067200
0.960300 0.530400 0.067200
1.000000 0.530400 0.067200
0.082800 0.587775 0.067200
0.141300 0.587775 0.067200
0.199800 0.587775 0.067200
0.258300 0.587775 0.067200
0.316800 0.587775 0.067200
0.375300 0.587775 0.067200
0.433800 0.587775 0.067200
0.492300 0.587775 0.067200
0.550800 0.587775 0.067200
0.609300 0.587775 0.067200
0.667800 0.587775 0.067200
0.726300 0.587775 0.067200
0.784800 0.587775 0.067200
0.843300 0.587775 0.067200
0.901800 0.587775 0.067200
0.960300 0.587775 0.067200
1.000000 0.587775 0.067200
0.082800 0.645150 0.067200
0.141300 0.645150 0.067200
0.199800 0.645150 0.067200
0.258300 0.645150 0.067200
0.316800 0.645150 0.067200
0.375300 0.645150 0.067200
0.433800 0.645150 0.067200
0.492300 0.645150 0.067200
0.550800 0.645150 0.067200
0.609300 0.645150 0.067200
0.667800 0.645150 0.067200
0.726300 0.645150 0.067200
0.784800 0.645150 0.067200
0.843300 0.645150 0.067200
0.901800 0.645150 0.067200
0.960300 0.645150 0.067200
1.000000 0.645150 0.067200
0.082800 0.702525 0.067200
0.141300 0.702525 0.067200
0.199800 0.702525 0.067200
0.258300 0.702525 0.067200
0.316800 0.702525 0.067200
0.375300 0.702525 0.067200
0.433800 0.702525 0.067200
0.492300 0.702525 0.067200
0.550800 0.702525 0.067200
0.609300 0.702525 0.067200
0.667800 0.702525 0.067200
0.726300 0.702525 0.067200
0.784800 0.702525 0.067200
0.843300 0.702525 0.067200
0.901800 0.702525 0.067200
0.960300 0.702525 0.067200
1.000000 0.702525 0.067200
0.082800 0.759900 0.067200
0.141300 0.759900 0.067200
0.199800 0.759900 0.067200
0.258300 0.759900 0.067200
0.316800 0.759900 0.067200
0.375300 0.759900 0.067200
0.433800 0.759900 0.067200
0.492300 0.759900 0.067200
0.550800 0.759900 0.067200
0.609300 0.759900 0.067200
0.667800 0.759900 0.067200
0.726300 0.759900 0.067200
0.784800 0.759900 0.067200
0.843300 0.759900 0.067200
0.901800 0.759900 0.067200
0.960300 0.759900 0.067200
1.000000 0.759900 0.067200
0.082800 0.817275 0.067200
0.141300 0.817275 0.067200
0.199800 0.817275 0.067200
0.258300 0.817275 0.067200
0.316800 0.817275 0.067200
0.375300 0.817275 0.067200
0.433800 0.817275 0.067200
0.492300 0.817275 0.067200
0.550800 0.817275 0.067200
0.609300 0.817275 0.067200
0.667800 0.817275 0.067200
0.726300 0.817275 0.067200
0.784800 0.817275 0.067200
0.843300 0.817275 0.067200
0.901800 0.817275 0.067200
0.960300 0.817275 0.067200
1.000000 0.817275 0.067200
0.082800 0.874650 0.067200
0.141300 0.874650 0.067200
0.199800 0.874650 0.067200
0.258300 0.874650 0.067200
0.316800 0.874650 0.067200
0.375300 0.874650 0.067200
0.433800 0.874650 0.067200
0.492300 0.874650 0.067200
0.550800 0.874650 0.067200
0.609300 0.874650 0.067200
0.667800 0.874650 0.067200
0.726300 0.874650 0.067200
0.784800 0.874650 0.067200
0.843300 0.874650 0.067200
0.901800 0.874650 0.067200
0.960300 0.874650 0.067200
1.000000 0.874650 0.067200
0.082800 0.932025 0.067200
0.141300 0.932025 0.067200
0.199800 0.932025 0.067200
0.258300 0.932025 0.067200
0.316800 0.932025 0.067200
0.375300 0.932025 0.067200
0.433800 0.932025 0.067200
0.492300 0.932025 0.067200
0.550800 0.932025 0.067200
0.609300 0.932025 0.067200
0.667800 0.932025 0.067200
0.726300 0.932025 0.067200
0.784800 0.932025 0.067200
0.843300 0.932025 0.067200
0.901800 0.932025 0.067200
0.960300 0.932025 0.067200
1.000000 0.932025 0.067200
0.082800 0.989400 0.067200
0.141300 0.989400 0.067200
0.199800 0.989400 0.067200
0.258300 0.989400 0.067200
0.316800 0.989400 0.067200
0.375300 0.989400 0.067200
0.433800 0.989400 0.067200
0.492300 0.989400 0.067200
0.550800 0.989400 0.067200
0.609300 0.989400 0.067200
0.667800 0.989400 0.067200
0.726300 0.989400 0.067200
0.784800 0.989400 0.067200
0.843300 0.989400 0.067200
0.901800 0.989400 0.067200
0.960300 0.989400 0.067200
1.000000 0.989400 0.067200
0.082800 0.071400 0.121200
0.141300 0.071400 0.121200
0.199800 0.071400 0.121200
0.258300 0.071400 0.121200
0.316800 0.071400 0.121200
0.375300 0.071400 0.121200
0.433800 0.071400 0.121200
0.492300 0.071400 0.121200
0.550800 0.071400 0.121200
0.609300 0.071400 0.121200
0.667800 0.071400 0.121200
0.726300 0.071400 0.121200
0.784800 0.071400 0.121200
0.843300 0.071400 0.121200
0.901800 0.071400 0.121200
0.960300 0.071400 0.121200
1.000000 0.071400 0.121200
0.082800 0.128775 0.121200
0.141300 0.128775 0.121200
0.199800 0.128775 0.121200
0.258300 0.128775 0.121200
0.316800 0.128775 0.121200
0.375300 0.128775 0.121200
0.433800 0.128775 0.121200
0.492300 0.128775 0.121200
0.550800 0.128775 0.121200
0.609300 0.128775 0.121200
0.667800 0.128775 0.121200
0.726300 0.128775 0.121200
0.784800 0.128775 0.121200
0.843300 0.128775 0.121200
0.901800 0.128775 0.121200
0.960300 0.128775 0.121200
1.000000 0.128775 0.121200
0.082800 0.186150 0.121200
0.141300 0.186150 0.121200
0.199800 0.186150 0.121200
0.258300 0.186150 0.121200
0.316800 0.186150 0.121200
0.375300 0.186150 0.121200
0.433800 0.186150 0.121200
0.492300 0.186150 0.121200
0.550800 0.186150 0.121200
0.609300 0.186150 0.121200
0.667800 0.186150 0.121200
0.726300 0.186150 0.121200
0.784800 0.186150 0.121200
0.843300 0.186150 0.121200
0.901800 0.186150 0.121200
0.960300 0.186150 0.121200
1.000000 0.186150 0.121200
0.082800 0.243525 0.121200
0.141300 0.243525 0.121200
0.199800 0.243525 0.121200
0.258300 0.243525 0.121200
0.316800 0.243525 0.121200
0.375300 0.243525 0.121200
0.433800 0.243525 0.121200
0.492300 0.243525 0.121200
0.550800 0.243525 0.121200
0.609300 0.243525 0.121200
0.667800 0.243525 0.121200
0.726300 0.243525 0.121200
0.784800 0.243525 0.121200
0.843300 0.243525 0.121200
0.901800 0.243525 0.121200
0.960300 0.243525 0.121200
1.000000 0.243525 0.121200
0.082800 0.300900 0.121200
0.141300 0.300900 0.121200
0.199800 0.300900 0.121200
0.258300 0.300900 0.121200
0.316800 0.300900 0.121200
0.375300 0.300900 0.121200
0.433800 0.300900 0.121200
0.492300 0.300900 0.121200
0.550800 0.300900 0.121200
0.609300 0.300900 0.121200
0.667800 0.300900 0.121200
0.726300 0.300900 0.121200
0.784800 0.300900 0.121200
0.843300 0.300900 0.121200
0.901800 0.300900 0.121200
0.960300 0.300900 0.121200
1.000000 0.300900 0.121200
0.082800 0.358275 0.121200
0.141300 0.358275 0.121200
0.199800 0.358275 0.121200
0.258300 0.358275 0.121200
0.316800 0.358275 0.121200
0.375300 0.358275 0.121200
0.433800 0.358275 0.121200
0.492300 0.358275 0.121200
0.550800 0.358275 0.121200
0.609300 0.358275 0.121200
0.667800 0.358275 0.121200
0.726300 0.358275 0.121200
0.784800 0.358275 0.121200
0.843300 0.358275 0.121200
0.901800 0.358275 0.121200
0.960300 0.358275 0.121200
1.000000 0.358275 0.121200
0.082800 0.415650 0.121200
0.141300 0.415650 0.121200
0.199800 0.415650 0.121200
0.258300 0.415650 0.121200
0.316800 0.415650 0.121200
0.375300 0.415650 0.121200
0.433800 0.415650 0.121200
0.492300 0.415650 0.121200
0.550800 0.415650 0.121200
0.609300 0.415650 0.121200
0.667800 0.415650 0.121200
0.726300 0.415650 0.121200
0.784800 0.415650 0.121200
0.843300 0.415650 0.121200
0.901800 0.415650 0.121200
0.960300 0.415650 0.121200
1.000000 0.415650 0.121200
0.082800 0.473025 0.121200
0.141300 0.473025 0.121200
0.199800 0.473025 0.121200
0.258300 0.473025 0.121200
0.316800 0.473025 0.121200
0.375300 0.473025 0.121200
0.433800 0.473025 0.121200
0.492300 0.473025 0.121200
0.550800 0.473025 0.121200
0.609300 0.473025 0.121200
0.667800 0.473025 0.121200
0.726300 0.473025 0.121200
0.784800 0.473025 0.121200
0.843300 0.473025 0.121200
0.901800 0.473025 0.121200
0.960300 0.473025 0.121200
1.000000 0.473025 0.121200
0.082800 0.530400 0.121200
0.141300 0.530400 0.121200
0.199800 0.530400 0.121200
0.258300 0.530400 0.121200
0.316800 0.530400 0.121200
0.375300 0.530400 0.121200
0.433800 0.530400 0.121200
0.492300 0.530400 0.121200
0.550800 0.530400 0.121200
0.609300 0.530400 0.121200
0.667800 0.530400 0.121200
0.726300 0.530400 0.121200
0.784800 0.530400 0.121200
0.843300 0.530400 0.121200
0.901800 0.530400 0.121200
0.960300 0.530400 0.121200
1.000000 0.530400 0.121200
0.082800 0.587775 0.121200
0.141300 0.587775 0.121200
0.199800 0.587775 0.121200
0.258300 0.587775 0.121200
0.316800 0.587775 0.121200
0.375300 0.587775 0.121200
0.433800 0.587775 0.121200
0.492300 0.587775 0.121200
0.550800 0.587775 0.121200
0.609300 0.587775 0.121200
0.667800 0.587775 0.121200
0.726300 0.587775 0.121200
0.784800 0.587775 0.121200
0.843300 0.587775 0.121200
0.901800 0.587775 0.121200
0.960300 0.587775 0.121200
1.000000 0.587775 0.121200
0.082800 0.645150 0.121200
0.141300 0.645150 0.121200
0.199800 0.645150 0.121200
0.258300 0.645150 0.121200
0.316800 0.645150 0.121200
0.375300 0.645150 0.121200
0.433800 0.645150 0.121200
0.492300 0.645150 0.121200
0.550800 0.645150 0.121200
0.609300 0.645150 0.121200
0.667800 0.645150 0.121200
0.726300 0.645150 0.121200
0.784800 0.645150 0.121200
0.843300 0.645150 0.121200
0.901800 0.645150 0.121200
0.960300 0.645150 0.121200
1.000000 0.645150 0.121200
0.082800 0.702525 0.121200
0.141300 0.702525 0.121200
0.199800 0.702525 0.121200
0.258300 0.702525 0.121200
0.316800 0.702525 0.121200
0.375300 0.702525 0.121200
0.433800 0.702525 0.121200
0.492300 0.702525 0.121200
0.550800 0.702525 0.121200
0.609300 0.702525 0.121200
0.667800 0.702525 0.121200
0.726300 0.702525 0.121200
0.784800 0.702525 0.121200
0.843300 0.702525 0.121200
0.901800 0.702525 0.121200
0.960300 0.702525 0.121200
1.000000 0.702525 0.121200
0.082800 0.759900 0.121200
0.141300 0.759900 0.121200
0.199800 0.759900 0.121200
0.258300 0.759900 0.121200
0.316800 0.759900 0.121200
0.375300 0.759900 0.121200
0.433800 0.759900 0.121200
0.492300 0.759900 0.121200
0.550800 0.759900 0.121200
0.609300 0.759900 0.121200
0.667800 0.759900 0.121200
0.726300 0.759900 0.121200
0.784800 0.759900 0.121200
0.843300 0.759900 0.121200
0.901800 0.759900 0.121200
0.960300 0.759900 0.121200
1.000000 0.759900 0.121200
0.082800 0.817275 0.121200
0.141300 0.817275 0.121200
0.199800 0.817275 0.121200
0.258300 0.817275 0.121200
0.316800 0.817275 0.121200
0.375300 0.817275 0.121200
0.433800 0.817275 0.121200
0.492300 0.817275 0.121200
0.550800 0.817275 0.121200
0.609300 0.817275 0.121200
0.667800 0.817275 0.121200
0.726300 0.817275 0.121200
0.784800 0.817275 0.121200
0.843300 0.817275 0.121200
0.901800 0.817275 0.121200
0.960300 0.817275 0.121200
1.000000 0.817275 0.121200
0.082800 0.874650 0.121200
0.141300 0.874650 0.121200
0.199800 0.874650 0.121200
0.258300 0.874650 0.121200
0.316800 0.874650 0.121200
0.375300 0.874650 0.121200
0.433800 0.874650 0.121200
0.492300 0.874650 0.121200
0.550800 0.874650 0.121200
0.609300 0.874650 0.121200
0.667800 0.874650 0.121200
0.726300 0.874650 0.121200
0.784800 0.874650 0.121200
0.843300 0.874650 0.121200
0.901800 0.874650 0.121200
0.960300 0.874650 0.121200
1.000000 0.874650 0.121200
0.082800 0.932025 0.121200
0.141300 0.932025 0.121200
0.199800 0.932025 0.121200
0.258300 0.932025 0.121200
0.316800 0.932025 0.121200
0.375300 0.932025 0.121200
0.433800 0.932025 0.121200
0.492300 0.932025 0.121200
0.550800 0.932025 0.121200
0.609300 0.932025 0.121200
0.667800 0.932025 0.121200
0.726300 0.932025 0.121200
0.784800 0.932025 0.121200
0.843300 0.932025 0.121200
0.901800 0.932025 0.121200
0.960300 0.932025 0.121200
1.000000 0.932025 0.121200
0.082800 0.989400 0.121200
0.141300 0.989400 0.121200
0.199800 0.989400 0.121200
0.258300 0.989400 0.121200
0.316800 0.989400 0.121200
0.375300 0.989400 0.121200
0.433800 0.989400 0.121200
0.492300 0.989400 0.121200
0.550800 0.989400 0.121200
0.609300 0.989400 0.121200
0.667800 0.989400 0.121200
0.726300 0.989400 0.121200
0.784800 0.989400 0.121200
0.843300 0.989400 0.121200
0.901800 0.989400 0.121200
0.960300 0.989400 0.121200
1.000000 0.989400 0.121200
0.082800 0.071400 0.175200
0.141300 0.071400 0.175200
0.199800 0.071400 0.175200
0.258300 0.071400 0.175200
0.316800 0.071400 0.175200
0.375300 0.071400 0.175200
0.433800 0.071400 0.175200
0.492300 0.071400 0.175200
0.550800 0.071400 0.175200
0.609300 0.071400 0.175200
0.667800 0.071400 0.175200
0.726300 0.071400 0.175200
0.784800 0.071400 0.175200
0.843300 0.071400 0.175200
0.901800 0.071400 0.175200
0.960300 0.071400 0.175200
1.000000 0.071400 0.175200
0.082800 0.128775 0.175200
0.141300 0.128775 0.175200
0.199800 0.128775 0.175200
0.258300 0.128775 0.175200
0.316800 0.128775 0.175200
0.375300 0.128775 0.175200
0.433800 0.128775 0.175200
0.492300 0.128775 0.175200
0.550800 0.128775 0.175200
0.609300 0.128775 0.175200
0.667800 0.128775 0.175200
0.726300 0.128775 0.175200
0.784800 0.128775 0.175200
0.843300 0.128775 0.175200
0.901800 0.128775 0.175200
0.960300 0.128775 0.175200
1.000000 0.128775 0.175200
0.082800 0.186150 0.175200
0.141300 0.186150 0.175200
0.199800 0.186150 0.175200
0.258300 0.186150 0.175200
0.316800 0.186150 0.175200
0.375300 0.186150 0.175200
0.433800 0.186150 0.175200
0.492300 0.186150 0.175200
0.550800 0.186150 0.175200
0.609300 0.186150 0.175200
0.667800 0.186150 0.175200
0.726300 0.186150 0.175200
0.784800 0.186150 0.175200
0.843300 0.186150 0.175200
0.901800 0.186150 0.175200
0.960300 0.186150 0.175200
1.000000 0.186150 0.175200
0.082800 0.243525 0.175200
0.141300 0.243525 0.175200
0.199800 0.243525 0.175200
0.258300 0.243525 0.175200
0.316800 0.243525 0.175200
0.375300 0.243525 0.175200
0.433800 0.243525 0.175200
0.492300 0.243525 0.175200
0.550800 0.243525 0.175200
0.609300 0.243525 0.175200
0.667800 0.243525 0.175200
0.726300 0.243525 0.175200
0.784800 0.243525 0.175200
0.843300 0.243525 0.175200
0.901800 0.243525 0.175200
0.960300 0.243525 0.175200
1.000000 0.243525 0.175200
0.082800 0.300900 0.175200
0.141300 0.300900 0.175200
0.199800 0.300900 0.175200
0.258300 0.300900 0.175200
0.316800 0.300900 0.175200
0.375300 0.300900 0.175200
0.433800 0.300900 0.175200
0.492300 0.300900 0.175200
0.550800 0.300900 0.175200
0.609300 0.300900 0.175200
0.667800 0.300900 0.175200
0.726300 0.300900 0.175200
0.784800 0.300900 0.175200
0.843300 0.300900 0.175200
0.901800 0.300900 0.175200
0.960300 0.300900 0.175200
1.000000 0.300900 0.175200
0.082800 0.358275 0.175200
0.141300 0.358275 0.175200
0.199800 0.358275 0.175200
0.258300 0.358275 0.175200
0.316800 0.358275 0.175200
0.375300 0.358275 0.175200
0.433800 0.358275 0.175200
0.492300 0.358275 0.175200
0.550800 0.358275 0.175200
0.609300 0.358275 0.175200
0.667800 0.358275 0.175200
0.726300 0.358275 0.175200
0.784800 0.358275 0.175200
0.843300 0.358275 0.175200
0.901800 0.358275 0.175200
0.960300 0.358275 0.175200
1.000000 0.358275 0.175200
0.082800 0.415650 0.175200
0.141300 0.415650 0.175200
0.199800 0.415650 0.175200
0.258300 0.415650 0.175200
0.316800 0.415650 0.175200
0.375300 0.415650 0.175200
0.433800 0.415650 0.175200
0.492300 0.415650 0.175200
0.550800 0.415650 0.175200
0.609300 0.415650 0.175200
0.667800 0.415650 0.175200
0.726300 0.415650 0.175200
0.784800 0.415650 0.175200
0.843300 0.415650 0.175200
0.901800 0.415650 0.175200
0.960300 0.415650 0.175200
1.000000 0.415650 0.175200
0.082800 0.473025 0.175200
0.141300 0.473025 0.175200
0.199800 0.473025 0.175200
0.258300 0.473025 0.175200
0.316800 0.473025 0.175200
0.375300 0.473025 0.175200
0.433800 0.473025 0.175200
0.492300 0.473025 0.175200
0.550800 0.473025 0.175200
0.609300 0.473025 0.175200
0.667800 0.473025 0.175200
0.726300 0.473025 0.175200
0.784800 0.473025 0.175200
0.843300 0.473025 0.175200
0.901800 0.473025 0.175200
0.960300 0.473025 0.175200
1.000000 0.473025 0.175200
0.082800 0.530400 0.175200
0.141300 0.530400 0.175200
0.199800 0.530400 0.175200
0.258300 0.530400 0.175200
0.316800 0.530400 0.175200
0.375300 0.530400 0.175200
0.433800 0.530400 0.175200
0.492300 0.530400 0.175200
0.550800 0.530400 0.175200
0.609300 0.530400 0.175200
0.667800 0.530400 0.175200
0.726300 0.530400 0.175200
0.784800 0.530400 0.175200
0.843300 0.530400 0.175200
0.901800 0.530400 0.175200
0.960300 0.530400 0.175200
1.000000 0.530400 0.175200
0.082800 0.587775 0.175200
0.141300 0.587775 0.175200
0.199800 0.587775 0.175200
0.258300 0.587775 0.175200
0.316800 0.587775 0.175200
0.375300 0.587775 0.175200
0.433800 0.587775 0.175200
0.492300 0.587775 0.175200
0.550800 0.587775 0.175200
0.609300 0.587775 0.175200
0.667800 0.587775 0.175200
0.726300 0.587775 0.175200
0.784800 0.587775 0.175200
0.843300 0.587775 0.175200
0.901800 0.587775 0.175200
0.960300 0.587775 0.175200
1.000000 0.587775 0.175200
0.082800 0.645150 0.175200
0.141300 0.645150 0.175200
0.199800 0.645150 0.175200
0.258300 0.645150 0.175200
0.316800 0.645150 0.175200
0.375300 0.645150 0.175200
0.433800 0.645150 0.175200
0.492300 0.645150 0.175200
0.550800 0.645150 0.175200
0.609300 0.645150 0.175200
0.667800 0.645150 0.175200
0.726300 0.645150 0.175200
0.784800 0.645150 0.175200
0.843300 0.645150 0.175200
0.901800 0.645150 0.175200
0.960300 0.645150 0.175200
1.000000 0.645150 0.175200
0.082800 0.702525 0.175200
0.141300 0.702525 0.175200
0.199800 0.702525 0.175200
0.258300 0.702525 0.175200
0.316800 0.702525 0.175200
0.375300 0.702525 0.175200
0.433800 0.702525 0.175200
0.492300 0.702525 0.175200
0.550800 0.702525 0.175200
0.609300 0.702525 0.175200
0.667800 0.702525 0.175200
0.726300 0.702525 0.175200
0.784800 0.702525 0.175200
0.843300 0.702525 0.175200
0.901800 0.702525 0.175200
0.960300 0.702525 0.175200
1.000000 0.702525 0.175200
0.082800 0.759900 0.175200
0.141300 0.759900 0.175200
0.199800 0.759900 0.175200
0.258300 0.759900 0.175200
0.316800 0.759900 0.175200
0.375300 0.759900 0.175200
0.433800 0.759900 0.175200
0.492300 0.759900 0.175200
0.550800 0.759900 0.175200
0.609300 0.759900 0.175200
0.667800 0.759900 0.175200
0.726300 0.759900 0.175200
0.784800 0.759900 0.175200
0.843300 0.759900 0.175200
0.901800 0.759900 0.175200
0.960300 0.759900 0.175200
1.000000 0.759900 0.175200
0.082800 0.817275 0.175200
0.141300 0.817275 0.175200
0.199800 0.817275 0.175200
0.258300 0.817275 0.175200
0.316800 0.817275 0.175200
0.375300 0.817275 0.175200
0.433800 0.817275 0.175200
0.492300 0.817275 0.175200
0.550800 0.817275 0.175200
0.609300 0.817275 0.175200
0.667800 0.817275 0.175200
0.726300 0.817275 0.175200
0.784800 0.817275 0.175200
0.843300 0.817275 0.175200
0.901800 0.817275 0.175200
0.960300 0.817275 0.175200
1.000000 0.817275 0.175200
0.082800 0.874650 0.175200
0.141300 0.874650 0.175200
0.199800 0.874650 0.175200
0.258300 0.874650 0.175200
0.316800 0.874650 0.175200
0.375300 0.874650 0.175200
0.433800 0.874650 0.175200
0.492300 0.874650 0.175200
0.550800 0.874650 0.175200
0.609300 0.874650 0.175200
0.667800 0.874650 0.175200
0.726300 0.874650 0.175200
0.784800 0.874650 0.175200
0.843300 0.874650 0.175200
0.901800 0.874650 0.175200
0.960300 0.874650 0.175200
1.000000 0.874650 0.175200
0.082800 0.932025 0.175200
0.141300 0.932025 0.175200
0.199800 0.932025 0.175200
0.258300 0.932025 0.175200
0.316800 0.932025 0.175200
0.375300 0.932025 0.175200
0.433800 0.932025 0.175200
0.492300 0.932025 0.175200
0.550800 0.932025 0.175200
0.609300 0.932025 0.175200
0.667800 0.932025 0.175200
0.726300 0.932025 0.175200
0.784800 0.932025 0.175200
0.843300 0.932025 0.175200
0.901800 0.932025 0.175200
0.960300 0.932025 0.175200
1.000000 0.932025 0.175200
0.082800 0.989400 0.175200
0.141300 0.989400 0.175200
0.199800 0.989400 0.175200
0.258300 0.989400 0.175200
0.316800 0.989400 0.175200
0.375300 0.989400 0.175200
0.433800 0.989400 0.175200
0.492300 0.989400 0.175200
0.550800 0.989400 0.175200
0.609300 0.989400 0.175200
0.667800 0.989400 0.175200
0.726300 0.989400 0.175200
0.784800 0.989400 0.175200
0.843300 0.989400 0.175200
0.901800 0.989400 0.175200
0.960300 0.989400 0.175200
1.000000 0.989400 0.175200
0.082800 0.071400 0.229200
0.141300 0.071400 0.229200
0.199800 0.071400 0.229200
0.258300 0.071400 0.229200
0.316800 0.071400 0.229200
0.375300 0.071400 0.229200
0.433800 0.071400 0.229200
0.492300 0.071400 0.229200
0.550800 0.071400 0.229200
0.609300 0.071400 0.229200
0.667800 0.071400 0.229200
0.726300 0.071400 0.229200
0.784800 0.071400 0.229200
0.843300 0.071400 0.229200
0.901800 0.071400 0.229200
0.960300 0.071400 0.229200
