app/assets/luts/02_warm_sunset.cube
TITLE "Pocket Warm Sunset"
# 偏暖金色调，户外/黄昏氛围。
# Pocket Live Capture built-in preset (free to use)
# POCKET_CUBE_ORDER=rgb_fastest
LUT_3D_SIZE 17
0.020000 0.010000 0.000000
0.087500 0.010000 0.000000
0.155000 0.010000 0.000000
0.222500 0.010000 0.000000
0.290000 0.010000 0.000000
0.357500 0.010000 0.000000
0.425000 0.010000 0.000000
0.492500 0.010000 0.000000
0.560000 0.010000 0.000000
0.627500 0.010000 0.000000
0.695000 0.010000 0.000000
0.762500 0.010000 0.000000
0.830000 0.010000 0.000000
0.897500 0.010000 0.000000
0.965000 0.010000 0.000000
1.000000 0.010000 0.000000
1.000000 0.010000 0.000000
0.020000 0.074375 0.000000
0.087500 0.074375 0.000000
0.155000 0.074375 0.000000
0.222500 0.074375 0.000000
0.290000 0.074375 0.000000
0.357500 0.074375 0.000000
0.425000 0.074375 0.000000
0.492500 0.074375 0.000000
0.560000 0.074375 0.000000
0.627500 0.074375 0.000000
0.695000 0.074375 0.000000
0.762500 0.074375 0.000000
0.830000 0.074375 0.000000
0.897500 0.074375 0.000000
0.965000 0.074375 0.000000
1.000000 0.074375 0.000000
1.000000 0.074375 0.000000
0.020000 0.138750 0.000000
0.087500 0.138750 0.000000
0.155000 0.138750 0.000000
0.222500 0.138750 0.000000
0.290000 0.138750 0.000000
0.357500 0.138750 0.000000
0.425000 0.138750 0.000000
0.492500 0.138750 0.000000
0.560000 0.138750 0.000000
0.627500 0.138750 0.000000
0.695000 0.138750 0.000000
0.762500 0.138750 0.000000
0.830000 0.138750 0.000000
0.897500 0.138750 0.000000
0.965000 0.138750 0.000000
1.000000 0.138750 0.000000
1.000000 0.138750 0.000000
0.020000 0.203125 0.000000
0.087500 0.203125 0.000000
0.155000 0.203125 0.000000
0.222500 0.203125 0.000000
0.290000 0.203125 0.000000
0.357500 0.203125 0.000000
0.425000 0.203125 0.000000
0.492500 0.203125 0.000000
0.560000 0.203125 0.000000
0.627500 0.203125 0.000000
0.695000 0.203125 0.000000
0.762500 0.203125 0.000000
0.830000 0.203125 0.000000
0.897500 0.203125 0.000000
0.965000 0.203125 0.000000
1.000000 0.203125 0.000000
1.000000 0.203125 0.000000
0.020000 0.267500 0.000000
0.087500 0.267500 0.000000
0.155000 0.267500 0.000000
0.222500 0.267500 0.000000
0.290000 0.267500 0.000000
0.357500 0.267500 0.000000
0.425000 0.267500 0.000000
0.492500 0.267500 0.000000
0.560000 0.267500 0.000000
0.627500 0.267500 0.000000
0.695000 0.267500 0.000000
0.762500 0.267500 0.000000
0.830000 0.267500 0.000000
0.897500 0.267500 0.000000
0.965000 0.267500 0.000000
1.000000 0.267500 0.000000
1.000000 0.267500 0.000000
0.020000 0.331875 0.000000
0.087500 0.331875 0.000000
0.155000 0.331875 0.000000
0.222500 0.331875 0.000000
0.290000 0.331875 0.000000
0.357500 0.331875 0.000000
0.425000 0.331875 0.000000
0.492500 0.331875 0.000000
0.560000 0.331875 0.000000
0.627500 0.331875 0.000000
0.695000 0.331875 0.000000
0.762500 0.331875 0.000000
0.830000 0.331875 0.000000
0.897500 0.331875 0.000000
0.965000 0.331875 0.000000
1.000000 0.331875 0.000000
1.000000 0.331875 0.000000
0.020000 0.396250 0.000000
0.087500 0.396250 0.000000
0.155000 0.396250 0.000000
0.222500 0.396250 0.000000
0.290000 0.396250 0.000000
0.357500 0.396250 0.000000
0.425000 0.396250 0.000000
0.492500 0.396250 0.000000
0.560000 0.396250 0.000000
0.627500 0.396250 0.000000
0.695000 0.396250 0.000000
0.762500 0.396250 0.000000
0.830000 0.396250 0.000000
0.897500 0.396250 0.000000
0.965000 0.396250 0.000000
1.000000 0.396250 0.000000
1.000000 0.396250 0.000000
0.020000 0.460625 0.000000
0.087500 0.460625 0.000000
0.155000 0.460625 0.000000
0.222500 0.460625 0.000000
0.290000 0.460625 0.000000
0.357500 0.460625 0.000000
0.425000 0.460625 0.000000
0.492500 0.460625 0.000000
0.560000 0.460625 0.000000
0.627500 0.460625 0.000000
0.695000 0.460625 0.000000
0.762500 0.460625 0.000000
0.830000 0.460625 0.000000
0.897500 0.460625 0.000000
0.965000 0.460625 0.000000
1.000000 0.460625 0.000000
1.000000 0.460625 0.000000
0.020000 0.525000 0.000000
0.087500 0.525000 0.000000
0.155000 0.525000 0.000000
0.222500 0.525000 0.000000
0.290000 0.525000 0.000000
0.357500 0.525000 0.000000
0.425000 0.525000 0.000000
0.492500 0.525000 0.000000
0.560000 0.525000 0.000000
0.627500 0.525000 0.000000
0.695000 0.525000 0.000000
0.762500 0.525000 0.000000
0.830000 0.525000 0.000000
0.897500 0.525000 0.000000
0.965000 0.525000 0.000000
1.000000 0.525000 0.000000
1.000000 0.525000 0.000000
0.020000 0.589375 0.000000
0.087500 0.589375 0.000000
0.155000 0.589375 0.000000
0.222500 0.589375 0.000000
0.290000 0.589375 0.000000
0.357500 0.589375 0.000000
0.425000 0.589375 0.000000
0.492500 0.589375 0.000000
0.560000 0.589375 0.000000
0.627500 0.589375 0.000000
0.695000 0.589375 0.000000
0.762500 0.589375 0.000000
0.830000 0.589375 0.000000
0.897500 0.589375 0.000000
0.965000 0.589375 0.000000
1.000000 0.589375 0.000000
1.000000 0.589375 0.000000
0.020000 0.653750 0.000000
0.087500 0.653750 0.000000
0.155000 0.653750 0.000000
0.222500 0.653750 0.000000
0.290000 0.653750 0.000000
0.357500 0.653750 0.000000
0.425000 0.653750 0.000000
0.492500 0.653750 0.000000
0.560000 0.653750 0.000000
0.627500 0.653750 0.000000
0.695000 0.653750 0.000000
0.762500 0.653750 0.000000
0.830000 0.653750 0.000000
0.897500 0.653750 0.000000
0.965000 0.653750 0.000000
1.000000 0.653750 0.000000
1.000000 0.653750 0.000000
0.020000 0.718125 0.000000
0.087500 0.718125 0.000000
0.155000 0.718125 0.000000
0.222500 0.718125 0.000000
0.290000 0.718125 0.000000
0.357500 0.718125 0.000000
0.425000 0.718125 0.000000
0.492500 0.718125 0.000000
0.560000 0.718125 0.000000
0.627500 0.718125 0.000000
0.695000 0.718125 0.000000
0.762500 0.718125 0.000000
0.830000 0.718125 0.000000
0.897500 0.718125 0.000000
0.965000 0.718125 0.000000
1.000000 0.718125 0.000000
1.000000 0.718125 0.000000
0.020000 0.782500 0.000000
0.087500 0.782500 0.000000
0.155000 0.782500 0.000000
0.222500 0.782500 0.000000
0.290000 0.782500 0.000000
0.357500 0.782500 0.000000
0.425000 0.782500 0.000000
0.492500 0.782500 0.000000
0.560000 0.782500 0.000000
0.627500 0.782500 0.000000
0.695000 0.782500 0.000000
0.762500 0.782500 0.000000
0.830000 0.782500 0.000000
0.897500 0.782500 0.000000
0.965000 0.782500 0.000000
1.000000 0.782500 0.000000
1.000000 0.782500 0.000000
0.020000 0.846875 0.000000
0.087500 0.846875 0.000000
0.155000 0.846875 0.000000
0.222500 0.846875 0.000000
0.290000 0.846875 0.000000
0.357500 0.846875 0.000000
0.425000 0.846875 0.000000
0.492500 0.846875 0.000000
0.560000 0.846875 0.000000
0.627500 0.846875 0.000000
0.695000 0.846875 0.000000
0.762500 0.846875 0.000000
0.830000 0.846875 0.000000
0.897500 0.846875 0.000000
0.965000 0.846875 0.000000
1.000000 0.846875 0.000000
1.000000 0.846875 0.000000
0.020000 0.911250 0.000000
0.087500 0.911250 0.000000
0.155000 0.911250 0.000000
0.222500 0.911250 0.000000
0.290000 0.911250 0.000000
0.357500 0.911250 0.000000
0.425000 0.911250 0.000000
0.492500 0.911250 0.000000
0.560000 0.911250 0.000000
0.627500 0.911250 0.000000
0.695000 0.911250 0.000000
0.762500 0.911250 0.000000
0.830000 0.911250 0.000000
0.897500 0.911250 0.000000
0.965000 0.911250 0.000000
1.000000 0.911250 0.000000
1.000000 0.911250 0.000000
0.020000 0.975625 0.000000
0.087500 0.975625 0.000000
0.155000 0.975625 0.000000
0.222500 0.975625 0.000000
0.290000 0.975625 0.000000
0.357500 0.975625 0.000000
0.425000 0.975625 0.000000
0.492500 0.975625 0.000000
0.560000 0.975625 0.000000
0.627500 0.975625 0.000000
0.695000 0.975625 0.000000
0.762500 0.975625 0.000000
0.830000 0.975625 0.000000
0.897500 0.975625 0.000000
0.965000 0.975625 0.000000
1.000000 0.975625 0.000000
1.000000 0.975625 0.000000
0.020000 1.000000 0.000000
0.087500 1.000000 0.000000
0.155000 1.000000 0.000000
0.222500 1.000000 0.000000
0.290000 1.000000 0.000000
0.357500 1.000000 0.000000
0.425000 1.000000 0.000000
0.492500 1.000000 0.000000
0.560000 1.000000 0.000000
0.627500 1.000000 0.000000
0.695000 1.000000 0.000000
0.762500 1.000000 0.000000
0.830000 1.000000 0.000000
0.897500 1.000000 0.000000
0.965000 1.000000 0.000000
1.000000 1.000000 0.000000
1.000000 1.000000 0.000000
0.020000 0.010000 0.056250
0.087500 0.010000 0.056250
0.155000 0.010000 0.056250
0.222500 0.010000 0.056250
0.290000 0.010000 0.056250
0.357500 0.010000 0.056250
0.425000 0.010000 0.056250
0.492500 0.010000 0.056250
0.560000 0.010000 0.056250
0.627500 0.010000 0.056250
0.695000 0.010000 0.056250
0.762500 0.010000 0.056250
0.830000 0.010000 0.056250
0.897500 0.010000 0.056250
0.965000 0.010000 0.056250
1.000000 0.010000 0.056250
1.000000 0.010000 0.056250
0.020000 0.074375 0.056250
0.087500 0.074375 0.056250
0.155000 0.074375 0.056250
0.222500 0.074375 0.056250
0.290000 0.074375 0.056250
0.357500 0.074375 0.056250
0.425000 0.074375 0.056250
0.492500 0.074375 0.056250
0.560000 0.074375 0.056250
0.627500 0.074375 0.056250
0.695000 0.074375 0.056250
0.762500 0.074375 0.056250
0.830000 0.074375 0.056250
0.897500 0.074375 0.056250
0.965000 0.074375 0.056250
1.000000 0.074375 0.056250
1.000000 0.074375 0.056250
0.020000 0.138750 0.056250
0.087500 0.138750 0.056250
0.155000 0.138750 0.056250
0.222500 0.138750 0.056250
0.290000 0.138750 0.056250
0.357500 0.138750 0.056250
0.425000 0.138750 0.056250
0.492500 0.138750 0.056250
0.560000 0.138750 0.056250
0.627500 0.138750 0.056250
0.695000 0.138750 0.056250
0.762500 0.138750 0.056250
0.830000 0.138750 0.056250
0.897500 0.138750 0.056250
0.965000 0.138750 0.056250
1.000000 0.138750 0.056250
1.000000 0.138750 0.056250
0.020000 0.203125 0.056250
0.087500 0.203125 0.056250
0.155000 0.203125 0.056250
0.222500 0.203125 0.056250
0.290000 0.203125 0.056250
0.357500 0.203125 0.056250
0.425000 0.203125 0.056250
0.492500 0.203125 0.056250
0.560000 0.203125 0.056250
0.627500 0.203125 0.056250
0.695000 0.203125 0.056250
0.762500 0.203125 0.056250
0.830000 0.203125 0.056250
0.897500 0.203125 0.056250
0.965000 0.203125 0.056250
1.000000 0.203125 0.056250
1.000000 0.203125 0.056250
0.020000 0.267500 0.056250
0.087500 0.267500 0.056250
0.155000 0.267500 0.056250
0.222500 0.267500 0.056250
0.290000 0.267500 0.056250
0.357500 0.267500 0.056250
0.425000 0.267500 0.056250
0.492500 0.267500 0.056250
0.560000 0.267500 0.056250
0.627500 0.267500 0.056250
0.695000 0.267500 0.056250
0.762500 0.267500 0.056250
0.830000 0.267500 0.056250
0.897500 0.267500 0.056250
0.965000 0.267500 0.056250
1.000000 0.267500 0.056250
1.000000 0.267500 0.056250
0.020000 0.331875 0.056250
0.087500 0.331875 0.056250
0.155000 0.331875 0.056250
0.222500 0.331875 0.056250
0.290000 0.331875 0.056250
0.357500 0.331875 0.056250
0.425000 0.331875 0.056250
0.492500 0.331875 0.056250
0.560000 0.331875 0.056250
0.627500 0.331875 0.056250
0.695000 0.331875 0.056250
0.762500 0.331875 0.056250
0.830000 0.331875 0.056250
0.897500 0.331875 0.056250
0.965000 0.331875 0.056250
1.000000 0.331875 0.056250
1.000000 0.331875 0.056250
0.020000 0.396250 0.056250
0.087500 0.396250 0.056250
0.155000 0.396250 0.056250
0.222500 0.396250 0.056250
0.290000 0.396250 0.056250
0.357500 0.396250 0.056250
0.425000 0.396250 0.056250
0.492500 0.396250 0.056250
0.560000 0.396250 0.056250
0.627500 0.396250 0.056250
0.695000 0.396250 0.056250
0.762500 0.396250 0.056250
0.830000 0.396250 0.056250
0.897500 0.396250 0.056250
0.965000 0.396250 0.056250
1.000000 0.396250 0.056250
1.000000 0.396250 0.056250
0.020000 0.460625 0.056250
0.087500 0.460625 0.056250
0.155000 0.460625 0.056250
0.222500 0.460625 0.056250
0.290000 0.460625 0.056250
0.357500 0.460625 0.056250
0.425000 0.460625 0.056250
0.492500 0.460625 0.056250
0.560000 0.460625 0.056250
0.627500 0.460625 0.056250
0.695000 0.460625 0.056250
0.762500 0.460625 0.056250
0.830000 0.460625 0.056250
0.897500 0.460625 0.056250
0.965000 0.460625 0.056250
1.000000 0.460625 0.056250
1.000000 0.460625 0.056250
0.020000 0.525000 0.056250
0.087500 0.525000 0.056250
0.155000 0.525000 0.056250
0.222500 0.525000 0.056250
0.290000 0.525000 0.056250
0.357500 0.525000 0.056250
0.425000 0.525000 0.056250
0.492500 0.525000 0.056250
0.560000 0.525000 0.056250
0.627500 0.525000 0.056250
0.695000 0.525000 0.056250
0.762500 0.525000 0.056250
0.830000 0.525000 0.056250
0.897500 0.525000 0.056250
0.965000 0.525000 0.056250
1.000000 0.525000 0.056250
1.000000 0.525000 0.056250
0.020000 0.589375 0.056250
0.087500 0.589375 0.056250
0.155000 0.589375 0.056250
0.222500 0.589375 0.056250
0.290000 0.589375 0.056250
0.357500 0.589375 0.056250
0.425000 0.589375 0.056250
0.492500 0.589375 0.056250
0.560000 0.589375 0.056250
0.627500 0.589375 0.056250
0.695000 0.589375 0.056250
0.762500 0.589375 0.056250
0.830000 0.589375 0.056250
0.897500 0.589375 0.056250
0.965000 0.589375 0.056250
1.000000 0.589375 0.056250
1.000000 0.589375 0.056250
0.020000 0.653750 0.056250
0.087500 0.653750 0.056250
0.155000 0.653750 0.056250
0.222500 0.653750 0.056250
0.290000 0.653750 0.056250
0.357500 0.653750 0.056250
0.425000 0.653750 0.056250
0.492500 0.653750 0.056250
0.560000 0.653750 0.056250
0.627500 0.653750 0.056250
0.695000 0.653750 0.056250
0.762500 0.653750 0.056250
0.830000 0.653750 0.056250
0.897500 0.653750 0.056250
0.965000 0.653750 0.056250
1.000000 0.653750 0.056250
1.000000 0.653750 0.056250
0.020000 0.718125 0.056250
0.087500 0.718125 0.056250
0.155000 0.718125 0.056250
0.222500 0.718125 0.056250
0.290000 0.718125 0.056250
0.357500 0.718125 0.056250
0.425000 0.718125 0.056250
0.492500 0.718125 0.056250
0.560000 0.718125 0.056250
0.627500 0.718125 0.056250
0.695000 0.718125 0.056250
0.762500 0.718125 0.056250
0.830000 0.718125 0.056250
0.897500 0.718125 0.056250
0.965000 0.718125 0.056250
1.000000 0.718125 0.056250
1.000000 0.718125 0.056250
0.020000 0.782500 0.056250
0.087500 0.782500 0.056250
0.155000 0.782500 0.056250
0.222500 0.782500 0.056250
0.290000 0.782500 0.056250
0.357500 0.782500 0.056250
0.425000 0.782500 0.056250
0.492500 0.782500 0.056250
0.560000 0.782500 0.056250
0.627500 0.782500 0.056250
0.695000 0.782500 0.056250
0.762500 0.782500 0.056250
0.830000 0.782500 0.056250
0.897500 0.782500 0.056250
0.965000 0.782500 0.056250
1.000000 0.782500 0.056250
1.000000 0.782500 0.056250
0.020000 0.846875 0.056250
0.087500 0.846875 0.056250
0.155000 0.846875 0.056250
0.222500 0.846875 0.056250
0.290000 0.846875 0.056250
0.357500 0.846875 0.056250
0.425000 0.846875 0.056250
0.492500 0.846875 0.056250
0.560000 0.846875 0.056250
0.627500 0.846875 0.056250
0.695000 0.846875 0.056250
0.762500 0.846875 0.056250
0.830000 0.846875 0.056250
0.897500 0.846875 0.056250
0.965000 0.846875 0.056250
1.000000 0.846875 0.056250
1.000000 0.846875 0.056250
0.020000 0.911250 0.056250
0.087500 0.911250 0.056250
0.155000 0.911250 0.056250
0.222500 0.911250 0.056250
0.290000 0.911250 0.056250
0.357500 0.911250 0.056250
0.425000 0.911250 0.056250
0.492500 0.911250 0.056250
0.560000 0.911250 0.056250
0.627500 0.911250 0.056250
0.695000 0.911250 0.056250
0.762500 0.911250 0.056250
0.830000 0.911250 0.056250
0.897500 0.911250 0.056250
0.965000 0.911250 0.056250
1.000000 0.911250 0.056250
1.000000 0.911250 0.056250
0.020000 0.975625 0.056250
0.087500 0.975625 0.056250
0.155000 0.975625 0.056250
0.222500 0.975625 0.056250
0.290000 0.975625 0.056250
0.357500 0.975625 0.056250
0.425000 0.975625 0.056250
0.492500 0.975625 0.056250
0.560000 0.975625 0.056250
0.627500 0.975625 0.056250
0.695000 0.975625 0.056250
0.762500 0.975625 0.056250
0.830000 0.975625 0.056250
0.897500 0.975625 0.056250
0.965000 0.975625 0.056250
1.000000 0.975625 0.056250
1.000000 0.975625 0.056250
0.020000 1.000000 0.056250
0.087500 1.000000 0.056250
0.155000 1.000000 0.056250
0.222500 1.000000 0.056250
0.290000 1.000000 0.056250
0.357500 1.000000 0.056250
0.425000 1.000000 0.056250
0.492500 1.000000 0.056250
0.560000 1.000000 0.056250
0.627500 1.000000 0.056250
0.695000 1.000000 0.056250
0.762500 1.000000 0.056250
0.830000 1.000000 0.056250
0.897500 1.000000 0.056250
0.965000 1.000000 0.056250
1.000000 1.000000 0.056250
1.000000 1.000000 0.056250
0.020000 0.010000 0.112500
0.087500 0.010000 0.112500
0.155000 0.010000 0.112500
0.222500 0.010000 0.112500
0.290000 0.010000 0.112500
0.357500 0.010000 0.112500
0.425000 0.010000 0.112500
0.492500 0.010000 0.112500
0.560000 0.010000 0.112500
0.627500 0.010000 0.112500
0.695000 0.010000 0.112500
0.762500 0.010000 0.112500
0.830000 0.010000 0.112500
0.897500 0.010000 0.112500
0.965000 0.010000 0.112500
1.000000 0.010000 0.112500
1.000000 0.010000 0.112500
0.020000 0.074375 0.112500
0.087500 0.074375 0.112500
0.155000 0.074375 0.112500
0.222500 0.074375 0.112500
0.290000 0.074375 0.112500
0.357500 0.074375 0.112500
0.425000 0.074375 0.112500
0.492500 0.074375 0.112500
0.560000 0.074375 0.112500
0.627500 0.074375 0.112500
0.695000 0.074375 0.112500
0.762500 0.074375 0.112500
0.830000 0.074375 0.112500
0.897500 0.074375 0.112500
0.965000 0.074375 0.112500
1.000000 0.074375 0.112500
1.000000 0.074375 0.112500
0.020000 0.138750 0.112500
0.087500 0.138750 0.112500
0.155000 0.138750 0.112500
0.222500 0.138750 0.112500
0.290000 0.138750 0.112500
0.357500 0.138750 0.112500
0.425000 0.138750 0.112500
0.492500 0.138750 0.112500
0.560000 0.138750 0.112500
0.627500 0.138750 0.112500
0.695000 0.138750 0.112500
0.762500 0.138750 0.112500
0.830000 0.138750 0.112500
0.897500 0.138750 0.112500
0.965000 0.138750 0.112500
1.000000 0.138750 0.112500
1.000000 0.138750 0.112500
0.020000 0.203125 0.112500
0.087500 0.203125 0.112500
0.155000 0.203125 0.112500
0.222500 0.203125 0.112500
0.290000 0.203125 0.112500
0.357500 0.203125 0.112500
0.425000 0.203125 0.112500
0.492500 0.203125 0.112500
0.560000 0.203125 0.112500
0.627500 0.203125 0.112500
0.695000 0.203125 0.112500
0.762500 0.203125 0.112500
0.830000 0.203125 0.112500
0.897500 0.203125 0.112500
0.965000 0.203125 0.112500
1.000000 0.203125 0.112500
1.000000 0.203125 0.112500
0.020000 0.267500 0.112500
0.087500 0.267500 0.112500
0.155000 0.267500 0.112500
0.222500 0.267500 0.112500
0.290000 0.267500 0.112500
0.357500 0.267500 0.112500
0.425000 0.267500 0.112500
0.492500 0.267500 0.112500
0.560000 0.267500 0.112500
0.627500 0.267500 0.112500
0.695000 0.267500 0.112500
0.762500 0.267500 0.112500
0.830000 0.267500 0.112500
0.897500 0.267500 0.112500
0.965000 0.267500 0.112500
1.000000 0.267500 0.112500
1.000000 0.267500 0.112500
0.020000 0.331875 0.112500
0.087500 0.331875 0.112500
0.155000 0.331875 0.112500
0.222500 0.331875 0.112500
0.290000 0.331875 0.112500
0.357500 0.331875 0.112500
0.425000 0.331875 0.112500
0.492500 0.331875 0.112500
0.560000 0.331875 0.112500
0.627500 0.331875 0.112500
0.695000 0.331875 0.112500
0.762500 0.331875 0.112500
0.830000 0.331875 0.112500
0.897500 0.331875 0.112500
0.965000 0.331875 0.112500
1.000000 0.331875 0.112500
1.000000 0.331875 0.112500
0.020000 0.396250 0.112500
0.087500 0.396250 0.112500
0.155000 0.396250 0.112500
0.222500 0.396250 0.112500
0.290000 0.396250 0.112500
0.357500 0.396250 0.112500
0.425000 0.396250 0.112500
0.492500 0.396250 0.112500
0.560000 0.396250 0.112500
0.627500 0.396250 0.112500
0.695000 0.396250 0.112500
0.762500 0.396250 0.112500
0.830000 0.396250 0.112500
0.897500 0.396250 0.112500
0.965000 0.396250 0.112500
1.000000 0.396250 0.112500
1.000000 0.396250 0.112500
0.020000 0.460625 0.112500
0.087500 0.460625 0.112500
0.155000 0.460625 0.112500
0.222500 0.460625 0.112500
0.290000 0.460625 0.112500
0.357500 0.460625 0.112500
0.425000 0.460625 0.112500
0.492500 0.460625 0.112500
0.560000 0.460625 0.112500
0.627500 0.460625 0.112500
0.695000 0.460625 0.112500
0.762500 0.460625 0.112500
0.830000 0.460625 0.112500
0.897500 0.460625 0.112500
0.965000 0.460625 0.112500
1.000000 0.460625 0.112500
1.000000 0.460625 0.112500
0.020000 0.525000 0.112500
0.087500 0.525000 0.112500
0.155000 0.525000 0.112500
0.222500 0.525000 0.112500
0.290000 0.525000 0.112500
0.357500 0.525000 0.112500
0.425000 0.525000 0.112500
0.492500 0.525000 0.112500
0.560000 0.525000 0.112500
0.627500 0.525000 0.112500
0.695000 0.525000 0.112500
0.762500 0.525000 0.112500
0.830000 0.525000 0.112500
0.897500 0.525000 0.112500
0.965000 0.525000 0.112500
1.000000 0.525000 0.112500
1.000000 0.525000 0.112500
0.020000 0.589375 0.112500
0.087500 0.589375 0.112500
0.155000 0.589375 0.112500
0.222500 0.589375 0.112500
0.290000 0.589375 0.112500
0.357500 0.589375 0.112500
0.425000 0.589375 0.112500
0.492500 0.589375 0.112500
0.560000 0.589375 0.112500
0.627500 0.589375 0.112500
0.695000 0.589375 0.112500
0.762500 0.589375 0.112500
0.830000 0.589375 0.112500
0.897500 0.589375 0.112500
0.965000 0.589375 0.112500
1.000000 0.589375 0.112500
1.000000 0.589375 0.112500
0.020000 0.653750 0.112500
0.087500 0.653750 0.112500
0.155000 0.653750 0.112500
0.222500 0.653750 0.112500
0.290000 0.653750 0.112500
0.357500 0.653750 0.112500
0.425000 0.653750 0.112500
0.492500 0.653750 0.112500
0.560000 0.653750 0.112500
0.627500 0.653750 0.112500
0.695000 0.653750 0.112500
0.762500 0.653750 0.112500
0.830000 0.653750 0.112500
0.897500 0.653750 0.112500
0.965000 0.653750 0.112500
1.000000 0.653750 0.112500
1.000000 0.653750 0.112500
0.020000 0.718125 0.112500
0.087500 0.718125 0.112500
0.155000 0.718125 0.112500
0.222500 0.718125 0.112500
0.290000 0.718125 0.112500
0.357500 0.718125 0.112500
0.425000 0.718125 0.112500
0.492500 0.718125 0.112500
0.560000 0.718125 0.112500
0.627500 0.718125 0.112500
0.695000 0.718125 0.112500
0.762500 0.718125 0.112500
0.830000 0.718125 0.112500
0.897500 0.718125 0.112500
0.965000 0.718125 0.112500
1.000000 0.718125 0.112500
1.000000 0.718125 0.112500
0.020000 0.782500 0.112500
0.087500 0.782500 0.112500
0.155000 0.782500 0.112500
0.222500 0.782500 0.112500
0.290000 0.782500 0.112500
0.357500 0.782500 0.112500
0.425000 0.782500 0.112500
0.492500 0.782500 0.112500
0.560000 0.782500 0.112500
0.627500 0.782500 0.112500
0.695000 0.782500 0.112500
0.762500 0.782500 0.112500
0.830000 0.782500 0.112500
0.897500 0.782500 0.112500
0.965000 0.782500 0.112500
1.000000 0.782500 0.112500
1.000000 0.782500 0.112500
0.020000 0.846875 0.112500
0.087500 0.846875 0.112500
0.155000 0.846875 0.112500
0.222500 0.846875 0.112500
0.290000 0.846875 0.112500
0.357500 0.846875 0.112500
0.425000 0.846875 0.112500
0.492500 0.846875 0.112500
0.560000 0.846875 0.112500
0.627500 0.846875 0.112500
0.695000 0.846875 0.112500
0.762500 0.846875 0.112500
0.830000 0.846875 0.112500
0.897500 0.846875 0.112500
0.965000 0.846875 0.112500
1.000000 0.846875 0.112500
1.000000 0.846875 0.112500
0.020000 0.911250 0.112500
0.087500 0.911250 0.112500
0.155000 0.911250 0.112500
0.222500 0.911250 0.112500
0.290000 0.911250 0.112500
0.357500 0.911250 0.112500
0.425000 0.911250 0.112500
0.492500 0.911250 0.112500
0.560000 0.911250 0.112500
0.627500 0.911250 0.112500
0.695000 0.911250 0.112500
0.762500 0.911250 0.112500
0.830000 0.911250 0.112500
0.897500 0.911250 0.112500
0.965000 0.911250 0.112500
1.000000 0.911250 0.112500
1.000000 0.911250 0.112500
0.020000 0.975625 0.112500
0.087500 0.975625 0.112500
0.155000 0.975625 0.112500
0.222500 0.975625 0.112500
0.290000 0.975625 0.112500
0.357500 0.975625 0.112500
0.425000 0.975625 0.112500
0.492500 0.975625 0.112500
0.560000 0.975625 0.112500
0.627500 0.975625 0.112500
0.695000 0.975625 0.112500
0.762500 0.975625 0.112500
0.830000 0.975625 0.112500
0.897500 0.975625 0.112500
0.965000 0.975625 0.112500
1.000000 0.975625 0.112500
1.000000 0.975625 0.112500
0.020000 1.000000 0.112500
0.087500 1.000000 0.112500
0.155000 1.000000 0.112500
0.222500 1.000000 0.112500
0.290000 1.000000 0.112500
0.357500 1.000000 0.112500
0.425000 1.000000 0.112500
0.492500 1.000000 0.112500
0.560000 1.000000 0.112500
0.627500 1.000000 0.112500
0.695000 1.000000 0.112500
0.762500 1.000000 0.112500
0.830000 1.000000 0.112500
0.897500 1.000000 0.112500
0.965000 1.000000 0.112500
1.000000 1.000000 0.112500
1.000000 1.000000 0.112500
0.020000 0.010000 0.168750
0.087500 0.010000 0.168750
0.155000 0.010000 0.168750
0.222500 0.010000 0.168750
0.290000 0.010000 0.168750
0.357500 0.010000 0.168750
0.425000 0.010000 0.168750
0.492500 0.010000 0.168750
0.560000 0.010000 0.168750
0.627500 0.010000 0.168750
0.695000 0.010000 0.168750
0.762500 0.010000 0.168750
0.830000 0.010000 0.168750
0.897500 0.010000 0.168750
0.965000 0.010000 0.168750
1.000000 0.010000 0.168750
