app/assets/luts/02_warm_sunset.cube
TITLE "Pocket Warm Sunset"
# 偏暖金色调，户外/黄昏氛围。
# Pocket Live Capture built-in preset (free to use)
# POCKET_CUBE_ORDER=rgb_fastest
LUT_3D_SIZE 9
0.020000 0.010000 0.000000
0.155000 0.010000 0.000000
0.290000 0.010000 0.000000
0.425000 0.010000 0.000000
0.560000 0.010000 0.000000
0.695000 0.010000 0.000000
0.830000 0.010000 0.000000
0.965000 0.010000 0.000000
1.000000 0.010000 0.000000
0.020000 0.138750 0.000000
0.155000 0.138750 0.000000
0.290000 0.138750 0.000000
0.425000 0.138750 0.000000
0.560000 0.138750 0.000000
0.695000 0.138750 0.000000
0.830000 0.138750 0.000000
0.965000 0.138750 0.000000
1.000000 0.138750 0.000000
0.020000 0.267500 0.000000
0.155000 0.267500 0.000000
0.290000 0.267500 0.000000
0.425000 0.267500 0.000000
0.560000 0.267500 0.000000
0.695000 0.267500 0.000000
0.830000 0.267500 0.000000
0.965000 0.267500 0.000000
1.000000 0.267500 0.000000
0.020000 0.396250 0.000000
0.155000 0.396250 0.000000
0.290000 0.396250 0.000000
0.425000 0.396250 0.000000
0.560000 0.396250 0.000000
0.695000 0.396250 0.000000
0.830000 0.396250 0.000000
0.965000 0.396250 0.000000
1.000000 0.396250 0.000000
0.020000 0.525000 0.000000
0.155000 0.525000 0.000000
0.290000 0.525000 0.000000
0.425000 0.525000 0.000000
0.560000 0.525000 0.000000
0.695000 0.525000 0.000000
0.830000 0.525000 0.000000
0.965000 0.525000 0.000000
1.000000 0.525000 0.000000
0.020000 0.653750 0.000000
0.155000 0.653750 0.000000
0.290000 0.653750 0.000000
0.425000 0.653750 0.000000
0.560000 0.653750 0.000000
0.695000 0.653750 0.000000
0.830000 0.653750 0.000000
0.965000 0.653750 0.000000
1.000000 0.653750 0.000000
0.020000 0.782500 0.000000
0.155000 0.782500 0.000000
0.290000 0.782500 0.000000
0.425000 0.782500 0.000000
0.560000 0.782500 0.000000
0.695000 0.782500 0.000000
0.830000 0.782500 0.000000
0.965000 0.782500 0.000000
1.000000 0.782500 0.000000
0.020000 0.911250 0.000000
0.155000 0.911250 0.000000
0.290000 0.911250 0.000000
0.425000 0.911250 0.000000
0.560000 0.911250 0.000000
0.695000 0.911250 0.000000
0.830000 0.911250 0.000000
0.965000 0.911250 0.000000
1.000000 0.911250 0.000000
0.020000 1.000000 0.000000
0.155000 1.000000 0.000000
0.290000 1.000000 0.000000
0.425000 1.000000 0.000000
0.560000 1.000000 0.000000
0.695000 1.000000 0.000000
0.830000 1.000000 0.000000
0.965000 1.000000 0.000000
1.000000 1.000000 0.000000
0.020000 0.010000 0.112500
0.155000 0.010000 0.112500
0.290000 0.010000 0.112500
0.425000 0.010000 0.112500
0.560000 0.010000 0.112500
0.695000 0.010000 0.112500
0.830000 0.010000 0.112500
0.965000 0.010000 0.112500
1.000000 0.010000 0.112500
0.020000 0.138750 0.112500
0.155000 0.138750 0.112500
0.290000 0.138750 0.112500
0.425000 0.138750 0.112500
0.560000 0.138750 0.112500
0.695000 0.138750 0.112500
0.830000 0.138750 0.112500
0.965000 0.138750 0.112500
1.000000 0.138750 0.112500
0.020000 0.267500 0.112500
0.155000 0.267500 0.112500
0.290000 0.267500 0.112500
0.425000 0.267500 0.112500
0.560000 0.267500 0.112500
0.695000 0.267500 0.112500
0.830000 0.267500 0.112500
0.965000 0.267500 0.112500
1.000000 0.267500 0.112500
0.020000 0.396250 0.112500
0.155000 0.396250 0.112500
0.290000 0.396250 0.112500
0.425000 0.396250 0.112500
0.560000 0.396250 0.112500
0.695000 0.396250 0.112500
0.830000 0.396250 0.112500
0.965000 0.396250 0.112500
1.000000 0.396250 0.112500
0.020000 0.525000 0.112500
0.155000 0.525000 0.112500
0.290000 0.525000 0.112500
0.425000 0.525000 0.112500
0.560000 0.525000 0.112500
0.695000 0.525000 0.112500
0.830000 0.525000 0.112500
0.965000 0.525000 0.112500
1.000000 0.525000 0.112500
0.020000 0.653750 0.112500
0.155000 0.653750 0.112500
0.290000 0.653750 0.112500
0.425000 0.653750 0.112500
0.560000 0.653750 0.112500
0.695000 0.653750 0.112500
0.830000 0.653750 0.112500
0.965000 0.653750 0.112500
1.000000 0.653750 0.112500
0.020000 0.782500 0.112500
0.155000 0.782500 0.112500
0.290000 0.782500 0.112500
0.425000 0.782500 0.112500
0.560000 0.782500 0.112500
0.695000 0.782500 0.112500
0.830000 0.782500 0.112500
0.965000 0.782500 0.112500
1.000000 0.782500 0.112500
0.020000 0.911250 0.112500
0.155000 0.911250 0.112500
0.290000 0.911250 0.112500
0.425000 0.911250 0.112500
0.560000 0.911250 0.112500
0.695000 0.911250 0.112500
0.830000 0.911250 0.112500
0.965000 0.911250 0.112500
1.000000 0.911250 0.112500
0.020000 1.000000 0.112500
0.155000 1.000000 0.112500
0.290000 1.000000 0.112500
0.425000 1.000000 0.112500
0.560000 1.000000 0.112500
0.695000 1.000000 0.112500
0.830000 1.000000 0.112500
0.965000 1.000000 0.112500
1.000000 1.000000 0.112500
0.020000 0.010000 0.225000
0.155000 0.010000 0.225000
0.290000 0.010000 0.225000
0.425000 0.010000 0.225000
0.560000 0.010000 0.225000
0.695000 0.010000 0.225000
0.830000 0.010000 0.225000
0.965000 0.010000 0.225000
1.000000 0.010000 0.225000
0.020000 0.138750 0.225000
0.155000 0.138750 0.225000
0.290000 0.138750 0.225000
0.425000 0.138750 0.225000
0.560000 0.138750 0.225000
0.695000 0.138750 0.225000
0.830000 0.138750 0.225000
0.965000 0.138750 0.225000
1.000000 0.138750 0.225000
0.020000 0.267500 0.225000
0.155000 0.267500 0.225000
0.290000 0.267500 0.225000
0.425000 0.267500 0.225000
0.560000 0.267500 0.225000
0.695000 0.267500 0.225000
0.830000 0.267500 0.225000
0.965000 0.267500 0.225000
1.000000 0.267500 0.225000
0.020000 0.396250 0.225000
0.155000 0.396250 0.225000
0.290000 0.396250 0.225000
0.425000 0.396250 0.225000
0.560000 0.396250 0.225000
0.695000 0.396250 0.225000
0.830000 0.396250 0.225000
0.965000 0.396250 0.225000
1.000000 0.396250 0.225000
0.020000 0.525000 0.225000
0.155000 0.525000 0.225000
0.290000 0.525000 0.225000
0.425000 0.525000 0.225000
0.560000 0.525000 0.225000
0.695000 0.525000 0.225000
0.830000 0.525000 0.225000
0.965000 0.525000 0.225000
1.000000 0.525000 0.225000
0.020000 0.653750 0.225000
0.155000 0.653750 0.225000
0.290000 0.653750 0.225000
0.425000 0.653750 0.225000
0.560000 0.653750 0.225000
0.695000 0.653750 0.225000
0.830000 0.653750 0.225000
0.965000 0.653750 0.225000
1.000000 0.653750 0.225000
0.020000 0.782500 0.225000
0.155000 0.782500 0.225000
0.290000 0.782500 0.225000
0.425000 0.782500 0.225000
0.560000 0.782500 0.225000
0.695000 0.782500 0.225000
0.830000 0.782500 0.225000
0.965000 0.782500 0.225000
1.000000 0.782500 0.225000
0.020000 0.911250 0.225000
0.155000 0.911250 0.225000
0.290000 0.911250 0.225000
0.425000 0.911250 0.225000
0.560000 0.911250 0.225000
0.695000 0.911250 0.225000
0.830000 0.911250 0.225000
0.965000 0.911250 0.225000
1.000000 0.911250 0.225000
0.020000 1.000000 0.225000
0.155000 1.000000 0.225000
0.290000 1.000000 0.225000
0.425000 1.000000 0.225000
0.560000 1.000000 0.225000
0.695000 1.000000 0.225000
0.830000 1.000000 0.225000
0.965000 1.000000 0.225000
1.000000 1.000000 0.225000
0.020000 0.010000 0.337500
0.155000 0.010000 0.337500
0.290000 0.010000 0.337500
0.425000 0.010000 0.337500
0.560000 0.010000 0.337500
0.695000 0.010000 0.337500
0.830000 0.010000 0.337500
0.965000 0.010000 0.337500
1.000000 0.010000 0.337500
0.020000 0.138750 0.337500
0.155000 0.138750 0.337500
0.290000 0.138750 0.337500
0.425000 0.138750 0.337500
0.560000 0.138750 0.337500
0.695000 0.138750 0.337500
0.830000 0.138750 0.337500
0.965000 0.138750 0.337500
1.000000 0.138750 0.337500
0.020000 0.267500 0.337500
0.155000 0.267500 0.337500
0.290000 0.267500 0.337500
0.425000 0.267500 0.337500
0.560000 0.267500 0.337500
0.695000 0.267500 0.337500
0.830000 0.267500 0.337500
0.965000 0.267500 0.337500
1.000000 0.267500 0.337500
0.020000 0.396250 0.337500
0.155000 0.396250 0.337500
0.290000 0.396250 0.337500
0.425000 0.396250 0.337500
0.560000 0.396250 0.337500
0.695000 0.396250 0.337500
0.830000 0.396250 0.337500
0.965000 0.396250 0.337500
1.000000 0.396250 0.337500
0.020000 0.525000 0.337500
0.155000 0.525000 0.337500
0.290000 0.525000 0.337500
0.425000 0.525000 0.337500
0.560000 0.525000 0.337500
0.695000 0.525000 0.337500
0.830000 0.525000 0.337500
0.965000 0.525000 0.337500
1.000000 0.525000 0.337500
0.020000 0.653750 0.337500
0.155000 0.653750 0.337500
0.290000 0.653750 0.337500
0.425000 0.653750 0.337500
0.560000 0.653750 0.337500
0.695000 0.653750 0.337500
0.830000 0.653750 0.337500
0.965000 0.653750 0.337500
1.000000 0.653750 0.337500
0.020000 0.782500 0.337500
0.155000 0.782500 0.337500
0.290000 0.782500 0.337500
0.425000 0.782500 0.337500
0.560000 0.782500 0.337500
0.695000 0.782500 0.337500
0.830000 0.782500 0.337500
0.965000 0.782500 0.337500
1.000000 0.782500 0.337500
0.020000 0.911250 0.337500
0.155000 0.911250 0.337500
0.290000 0.911250 0.337500
0.425000 0.911250 0.337500
0.560000 0.911250 0.337500
0.695000 0.911250 0.337500
0.830000 0.911250 0.337500
0.965000 0.911250 0.337500
1.000000 0.911250 0.337500
0.020000 1.000000 0.337500
0.155000 1.000000 0.337500
0.290000 1.000000 0.337500
0.425000 1.000000 0.337500
0.560000 1.000000 0.337500
0.695000 1.000000 0.337500
0.830000 1.000000 0.337500
0.965000 1.000000 0.337500
1.000000 1.000000 0.337500
0.020000 0.010000 0.450000
0.155000 0.010000 0.450000
0.290000 0.010000 0.450000
0.425000 0.010000 0.450000
0.560000 0.010000 0.450000
0.695000 0.010000 0.450000
0.830000 0.010000 0.450000
0.965000 0.010000 0.450000
1.000000 0.010000 0.450000
0.020000 0.138750 0.450000
0.155000 0.138750 0.450000
0.290000 0.138750 0.450000
0.425000 0.138750 0.450000
0.560000 0.138750 0.450000
0.695000 0.138750 0.450000
0.830000 0.138750 0.450000
0.965000 0.138750 0.450000
1.000000 0.138750 0.450000
0.020000 0.267500 0.450000
0.155000 0.267500 0.450000
0.290000 0.267500 0.450000
0.425000 0.267500 0.450000
0.560000 0.267500 0.450000
0.695000 0.267500 0.450000
0.830000 0.267500 0.450000
0.965000 0.267500 0.450000
1.000000 0.267500 0.450000
0.020000 0.396250 0.450000
0.155000 0.396250 0.450000
0.290000 0.396250 0.450000
0.425000 0.396250 0.450000
0.560000 0.396250 0.450000
0.695000 0.396250 0.450000
0.830000 0.396250 0.450000
0.965000 0.396250 0.450000
1.000000 0.396250 0.450000
0.020000 0.525000 0.450000
0.155000 0.525000 0.450000
0.290000 0.525000 0.450000
0.425000 0.525000 0.450000
0.560000 0.525000 0.450000
0.695000 0.525000 0.450000
0.830000 0.525000 0.450000
0.965000 0.525000 0.450000
1.000000 0.525000 0.450000
0.020000 0.653750 0.450000
0.155000 0.653750 0.450000
0.290000 0.653750 0.450000
0.425000 0.653750 0.450000
0.560000 0.653750 0.450000
0.695000 0.653750 0.450000
0.830000 0.653750 0.450000
0.965000 0.653750 0.450000
1.000000 0.653750 0.450000
0.020000 0.782500 0.450000
0.155000 0.782500 0.450000
0.290000 0.782500 0.450000
0.425000 0.782500 0.450000
0.560000 0.782500 0.450000
0.695000 0.782500 0.450000
0.830000 0.782500 0.450000
0.965000 0.782500 0.450000
1.000000 0.782500 0.450000
0.020000 0.911250 0.450000
0.155000 0.911250 0.450000
0.290000 0.911250 0.450000
0.425000 0.911250 0.450000
0.560000 0.911250 0.450000
0.695000 0.911250 0.450000
0.830000 0.911250 0.450000
0.965000 0.911250 0.450000
1.000000 0.911250 0.450000
0.020000 1.000000 0.450000
0.155000 1.000000 0.450000
0.290000 1.000000 0.450000
0.425000 1.000000 0.450000
0.560000 1.000000 0.450000
0.695000 1.000000 0.450000
0.830000 1.000000 0.450000
0.965000 1.000000 0.450000
1.000000 1.000000 0.450000
0.020000 0.010000 0.562500
0.155000 0.010000 0.562500
0.290000 0.010000 0.562500
0.425000 0.010000 0.562500
0.560000 0.010000 0.562500
0.695000 0.010000 0.562500
0.830000 0.010000 0.562500
0.965000 0.010000 0.562500
1.000000 0.010000 0.562500
0.020000 0.138750 0.562500
0.155000 0.138750 0.562500
0.290000 0.138750 0.562500
0.425000 0.138750 0.562500
0.560000 0.138750 0.562500
0.695000 0.138750 0.562500
0.830000 0.138750 0.562500
0.965000 0.138750 0.562500
1.000000 0.138750 0.562500
0.020000 0.267500 0.562500
0.155000 0.267500 0.562500
0.290000 0.267500 0.562500
0.425000 0.267500 0.562500
0.560000 0.267500 0.562500
0.695000 0.267500 0.562500
0.830000 0.267500 0.562500
0.965000 0.267500 0.562500
1.000000 0.267500 0.562500
0.020000 0.396250 0.562500
0.155000 0.396250 0.562500
0.290000 0.396250 0.562500
0.425000 0.396250 0.562500
0.560000 0.396250 0.562500
0.695000 0.396250 0.562500
0.830000 0.396250 0.562500
0.965000 0.396250 0.562500
1.000000 0.396250 0.562500
0.020000 0.525000 0.562500
0.155000 0.525000 0.562500
0.290000 0.525000 0.562500
0.425000 0.525000 0.562500
0.560000 0.525000 0.562500
0.695000 0.525000 0.562500
0.830000 0.525000 0.562500
0.965000 0.525000 0.562500
1.000000 0.525000 0.562500
0.020000 0.653750 0.562500
0.155000 0.653750 0.562500
0.290000 0.653750 0.562500
0.425000 0.653750 0.562500
0.560000 0.653750 0.562500
0.695000 0.653750 0.562500
0.830000 0.653750 0.562500
0.965000 0.653750 0.562500
1.000000 0.653750 0.562500
0.020000 0.782500 0.562500
0.155000 0.782500 0.562500
0.290000 0.782500 0.562500
0.425000 0.782500 0.562500
0.560000 0.782500 0.562500
0.695000 0.782500 0.562500
0.830000 0.782500 0.562500
0.965000 0.782500 0.562500
1.000000 0.782500 0.562500
0.020000 0.911250 0.562500
0.155000 0.911250 0.562500
0.290000 0.911250 0.562500
0.425000 0.911250 0.562500
0.560000 0.911250 0.562500
0.695000 0.911250 0.562500
0.830000 0.911250 0.562500
0.965000 0.911250 0.562500
1.000000 0.911250 0.562500
0.020000 1.000000 0.562500
0.155000 1.000000 0.562500
0.290000 1.000000 0.562500
0.425000 1.000000 0.562500
0.560000 1.000000 0.562500
0.695000 1.000000 0.562500
0.830000 1.000000 0.562500
0.965000 1.000000 0.562500
1.000000 1.000000 0.562500
0.020000 0.010000 0.675000
0.155000 0.010000 0.675000
0.290000 0.010000 0.675000
0.425000 0.010000 0.675000
0.560000 0.010000 0.675000
0.695000 0.010000 0.675000
0.830000 0.010000 0.675000
0.965000 0.010000 0.675000
1.000000 0.010000 0.675000
0.020000 0.138750 0.675000
0.155000 0.138750 0.675000
0.290000 0.138750 0.675000
0.425000 0.138750 0.675000
0.560000 0.138750 0.675000
0.695000 0.138750 0.675000
0.830000 0.138750 0.675000
0.965000 0.138750 0.675000
1.000000 0.138750 0.675000
0.020000 0.267500 0.675000
0.155000 0.267500 0.675000
0.290000 0.267500 0.675000
0.425000 0.267500 0.675000
0.560000 0.267500 0.675000
0.695000 0.267500 0.675000
0.830000 0.267500 0.675000
0.965000 0.267500 0.675000
1.000000 0.267500 0.675000
0.020000 0.396250 0.675000
0.155000 0.396250 0.675000
0.290000 0.396250 0.675000
0.425000 0.396250 0.675000
0.560000 0.396250 0.675000
0.695000 0.396250 0.675000
0.830000 0.396250 0.675000
0.965000 0.396250 0.675000
1.000000 0.396250 0.675000
0.020000 0.525000 0.675000
0.155000 0.525000 0.675000
0.290000 0.525000 0.675000
0.425000 0.525000 0.675000
0.560000 0.525000 0.675000
0.695000 0.525000 0.675000
0.830000 0.525000 0.675000
0.965000 0.525000 0.675000
1.000000 0.525000 0.675000
0.020000 0.653750 0.675000
0.155000 0.653750 0.675000
0.290000 0.653750 0.675000
0.425000 0.653750 0.675000
0.560000 0.653750 0.675000
0.695000 0.653750 0.675000
0.830000 0.653750 0.675000
0.965000 0.653750 0.675000
1.000000 0.653750 0.675000
0.020000 0.782500 0.675000
0.155000 0.782500 0.675000
0.290000 0.782500 0.675000
0.425000 0.782500 0.675000
0.560000 0.782500 0.675000
0.695000 0.782500 0.675000
0.830000 0.782500 0.675000
0.965000 0.782500 0.675000
1.000000 0.782500 0.675000
0.020000 0.911250 0.675000
0.155000 0.911250 0.675000
0.290000 0.911250 0.675000
0.425000 0.911250 0.675000
0.560000 0.911250 0.675000
0.695000 0.911250 0.675000
0.830000 0.911250 0.675000
0.965000 0.911250 0.675000
1.000000 0.911250 0.675000
0.020000 1.000000 0.675000
0.155000 1.000000 0.675000
0.290000 1.000000 0.675000
0.425000 1.000000 0.675000
0.560000 1.000000 0.675000
0.695000 1.000000 0.675000
0.830000 1.000000 0.675000
0.965000 1.000000 0.675000
1.000000 1.000000 0.675000
0.020000 0.010000 0.787500
0.155000 0.010000 0.787500
0.290000 0.010000 0.787500
0.425000 0.010000 0.787500
0.560000 0.010000 0.787500
0.695000 0.010000 0.787500
0.830000 0.010000 0.787500
0.965000 0.010000 0.787500
1.000000 0.010000 0.787500
0.020000 0.138750 0.787500
0.155000 0.138750 0.787500
0.290000 0.138750 0.787500
0.425000 0.138750 0.787500
0.560000 0.138750 0.787500
0.695000 0.138750 0.787500
0.830000 0.138750 0.787500
0.965000 0.138750 0.787500
1.000000 0.138750 0.787500
0.020000 0.267500 0.787500
0.155000 0.267500 0.787500
0.290000 0.267500 0.787500
0.425000 0.267500 0.787500
0.560000 0.267500 0.787500
0.695000 0.267500 0.787500
0.830000 0.267500 0.787500
0.965000 0.267500 0.787500
1.000000 0.267500 0.787500
0.020000 0.396250 0.787500
0.155000 0.396250 0.787500
0.290000 0.396250 0.787500
0.425000 0.396250 0.787500
0.560000 0.396250 0.787500
0.695000 0.396250 0.787500
0.830000 0.396250 0.787500
0.965000 0.396250 0.787500
1.000000 0.396250 0.787500
0.020000 0.525000 0.787500
0.155000 0.525000 0.787500
0.290000 0.525000 0.787500
0.425000 0.525000 0.787500
0.560000 0.525000 0.787500
0.695000 0.525000 0.787500
0.830000 0.525000 0.787500
0.965000 0.525000 0.787500
1.000000 0.525000 0.787500
0.020000 0.653750 0.787500
0.155000 0.653750 0.787500
0.290000 0.653750 0.787500
0.425000 0.653750 0.787500
0.560000 0.653750 0.787500
0.695000 0.653750 0.787500
0.830000 0.653750 0.787500
0.965000 0.653750 0.787500
1.000000 0.653750 0.787500
0.020000 0.782500 0.787500
0.155000 0.782500 0.787500
0.290000 0.782500 0.787500
0.425000 0.782500 0.787500
0.560000 0.782500 0.787500
0.695000 0.782500 0.787500
0.830000 0.782500 0.787500
0.965000 0.782500 0.787500
1.000000 0.782500 0.787500
0.020000 0.911250 0.787500
0.155000 0.911250 0.787500
0.290000 0.911250 0.787500
0.425000 0.911250 0.787500
0.560000 0.911250 0.787500
0.695000 0.911250 0.787500
0.830000 0.911250 0.787500
0.965000 0.911250 0.787500
1.000000 0.911250 0.787500
0.020000 1.000000 0.787500
0.155000 1.000000 0.787500
0.290000 1.000000 0.787500
0.425000 1.000000 0.787500
0.560000 1.000000 0.787500
0.695000 1.000000 0.787500
0.830000 1.000000 0.787500
0.965000 1.000000 0.787500
1.000000 1.000000 0.787500
0.020000 0.010000 0.900000
0.155000 0.010000 0.900000
0.290000 0.010000 0.900000
0.425000 0.010000 0.900000
0.560000 0.010000 0.900000
0.695000 0.010000 0.900000
0.830000 0.010000 0.900000
0.965000 0.010000 0.900000
1.000000 0.010000 0.900000
0.020000 0.138750 0.900000
0.155000 0.138750 0.900000
0.290000 0.138750 0.900000
0.425000 0.138750 0.900000
0.560000 0.138750 0.900000
0.695000 0.138750 0.900000
0.830000 0.138750 0.900000
0.965000 0.138750 0.900000
1.000000 0.138750 0.900000
0.020000 0.267500 0.900000
0.155000 0.267500 0.900000
0.290000 0.267500 0.900000
0.425000 0.267500 0.900000
0.560000 0.267500 0.900000
0.695000 0.267500 0.900000
0.830000 0.267500 0.900000
0.965000 0.267500 0.900000
1.000000 0.267500 0.900000
0.020000 0.396250 0.900000
0.155000 0.396250 0.900000
0.290000 0.396250 0.900000
0.425000 0.396250 0.900000
0.560000 0.396250 0.900000
0.695000 0.396250 0.900000
0.830000 0.396250 0.900000
0.965000 0.396250 0.900000
1.000000 0.396250 0.900000
0.020000 0.525000 0.900000
0.155000 0.525000 0.900000
0.290000 0.525000 0.900000
0.425000 0.525000 0.900000
0.560000 0.525000 0.900000
0.695000 0.525000 0.900000
0.830000 0.525000 0.900000
0.965000 0.525000 0.900000
1.000000 0.525000 0.900000
0.020000 0.653750 0.900000
0.155000 0.653750 0.900000
0.290000 0.653750 0.900000
0.425000 0.653750 0.900000
0.560000 0.653750 0.900000
0.695000 0.653750 0.900000
0.830000 0.653750 0.900000
0.965000 0.653750 0.900000
1.000000 0.653750 0.900000
0.020000 0.782500 0.900000
0.155000 0.782500 0.900000
0.290000 0.782500 0.900000
0.425000 0.782500 0.900000
0.560000 0.782500 0.900000
0.695000 0.782500 0.900000
0.830000 0.782500 0.900000
0.965000 0.782500 0.900000
1.000000 0.782500 0.900000
0.020000 0.911250 0.900000
0.155000 0.911250 0.900000
0.290000 0.911250 0.900000
0.425000 0.911250 0.900000
0.560000 0.911250 0.900000
0.695000 0.911250 0.900000
0.830000 0.911250 0.900000
0.965000 0.911250 0.900000
1.000000 0.911250 0.900000
0.020000 1.000000 0.900000
0.155000 1.000000 0.900000
0.290000 1.000000 0.900000
0.425000 1.000000 0.900000
0.560000 1.000000 0.900000
0.695000 1.000000 0.900000
0.830000 1.000000 0.900000
0.965000 1.000000 0.900000
1.000000 1.000000 0.900000
