app/assets/luts/02_warm_sunset.cube
TITLE "Pocket Warm Sunset"
# 偏暖金色调，户外/黄昏氛围。
# Pocket Live Capture built-in preset (free to use)
# POCKET_CUBE_ORDER=rgb_fastest
LUT_3D_SIZE 5
0.020000 0.010000 0.000000
0.290000 0.010000 0.000000
0.560000 0.010000 0.000000
0.830000 0.010000 0.000000
1.000000 0.010000 0.000000
0.020000 0.267500 0.000000
0.290000 0.267500 0.000000
0.560000 0.267500 0.000000
0.830000 0.267500 0.000000
1.000000 0.267500 0.000000
0.020000 0.525000 0.000000
0.290000 0.525000 0.000000
0.560000 0.525000 0.000000
0.830000 0.525000 0.000000
1.000000 0.525000 0.000000
0.020000 0.782500 0.000000
0.290000 0.782500 0.000000
0.560000 0.782500 0.000000
0.830000 0.782500 0.000000
1.000000 0.782500 0.000000
0.020000 1.000000 0.000000
0.290000 1.000000 0.000000
0.560000 1.000000 0.000000
0.830000 1.000000 0.000000
1.000000 1.000000 0.000000
0.020000 0.010000 0.225000
0.290000 0.010000 0.225000
0.560000 0.010000 0.225000
0.830000 0.010000 0.225000
1.000000 0.010000 0.225000
0.020000 0.267500 0.225000
0.290000 0.267500 0.225000
0.560000 0.267500 0.225000
0.830000 0.267500 0.225000
1.000000 0.267500 0.225000
0.020000 0.525000 0.225000
0.290000 0.525000 0.225000
0.560000 0.525000 0.225000
0.830000 0.525000 0.225000
1.000000 0.525000 0.225000
0.020000 0.782500 0.225000
0.290000 0.782500 0.225000
0.560000 0.782500 0.225000
0.830000 0.782500 0.225000
1.000000 0.782500 0.225000
0.020000 1.000000 0.225000
0.290000 1.000000 0.225000
0.560000 1.000000 0.225000
0.830000 1.000000 0.225000
1.000000 1.000000 0.225000
0.020000 0.010000 0.450000
0.290000 0.010000 0.450000
0.560000 0.010000 0.450000
0.830000 0.010000 0.450000
1.000000 0.010000 0.450000
0.020000 0.267500 0.450000
0.290000 0.267500 0.450000
0.560000 0.267500 0.450000
0.830000 0.267500 0.450000
1.000000 0.267500 0.450000
0.020000 0.525000 0.450000
0.290000 0.525000 0.450000
0.560000 0.525000 0.450000
0.830000 0.525000 0.450000
1.000000 0.525000 0.450000
0.020000 0.782500 0.450000
0.290000 0.782500 0.450000
0.560000 0.782500 0.450000
0.830000 0.782500 0.450000
1.000000 0.782500 0.450000
0.020000 1.000000 0.450000
0.290000 1.000000 0.450000
0.560000 1.000000 0.450000
0.830000 1.000000 0.450000
1.000000 1.000000 0.450000
0.020000 0.010000 0.675000
0.290000 0.010000 0.675000
0.560000 0.010000 0.675000
0.830000 0.010000 0.675000
1.000000 0.010000 0.675000
0.020000 0.267500 0.675000
0.290000 0.267500 0.675000
0.560000 0.267500 0.675000
0.830000 0.267500 0.675000
1.000000 0.267500 0.675000
0.020000 0.525000 0.675000
0.290000 0.525000 0.675000
0.560000 0.525000 0.675000
0.830000 0.525000 0.675000
1.000000 0.525000 0.675000
0.020000 0.782500 0.675000
0.290000 0.782500 0.675000
0.560000 0.782500 0.675000
0.830000 0.782500 0.675000
1.000000 0.782500 0.675000
0.020000 1.000000 0.675000
0.290000 1.000000 0.675000
0.560000 1.000000 0.675000
0.830000 1.000000 0.675000
1.000000 1.000000 0.675000
0.020000 0.010000 0.900000
0.290000 0.010000 0.900000
0.560000 0.010000 0.900000
0.830000 0.010000 0.900000
1.000000 0.010000 0.900000
0.020000 0.267500 0.900000
0.290000 0.267500 0.900000
0.560000 0.267500 0.900000
0.830000 0.267500 0.900000
1.000000 0.267500 0.900000
0.020000 0.525000 0.900000
0.290000 0.525000 0.900000
0.560000 0.525000 0.900000
0.830000 0.525000 0.900000
1.000000 0.525000 0.900000
0.020000 0.782500 0.900000
0.290000 0.782500 0.900000
0.560000 0.782500 0.900000
0.830000 0.782500 0.900000
1.000000 0.782500 0.900000
0.020000 1.000000 0.900000
0.290000 1.000000 0.900000
0.560000 1.000000 0.900000
0.830000 1.000000 0.900000
1.000000 1.000000 0.900000
