app/assets/luts/03_cool_cinematic.cube
TITLE "Pocket Cool Cinematic"
# 偏冷蓝阴影，城市/夜景电影感。
# Pocket Live Capture built-in preset (free to use)
# POCKET_CUBE_ORDER=rgb_fastest
LUT_3D_SIZE 17
0.000000 0.010000 0.020000
0.058125 0.010000 0.020000
0.116250 0.010000 0.020000
0.174375 0.010000 0.020000
0.232500 0.010000 0.020000
0.290625 0.010000 0.020000
0.348750 0.010000 0.020000
0.406875 0.010000 0.020000
0.465000 0.010000 0.020000
0.523125 0.010000 0.020000
0.581250 0.010000 0.020000
0.639375 0.010000 0.020000
0.697500 0.010000 0.020000
0.755625 0.010000 0.020000
0.813750 0.010000 0.020000
0.871875 0.010000 0.020000
0.930000 0.010000 0.020000
0.000000 0.070625 0.020000
0.058125 0.070625 0.020000
0.116250 0.070625 0.020000
0.174375 0.070625 0.020000
0.232500 0.070625 0.020000
0.290625 0.070625 0.020000
0.348750 0.070625 0.020000
0.406875 0.070625 0.020000
0.465000 0.070625 0.020000
0.523125 0.070625 0.020000
0.581250 0.070625 0.020000
0.639375 0.070625 0.020000
0.697500 0.070625 0.020000
0.755625 0.070625 0.020000
0.813750 0.070625 0.020000
0.871875 0.070625 0.020000
0.930000 0.070625 0.020000
0.000000 0.131250 0.020000
0.058125 0.131250 0.020000
0.116250 0.131250 0.020000
0.174375 0.131250 0.020000
0.232500 0.131250 0.020000
0.290625 0.131250 0.020000
0.348750 0.131250 0.020000
0.406875 0.131250 0.020000
0.465000 0.131250 0.020000
0.523125 0.131250 0.020000
0.581250 0.131250 0.020000
0.639375 0.131250 0.020000
0.697500 0.131250 0.020000
0.755625 0.131250 0.020000
0.813750 0.131250 0.020000
0.871875 0.131250 0.020000
0.930000 0.131250 0.020000
0.000000 0.191875 0.020000
0.058125 0.191875 0.020000
0.116250 0.191875 0.020000
0.174375 0.191875 0.020000
0.232500 0.191875 0.020000
0.290625 0.191875 0.020000
0.348750 0.191875 0.020000
0.406875 0.191875 0.020000
0.465000 0.191875 0.020000
0.523125 0.191875 0.020000
0.581250 0.191875 0.020000
0.639375 0.191875 0.020000
0.697500 0.191875 0.020000
0.755625 0.191875 0.020000
0.813750 0.191875 0.020000
0.871875 0.191875 0.020000
0.930000 0.191875 0.020000
0.000000 0.252500 0.020000
0.058125 0.252500 0.020000
0.116250 0.252500 0.020000
0.174375 0.252500 0.020000
0.232500 0.252500 0.020000
0.290625 0.252500 0.020000
0.348750 0.252500 0.020000
0.406875 0.252500 0.020000
0.465000 0.252500 0.020000
0.523125 0.252500 0.020000
0.581250 0.252500 0.020000
0.639375 0.252500 0.020000
0.697500 0.252500 0.020000
0.755625 0.252500 0.020000
0.813750 0.252500 0.020000
0.871875 0.252500 0.020000
0.930000 0.252500 0.020000
0.000000 0.313125 0.020000
0.058125 0.313125 0.020000
0.116250 0.313125 0.020000
0.174375 0.313125 0.020000
0.232500 0.313125 0.020000
0.290625 0.313125 0.020000
0.348750 0.313125 0.020000
0.406875 0.313125 0.020000
0.465000 0.313125 0.020000
0.523125 0.313125 0.020000
0.581250 0.313125 0.020000
0.639375 0.313125 0.020000
0.697500 0.313125 0.020000
0.755625 0.313125 0.020000
0.813750 0.313125 0.020000
0.871875 0.313125 0.020000
0.930000 0.313125 0.020000
0.000000 0.373750 0.020000
0.058125 0.373750 0.020000
0.116250 0.373750 0.020000
0.174375 0.373750 0.020000
0.232500 0.373750 0.020000
0.290625 0.373750 0.020000
0.348750 0.373750 0.020000
0.406875 0.373750 0.020000
0.465000 0.373750 0.020000
0.523125 0.373750 0.020000
0.581250 0.373750 0.020000
0.639375 0.373750 0.020000
0.697500 0.373750 0.020000
0.755625 0.373750 0.020000
0.813750 0.373750 0.020000
0.871875 0.373750 0.020000
0.930000 0.373750 0.020000
0.000000 0.434375 0.020000
0.058125 0.434375 0.020000
0.116250 0.434375 0.020000
0.174375 0.434375 0.020000
0.232500 0.434375 0.020000
0.290625 0.434375 0.020000
0.348750 0.434375 0.020000
0.406875 0.434375 0.020000
0.465000 0.434375 0.020000
0.523125 0.434375 0.020000
0.581250 0.434375 0.020000
0.639375 0.434375 0.020000
0.697500 0.434375 0.020000
0.755625 0.434375 0.020000
0.813750 0.434375 0.020000
0.871875 0.434375 0.020000
0.930000 0.434375 0.020000
0.000000 0.495000 0.020000
0.058125 0.495000 0.020000
0.116250 0.495000 0.020000
0.174375 0.495000 0.020000
0.232500 0.495000 0.020000
0.290625 0.495000 0.020000
0.348750 0.495000 0.020000
0.406875 0.495000 0.020000
0.465000 0.495000 0.020000
0.523125 0.495000 0.020000
0.581250 0.495000 0.020000
0.639375 0.495000 0.020000
0.697500 0.495000 0.020000
0.755625 0.495000 0.020000
0.813750 0.495000 0.020000
0.871875 0.495000 0.020000
0.930000 0.495000 0.020000
0.000000 0.555625 0.020000
0.058125 0.555625 0.020000
0.116250 0.555625 0.020000
0.174375 0.555625 0.020000
0.232500 0.555625 0.020000
0.290625 0.555625 0.020000
0.348750 0.555625 0.020000
0.406875 0.555625 0.020000
0.465000 0.555625 0.020000
0.523125 0.555625 0.020000
0.581250 0.555625 0.020000
0.639375 0.555625 0.020000
0.697500 0.555625 0.020000
0.755625 0.555625 0.020000
0.813750 0.555625 0.020000
0.871875 0.555625 0.020000
0.930000 0.555625 0.020000
0.000000 0.616250 0.020000
0.058125 0.616250 0.020000
0.116250 0.616250 0.020000
0.174375 0.616250 0.020000
0.232500 0.616250 0.020000
0.290625 0.616250 0.020000
0.348750 0.616250 0.020000
0.406875 0.616250 0.020000
0.465000 0.616250 0.020000
0.523125 0.616250 0.020000
0.581250 0.616250 0.020000
0.639375 0.616250 0.020000
0.697500 0.616250 0.020000
0.755625 0.616250 0.020000
0.813750 0.616250 0.020000
0.871875 0.616250 0.020000
0.930000 0.616250 0.020000
0.000000 0.676875 0.020000
0.058125 0.676875 0.020000
0.116250 0.676875 0.020000
0.174375 0.676875 0.020000
0.232500 0.676875 0.020000
0.290625 0.676875 0.020000
0.348750 0.676875 0.020000
0.406875 0.676875 0.020000
0.465000 0.676875 0.020000
0.523125 0.676875 0.020000
0.581250 0.676875 0.020000
0.639375 0.676875 0.020000
0.697500 0.676875 0.020000
0.755625 0.676875 0.020000
0.813750 0.676875 0.020000
0.871875 0.676875 0.020000
0.930000 0.676875 0.020000
0.000000 0.737500 0.020000
0.058125 0.737500 0.020000
0.116250 0.737500 0.020000
0.174375 0.737500 0.020000
0.232500 0.737500 0.020000
0.290625 0.737500 0.020000
0.348750 0.737500 0.020000
0.406875 0.737500 0.020000
0.465000 0.737500 0.020000
0.523125 0.737500 0.020000
0.581250 0.737500 0.020000
0.639375 0.737500 0.020000
0.697500 0.737500 0.020000
0.755625 0.737500 0.020000
0.813750 0.737500 0.020000
0.871875 0.737500 0.020000
0.930000 0.737500 0.020000
0.000000 0.798125 0.020000
0.058125 0.798125 0.020000
0.116250 0.798125 0.020000
0.174375 0.798125 0.020000
0.232500 0.798125 0.020000
0.290625 0.798125 0.020000
0.348750 0.798125 0.020000
0.406875 0.798125 0.020000
0.465000 0.798125 0.020000
0.523125 0.798125 0.020000
0.581250 0.798125 0.020000
0.639375 0.798125 0.020000
0.697500 0.798125 0.020000
0.755625 0.798125 0.020000
0.813750 0.798125 0.020000
0.871875 0.798125 0.020000
0.930000 0.798125 0.020000
0.000000 0.858750 0.020000
0.058125 0.858750 0.020000
0.116250 0.858750 0.020000
0.174375 0.858750 0.020000
0.232500 0.858750 0.020000
0.290625 0.858750 0.020000
0.348750 0.858750 0.020000
0.406875 0.858750 0.020000
0.465000 0.858750 0.020000
0.523125 0.858750 0.020000
0.581250 0.858750 0.020000
0.639375 0.858750 0.020000
0.697500 0.858750 0.020000
0.755625 0.858750 0.020000
0.813750 0.858750 0.020000
0.871875 0.858750 0.020000
0.930000 0.858750 0.020000
0.000000 0.919375 0.020000
0.058125 0.919375 0.020000
0.116250 0.919375 0.020000
0.174375 0.919375 0.020000
0.232500 0.919375 0.020000
0.290625 0.919375 0.020000
0.348750 0.919375 0.020000
0.406875 0.919375 0.020000
0.465000 0.919375 0.020000
0.523125 0.919375 0.020000
0.581250 0.919375 0.020000
0.639375 0.919375 0.020000
0.697500 0.919375 0.020000
0.755625 0.919375 0.020000
0.813750 0.919375 0.020000
0.871875 0.919375 0.020000
0.930000 0.919375 0.020000
0.000000 0.980000 0.020000
0.058125 0.980000 0.020000
0.116250 0.980000 0.020000
0.174375 0.980000 0.020000
0.232500 0.980000 0.020000
0.290625 0.980000 0.020000
0.348750 0.980000 0.020000
0.406875 0.980000 0.020000
0.465000 0.980000 0.020000
0.523125 0.980000 0.020000
0.581250 0.980000 0.020000
0.639375 0.980000 0.020000
0.697500 0.980000 0.020000
0.755625 0.980000 0.020000
0.813750 0.980000 0.020000
0.871875 0.980000 0.020000
0.930000 0.980000 0.020000
0.000000 0.010000 0.088750
0.058125 0.010000 0.088750
0.116250 0.010000 0.088750
0.174375 0.010000 0.088750
0.232500 0.010000 0.088750
0.290625 0.010000 0.088750
0.348750 0.010000 0.088750
0.406875 0.010000 0.088750
0.465000 0.010000 0.088750
0.523125 0.010000 0.088750
0.581250 0.010000 0.088750
0.639375 0.010000 0.088750
0.697500 0.010000 0.088750
0.755625 0.010000 0.088750
0.813750 0.010000 0.088750
0.871875 0.010000 0.088750
0.930000 0.010000 0.088750
0.000000 0.070625 0.088750
0.058125 0.070625 0.088750
0.116250 0.070625 0.088750
0.174375 0.070625 0.088750
0.232500 0.070625 0.088750
0.290625 0.070625 0.088750
0.348750 0.070625 0.088750
0.406875 0.070625 0.088750
0.465000 0.070625 0.088750
0.523125 0.070625 0.088750
0.581250 0.070625 0.088750
0.639375 0.070625 0.088750
0.697500 0.070625 0.088750
0.755625 0.070625 0.088750
0.813750 0.070625 0.088750
0.871875 0.070625 0.088750
0.930000 0.070625 0.088750
0.000000 0.131250 0.088750
0.058125 0.131250 0.088750
0.116250 0.131250 0.088750
0.174375 0.131250 0.088750
0.232500 0.131250 0.088750
0.290625 0.131250 0.088750
0.348750 0.131250 0.088750
0.406875 0.131250 0.088750
0.465000 0.131250 0.088750
0.523125 0.131250 0.088750
0.581250 0.131250 0.088750
0.639375 0.131250 0.088750
0.697500 0.131250 0.088750
0.755625 0.131250 0.088750
0.813750 0.131250 0.088750
0.871875 0.131250 0.088750
0.930000 0.131250 0.088750
0.000000 0.191875 0.088750
0.058125 0.191875 0.088750
0.116250 0.191875 0.088750
0.174375 0.191875 0.088750
0.232500 0.191875 0.088750
0.290625 0.191875 0.088750
0.348750 0.191875 0.088750
0.406875 0.191875 0.088750
0.465000 0.191875 0.088750
0.523125 0.191875 0.088750
0.581250 0.191875 0.088750
0.639375 0.191875 0.088750
0.697500 0.191875 0.088750
0.755625 0.191875 0.088750
0.813750 0.191875 0.088750
0.871875 0.191875 0.088750
0.930000 0.191875 0.088750
0.000000 0.252500 0.088750
0.058125 0.252500 0.088750
0.116250 0.252500 0.088750
0.174375 0.252500 0.088750
0.232500 0.252500 0.088750
0.290625 0.252500 0.088750
0.348750 0.252500 0.088750
0.406875 0.252500 0.088750
0.465000 0.252500 0.088750
0.523125 0.252500 0.088750
0.581250 0.252500 0.088750
0.639375 0.252500 0.088750
0.697500 0.252500 0.088750
0.755625 0.252500 0.088750
0.813750 0.252500 0.088750
0.871875 0.252500 0.088750
0.930000 0.252500 0.088750
0.000000 0.313125 0.088750
0.058125 0.313125 0.088750
0.116250 0.313125 0.088750
0.174375 0.313125 0.088750
0.232500 0.313125 0.088750
0.290625 0.313125 0.088750
0.348750 0.313125 0.088750
0.406875 0.313125 0.088750
0.465000 0.313125 0.088750
0.523125 0.313125 0.088750
0.581250 0.313125 0.088750
0.639375 0.313125 0.088750
0.697500 0.313125 0.088750
0.755625 0.313125 0.088750
0.813750 0.313125 0.088750
0.871875 0.313125 0.088750
0.930000 0.313125 0.088750
0.000000 0.373750 0.088750
0.058125 0.373750 0.088750
0.116250 0.373750 0.088750
0.174375 0.373750 0.088750
0.232500 0.373750 0.088750
0.290625 0.373750 0.088750
0.348750 0.373750 0.088750
0.406875 0.373750 0.088750
0.465000 0.373750 0.088750
0.523125 0.373750 0.088750
0.581250 0.373750 0.088750
0.639375 0.373750 0.088750
0.697500 0.373750 0.088750
0.755625 0.373750 0.088750
0.813750 0.373750 0.088750
0.871875 0.373750 0.088750
0.930000 0.373750 0.088750
0.000000 0.434375 0.088750
0.058125 0.434375 0.088750
0.116250 0.434375 0.088750
0.174375 0.434375 0.088750
0.232500 0.434375 0.088750
0.290625 0.434375 0.088750
0.348750 0.434375 0.088750
0.406875 0.434375 0.088750
0.465000 0.434375 0.088750
0.523125 0.434375 0.088750
0.581250 0.434375 0.088750
0.639375 0.434375 0.088750
0.697500 0.434375 0.088750
0.755625 0.434375 0.088750
0.813750 0.434375 0.088750
0.871875 0.434375 0.088750
0.930000 0.434375 0.088750
0.000000 0.495000 0.088750
0.058125 0.495000 0.088750
0.116250 0.495000 0.088750
0.174375 0.495000 0.088750
0.232500 0.495000 0.088750
0.290625 0.495000 0.088750
0.348750 0.495000 0.088750
0.406875 0.495000 0.088750
0.465000 0.495000 0.088750
0.523125 0.495000 0.088750
0.581250 0.495000 0.088750
0.639375 0.495000 0.088750
0.697500 0.495000 0.088750
0.755625 0.495000 0.088750
0.813750 0.495000 0.088750
0.871875 0.495000 0.088750
0.930000 0.495000 0.088750
0.000000 0.555625 0.088750
0.058125 0.555625 0.088750
0.116250 0.555625 0.088750
0.174375 0.555625 0.088750
0.232500 0.555625 0.088750
0.290625 0.555625 0.088750
0.348750 0.555625 0.088750
0.406875 0.555625 0.088750
0.465000 0.555625 0.088750
0.523125 0.555625 0.088750
0.581250 0.555625 0.088750
0.639375 0.555625 0.088750
0.697500 0.555625 0.088750
0.755625 0.555625 0.088750
0.813750 0.555625 0.088750
0.871875 0.555625 0.088750
0.930000 0.555625 0.088750
0.000000 0.616250 0.088750
0.058125 0.616250 0.088750
0.116250 0.616250 0.088750
0.174375 0.616250 0.088750
0.232500 0.616250 0.088750
0.290625 0.616250 0.088750
0.348750 0.616250 0.088750
0.406875 0.616250 0.088750
0.465000 0.616250 0.088750
0.523125 0.616250 0.088750
0.581250 0.616250 0.088750
0.639375 0.616250 0.088750
0.697500 0.616250 0.088750
0.755625 0.616250 0.088750
0.813750 0.616250 0.088750
0.871875 0.616250 0.088750
0.930000 0.616250 0.088750
0.000000 0.676875 0.088750
0.058125 0.676875 0.088750
0.116250 0.676875 0.088750
0.174375 0.676875 0.088750
0.232500 0.676875 0.088750
0.290625 0.676875 0.088750
0.348750 0.676875 0.088750
0.406875 0.676875 0.088750
0.465000 0.676875 0.088750
0.523125 0.676875 0.088750
0.581250 0.676875 0.088750
0.639375 0.676875 0.088750
0.697500 0.676875 0.088750
0.755625 0.676875 0.088750
0.813750 0.676875 0.088750
0.871875 0.676875 0.088750
0.930000 0.676875 0.088750
0.000000 0.737500 0.088750
0.058125 0.737500 0.088750
0.116250 0.737500 0.088750
0.174375 0.737500 0.088750
0.232500 0.737500 0.088750
0.290625 0.737500 0.088750
0.348750 0.737500 0.088750
0.406875 0.737500 0.088750
0.465000 0.737500 0.088750
0.523125 0.737500 0.088750
0.581250 0.737500 0.088750
0.639375 0.737500 0.088750
0.697500 0.737500 0.088750
0.755625 0.737500 0.088750
0.813750 0.737500 0.088750
0.871875 0.737500 0.088750
0.930000 0.737500 0.088750
0.000000 0.798125 0.088750
0.058125 0.798125 0.088750
0.116250 0.798125 0.088750
0.174375 0.798125 0.088750
0.232500 0.798125 0.088750
0.290625 0.798125 0.088750
0.348750 0.798125 0.088750
0.406875 0.798125 0.088750
0.465000 0.798125 0.088750
0.523125 0.798125 0.088750
0.581250 0.798125 0.088750
0.639375 0.798125 0.088750
0.697500 0.798125 0.088750
0.755625 0.798125 0.088750
0.813750 0.798125 0.088750
0.871875 0.798125 0.088750
0.930000 0.798125 0.088750
0.000000 0.858750 0.088750
0.058125 0.858750 0.088750
0.116250 0.858750 0.088750
0.174375 0.858750 0.088750
0.232500 0.858750 0.088750
0.290625 0.858750 0.088750
0.348750 0.858750 0.088750
0.406875 0.858750 0.088750
0.465000 0.858750 0.088750
0.523125 0.858750 0.088750
0.581250 0.858750 0.088750
0.639375 0.858750 0.088750
0.697500 0.858750 0.088750
0.755625 0.858750 0.088750
0.813750 0.858750 0.088750
0.871875 0.858750 0.088750
0.930000 0.858750 0.088750
0.000000 0.919375 0.088750
0.058125 0.919375 0.088750
0.116250 0.919375 0.088750
0.174375 0.919375 0.088750
0.232500 0.919375 0.088750
0.290625 0.919375 0.088750
0.348750 0.919375 0.088750
0.406875 0.919375 0.088750
0.465000 0.919375 0.088750
0.523125 0.919375 0.088750
0.581250 0.919375 0.088750
0.639375 0.919375 0.088750
0.697500 0.919375 0.088750
0.755625 0.919375 0.088750
0.813750 0.919375 0.088750
0.871875 0.919375 0.088750
0.930000 0.919375 0.088750
0.000000 0.980000 0.088750
0.058125 0.980000 0.088750
0.116250 0.980000 0.088750
0.174375 0.980000 0.088750
0.232500 0.980000 0.088750
0.290625 0.980000 0.088750
0.348750 0.980000 0.088750
0.406875 0.980000 0.088750
0.465000 0.980000 0.088750
0.523125 0.980000 0.088750
0.581250 0.980000 0.088750
0.639375 0.980000 0.088750
0.697500 0.980000 0.088750
0.755625 0.980000 0.088750
0.813750 0.980000 0.088750
0.871875 0.980000 0.088750
0.930000 0.980000 0.088750
0.000000 0.010000 0.157500
0.058125 0.010000 0.157500
0.116250 0.010000 0.157500
0.174375 0.010000 0.157500
0.232500 0.010000 0.157500
0.290625 0.010000 0.157500
0.348750 0.010000 0.157500
0.406875 0.010000 0.157500
0.465000 0.010000 0.157500
0.523125 0.010000 0.157500
0.581250 0.010000 0.157500
0.639375 0.010000 0.157500
0.697500 0.010000 0.157500
0.755625 0.010000 0.157500
0.813750 0.010000 0.157500
0.871875 0.010000 0.157500
0.930000 0.010000 0.157500
0.000000 0.070625 0.157500
0.058125 0.070625 0.157500
0.116250 0.070625 0.157500
0.174375 0.070625 0.157500
0.232500 0.070625 0.157500
0.290625 0.070625 0.157500
0.348750 0.070625 0.157500
0.406875 0.070625 0.157500
0.465000 0.070625 0.157500
0.523125 0.070625 0.157500
0.581250 0.070625 0.157500
0.639375 0.070625 0.157500
0.697500 0.070625 0.157500
0.755625 0.070625 0.157500
0.813750 0.070625 0.157500
0.871875 0.070625 0.157500
0.930000 0.070625 0.157500
0.000000 0.131250 0.157500
0.058125 0.131250 0.157500
0.116250 0.131250 0.157500
0.174375 0.131250 0.157500
0.232500 0.131250 0.157500
0.290625 0.131250 0.157500
0.348750 0.131250 0.157500
0.406875 0.131250 0.157500
0.465000 0.131250 0.157500
0.523125 0.131250 0.157500
0.581250 0.131250 0.157500
0.639375 0.131250 0.157500
0.697500 0.131250 0.157500
0.755625 0.131250 0.157500
0.813750 0.131250 0.157500
0.871875 0.131250 0.157500
0.930000 0.131250 0.157500
0.000000 0.191875 0.157500
0.058125 0.191875 0.157500
0.116250 0.191875 0.157500
0.174375 0.191875 0.157500
0.232500 0.191875 0.157500
0.290625 0.191875 0.157500
0.348750 0.191875 0.157500
0.406875 0.191875 0.157500
0.465000 0.191875 0.157500
0.523125 0.191875 0.157500
0.581250 0.191875 0.157500
0.639375 0.191875 0.157500
0.697500 0.191875 0.157500
0.755625 0.191875 0.157500
0.813750 0.191875 0.157500
0.871875 0.191875 0.157500
0.930000 0.191875 0.157500
0.000000 0.252500 0.157500
0.058125 0.252500 0.157500
0.116250 0.252500 0.157500
0.174375 0.252500 0.157500
0.232500 0.252500 0.157500
0.290625 0.252500 0.157500
0.348750 0.252500 0.157500
0.406875 0.252500 0.157500
0.465000 0.252500 0.157500
0.523125 0.252500 0.157500
0.581250 0.252500 0.157500
0.639375 0.252500 0.157500
0.697500 0.252500 0.157500
0.755625 0.252500 0.157500
0.813750 0.252500 0.157500
0.871875 0.252500 0.157500
0.930000 0.252500 0.157500
0.000000 0.313125 0.157500
0.058125 0.313125 0.157500
0.116250 0.313125 0.157500
0.174375 0.313125 0.157500
0.232500 0.313125 0.157500
0.290625 0.313125 0.157500
0.348750 0.313125 0.157500
0.406875 0.313125 0.157500
0.465000 0.313125 0.157500
0.523125 0.313125 0.157500
0.581250 0.313125 0.157500
0.639375 0.313125 0.157500
0.697500 0.313125 0.157500
0.755625 0.313125 0.157500
0.813750 0.313125 0.157500
0.871875 0.313125 0.157500
0.930000 0.313125 0.157500
0.000000 0.373750 0.157500
0.058125 0.373750 0.157500
0.116250 0.373750 0.157500
0.174375 0.373750 0.157500
0.232500 0.373750 0.157500
0.290625 0.373750 0.157500
0.348750 0.373750 0.157500
0.406875 0.373750 0.157500
0.465000 0.373750 0.157500
0.523125 0.373750 0.157500
0.581250 0.373750 0.157500
0.639375 0.373750 0.157500
0.697500 0.373750 0.157500
0.755625 0.373750 0.157500
0.813750 0.373750 0.157500
0.871875 0.373750 0.157500
0.930000 0.373750 0.157500
0.000000 0.434375 0.157500
0.058125 0.434375 0.157500
0.116250 0.434375 0.157500
0.174375 0.434375 0.157500
0.232500 0.434375 0.157500
0.290625 0.434375 0.157500
0.348750 0.434375 0.157500
0.406875 0.434375 0.157500
0.465000 0.434375 0.157500
0.523125 0.434375 0.157500
0.581250 0.434375 0.157500
0.639375 0.434375 0.157500
0.697500 0.434375 0.157500
0.755625 0.434375 0.157500
0.813750 0.434375 0.157500
0.871875 0.434375 0.157500
0.930000 0.434375 0.157500
0.000000 0.495000 0.157500
0.058125 0.495000 0.157500
0.116250 0.495000 0.157500
0.174375 0.495000 0.157500
0.232500 0.495000 0.157500
0.290625 0.495000 0.157500
0.348750 0.495000 0.157500
0.406875 0.495000 0.157500
0.465000 0.495000 0.157500
0.523125 0.495000 0.157500
0.581250 0.495000 0.157500
0.639375 0.495000 0.157500
0.697500 0.495000 0.157500
0.755625 0.495000 0.157500
0.813750 0.495000 0.157500
0.871875 0.495000 0.157500
0.930000 0.495000 0.157500
0.000000 0.555625 0.157500
0.058125 0.555625 0.157500
0.116250 0.555625 0.157500
0.174375 0.555625 0.157500
0.232500 0.555625 0.157500
0.290625 0.555625 0.157500
0.348750 0.555625 0.157500
0.406875 0.555625 0.157500
0.465000 0.555625 0.157500
0.523125 0.555625 0.157500
0.581250 0.555625 0.157500
0.639375 0.555625 0.157500
0.697500 0.555625 0.157500
0.755625 0.555625 0.157500
0.813750 0.555625 0.157500
0.871875 0.555625 0.157500
0.930000 0.555625 0.157500
0.000000 0.616250 0.157500
0.058125 0.616250 0.157500
0.116250 0.616250 0.157500
0.174375 0.616250 0.157500
0.232500 0.616250 0.157500
0.290625 0.616250 0.157500
0.348750 0.616250 0.157500
0.406875 0.616250 0.157500
0.465000 0.616250 0.157500
0.523125 0.616250 0.157500
0.581250 0.616250 0.157500
0.639375 0.616250 0.157500
0.697500 0.616250 0.157500
0.755625 0.616250 0.157500
0.813750 0.616250 0.157500
0.871875 0.616250 0.157500
0.930000 0.616250 0.157500
0.000000 0.676875 0.157500
0.058125 0.676875 0.157500
0.116250 0.676875 0.157500
0.174375 0.676875 0.157500
0.232500 0.676875 0.157500
0.290625 0.676875 0.157500
0.348750 0.676875 0.157500
0.406875 0.676875 0.157500
0.465000 0.676875 0.157500
0.523125 0.676875 0.157500
0.581250 0.676875 0.157500
0.639375 0.676875 0.157500
0.697500 0.676875 0.157500
0.755625 0.676875 0.157500
0.813750 0.676875 0.157500
0.871875 0.676875 0.157500
0.930000 0.676875 0.157500
0.000000 0.737500 0.157500
0.058125 0.737500 0.157500
0.116250 0.737500 0.157500
0.174375 0.737500 0.157500
0.232500 0.737500 0.157500
0.290625 0.737500 0.157500
0.348750 0.737500 0.157500
0.406875 0.737500 0.157500
0.465000 0.737500 0.157500
0.523125 0.737500 0.157500
0.581250 0.737500 0.157500
0.639375 0.737500 0.157500
0.697500 0.737500 0.157500
0.755625 0.737500 0.157500
0.813750 0.737500 0.157500
0.871875 0.737500 0.157500
0.930000 0.737500 0.157500
0.000000 0.798125 0.157500
0.058125 0.798125 0.157500
0.116250 0.798125 0.157500
0.174375 0.798125 0.157500
0.232500 0.798125 0.157500
0.290625 0.798125 0.157500
0.348750 0.798125 0.157500
0.406875 0.798125 0.157500
0.465000 0.798125 0.157500
0.523125 0.798125 0.157500
0.581250 0.798125 0.157500
0.639375 0.798125 0.157500
0.697500 0.798125 0.157500
0.755625 0.798125 0.157500
0.813750 0.798125 0.157500
0.871875 0.798125 0.157500
0.930000 0.798125 0.157500
0.000000 0.858750 0.157500
0.058125 0.858750 0.157500
0.116250 0.858750 0.157500
0.174375 0.858750 0.157500
0.232500 0.858750 0.157500
0.290625 0.858750 0.157500
0.348750 0.858750 0.157500
0.406875 0.858750 0.157500
0.465000 0.858750 0.157500
0.523125 0.858750 0.157500
0.581250 0.858750 0.157500
0.639375 0.858750 0.157500
0.697500 0.858750 0.157500
0.755625 0.858750 0.157500
0.813750 0.858750 0.157500
0.871875 0.858750 0.157500
0.930000 0.858750 0.157500
0.000000 0.919375 0.157500
0.058125 0.919375 0.157500
0.116250 0.919375 0.157500
0.174375 0.919375 0.157500
0.232500 0.919375 0.157500
0.290625 0.919375 0.157500
0.348750 0.919375 0.157500
0.406875 0.919375 0.157500
0.465000 0.919375 0.157500
0.523125 0.919375 0.157500
0.581250 0.919375 0.157500
0.639375 0.919375 0.157500
0.697500 0.919375 0.157500
0.755625 0.919375 0.157500
0.813750 0.919375 0.157500
0.871875 0.919375 0.157500
0.930000 0.919375 0.157500
0.000000 0.980000 0.157500
0.058125 0.980000 0.157500
0.116250 0.980000 0.157500
0.174375 0.980000 0.157500
0.232500 0.980000 0.157500
0.290625 0.980000 0.157500
0.348750 0.980000 0.157500
0.406875 0.980000 0.157500
0.465000 0.980000 0.157500
0.523125 0.980000 0.157500
0.581250 0.980000 0.157500
0.639375 0.980000 0.157500
0.697500 0.980000 0.157500
0.755625 0.980000 0.157500
0.813750 0.980000 0.157500
0.871875 0.980000 0.157500
0.930000 0.980000 0.157500
0.000000 0.010000 0.226250
0.058125 0.010000 0.226250
0.116250 0.010000 0.226250
0.174375 0.010000 0.226250
0.232500 0.010000 0.226250
0.290625 0.010000 0.226250
0.348750 0.010000 0.226250
0.406875 0.010000 0.226250
0.465000 0.010000 0.226250
0.523125 0.010000 0.226250
0.581250 0.010000 0.226250
0.639375 0.010000 0.226250
0.697500 0.010000 0.226250
0.755625 0.010000 0.226250
0.813750 0.010000 0.226250
0.871875 0.010000 0.226250
