app/assets/luts/03_cool_cinematic.cube
TITLE "Pocket Cool Cinematic"
# 偏冷蓝阴影，城市/夜景电影感。
# Pocket Live Capture built-in preset (free to use)
# POCKET_CUBE_ORDER=rgb_fastest
LUT_3D_SIZE 5
0.000000 0.010000 0.020000
0.232500 0.010000 0.020000
0.465000 0.010000 0.020000
0.697500 0.010000 0.020000
0.930000 0.010000 0.020000
0.000000 0.252500 0.020000
0.232500 0.252500 0.020000
0.465000 0.252500 0.020000
0.697500 0.252500 0.020000
0.930000 0.252500 0.020000
0.000000 0.495000 0.020000
0.232500 0.495000 0.020000
0.465000 0.495000 0.020000
0.697500 0.495000 0.020000
0.930000 0.495000 0.020000
0.000000 0.737500 0.020000
0.232500 0.737500 0.020000
0.465000 0.737500 0.020000
0.697500 0.737500 0.020000
0.930000 0.737500 0.020000
0.000000 0.980000 0.020000
0.232500 0.980000 0.020000
0.465000 0.980000 0.020000
0.697500 0.980000 0.020000
0.930000 0.980000 0.020000
0.000000 0.010000 0.295000
0.232500 0.010000 0.295000
0.465000 0.010000 0.295000
0.697500 0.010000 0.295000
0.930000 0.010000 0.295000
0.000000 0.252500 0.295000
0.232500 0.252500 0.295000
0.465000 0.252500 0.295000
0.697500 0.252500 0.295000
0.930000 0.252500 0.295000
0.000000 0.495000 0.295000
0.232500 0.495000 0.295000
0.465000 0.495000 0.295000
0.697500 0.495000 0.295000
0.930000 0.495000 0.295000
0.000000 0.737500 0.295000
0.232500 0.737500 0.295000
0.465000 0.737500 0.295000
0.697500 0.737500 0.295000
0.930000 0.737500 0.295000
0.000000 0.980000 0.295000
0.232500 0.980000 0.295000
0.465000 0.980000 0.295000
0.697500 0.980000 0.295000
0.930000 0.980000 0.295000
0.000000 0.010000 0.570000
0.232500 0.010000 0.570000
0.465000 0.010000 0.570000
0.697500 0.010000 0.570000
0.930000 0.010000 0.570000
0.000000 0.252500 0.570000
0.232500 0.252500 0.570000
0.465000 0.252500 0.570000
0.697500 0.252500 0.570000
0.930000 0.252500 0.570000
0.000000 0.495000 0.570000
0.232500 0.495000 0.570000
0.465000 0.495000 0.570000
0.697500 0.495000 0.570000
0.930000 0.495000 0.570000
0.000000 0.737500 0.570000
0.232500 0.737500 0.570000
0.465000 0.737500 0.570000
0.697500 0.737500 0.570000
0.930000 0.737500 0.570000
0.000000 0.980000 0.570000
0.232500 0.980000 0.570000
0.465000 0.980000 0.570000
0.697500 0.980000 0.570000
0.930000 0.980000 0.570000
0.000000 0.010000 0.845000
0.232500 0.010000 0.845000
0.465000 0.010000 0.845000
0.697500 0.010000 0.845000
0.930000 0.010000 0.845000
0.000000 0.252500 0.845000
0.232500 0.252500 0.845000
0.465000 0.252500 0.845000
0.697500 0.252500 0.845000
0.930000 0.252500 0.845000
0.000000 0.495000 0.845000
0.232500 0.495000 0.845000
0.465000 0.495000 0.845000
0.697500 0.495000 0.845000
0.930000 0.495000 0.845000
0.000000 0.737500 0.845000
0.232500 0.737500 0.845000
0.465000 0.737500 0.845000
0.697500 0.737500 0.845000
0.930000 0.737500 0.845000
0.000000 0.980000 0.845000
0.232500 0.980000 0.845000
0.465000 0.980000 0.845000
0.697500 0.980000 0.845000
0.930000 0.980000 0.845000
0.000000 0.010000 1.000000
0.232500 0.010000 1.000000
0.465000 0.010000 1.000000
0.697500 0.010000 1.000000
0.930000 0.010000 1.000000
0.000000 0.252500 1.000000
0.232500 0.252500 1.000000
0.465000 0.252500 1.000000
0.697500 0.252500 1.000000
0.930000 0.252500 1.000000
0.000000 0.495000 1.000000
0.232500 0.495000 1.000000
0.465000 0.495000 1.000000
0.697500 0.495000 1.000000
0.930000 0.495000 1.000000
0.000000 0.737500 1.000000
0.232500 0.737500 1.000000
0.465000 0.737500 1.000000
0.697500 0.737500 1.000000
0.930000 0.737500 1.000000
0.000000 0.980000 1.000000
0.232500 0.980000 1.000000
0.465000 0.980000 1.000000
0.697500 0.980000 1.000000
0.930000 0.980000 1.000000
