app/assets/luts/04_teal_orange.cube
TITLE "Pocket Teal Orange"
# 经典青橙分离，旅行/风光。
# Pocket Live Capture built-in preset (free to use)
# POCKET_CUBE_ORDER=rgb_fastest
LUT_3D_SIZE 5
0.020000 0.100000 0.140000
0.241661 0.083389 0.116744
0.473289 0.066778 0.093489
0.714883 0.050167 0.070233
0.966444 0.033556 0.046978
0.013478 0.310650 0.094344
0.244922 0.295700 0.071089
0.486333 0.280750 0.047833
0.737711 0.265800 0.024578
1.000000 0.253766 0.001302
0.006956 0.527822 0.048689
0.248183 0.514533 0.025433
0.507190 0.505159 0.002147
0.777832 0.510705 0.000000
1.000000 0.517500 0.000000
0.003364 0.756280 0.002993
0.264636 0.763591 0.000000
0.534500 0.772425 0.000000
0.812518 0.781259 0.000000
1.000000 0.790093 0.000000
0.013600 1.000000 0.000000
0.283314 1.000000 0.000000
0.561182 1.000000 0.000000
0.847205 1.000000 0.000000
1.000000 1.000000 0.000000
0.018733 0.093667 0.376450
0.242294 0.077056 0.354025
0.475822 0.060444 0.331600
0.719317 0.043833 0.309175
0.972778 0.027222 0.286750
0.012211 0.304950 0.332425
0.245556 0.290000 0.310000
0.488867 0.275050 0.287575
0.742144 0.260100 0.265150
1.000000 0.254725 0.243925
0.005689 0.522756 0.288400
0.248817 0.509467 0.265975
0.513000 0.506500 0.244150
0.784568 0.513295 0.238034
1.000000 0.520091 0.231918
0.005000 0.758125 0.244375
0.268264 0.766959 0.238259
0.539682 0.775793 0.232143
0.819255 0.784627 0.226027
1.000000 0.793461 0.219911
0.015673 1.000000 0.232368
0.286941 1.000000 0.226252
0.566364 1.000000 0.220136
0.853941 1.000000 0.214020
1.000000 1.000000 0.207905
0.017467 0.087333 0.613533
0.242928 0.070722 0.591939
0.478356 0.054111 0.570344
0.723750 0.037500 0.548750
0.979111 0.020889 0.527156
0.010944 0.299250 0.571139
0.246189 0.284300 0.549544
0.491400 0.269350 0.527950
0.753175 0.256195 0.501715
1.000000 0.256539 0.483186
0.004422 0.517689 0.528744
0.252661 0.506708 0.502959
0.518182 0.509091 0.483636
0.791305 0.515886 0.471405
1.000000 0.522682 0.459173
0.007073 0.761493 0.484086
0.271891 0.770327 0.471855
0.544864 0.779161 0.459623
0.825991 0.787995 0.447391
1.000000 0.796830 0.435159
0.017745 1.000000 0.460073
0.290568 1.000000 0.447841
0.571545 1.000000 0.435609
0.860677 1.000000 0.423377
1.000000 1.000000 0.411145
0.016200 0.081000 0.851250
0.243561 0.064389 0.830486
0.480889 0.047778 0.809722
0.728183 0.031167 0.788958
0.985444 0.014556 0.768194
0.009678 0.293550 0.810486
0.246822 0.278600 0.789722
0.493933 0.263650 0.768958
0.763355 0.253595 0.736132
1.000000 0.258352 0.717784
0.003156 0.512622 0.769722
0.256841 0.504886 0.736807
0.523364 0.511682 0.718459
0.798041 0.518477 0.700111
1.000000 0.525273 0.681764
0.009145 0.764861 0.719134
0.275518 0.773695 0.700786
0.550045 0.782530 0.682439
0.832727 0.791364 0.664091
1.000000 0.800198 0.645743
0.019818 1.000000 0.683114
0.294195 1.000000 0.664766
0.576727 1.000000 0.646418
0.867414 1.000000 0.628070
1.000000 1.000000 0.615000
0.014933 0.074667 1.000000
0.244194 0.058056 1.000000
0.483422 0.041444 1.000000
0.732617 0.024833 1.000000
0.995536 0.008707 1.000000
0.008411 0.287850 1.000000
0.247456 0.272900 1.000000
0.498322 0.258611 1.000000
0.770091 0.255409 0.972182
1.000000 0.260166 0.947718
0.002437 0.508244 1.000000
0.260468 0.507477 0.973082
0.528545 0.514273 0.948618
0.804777 0.521068 0.924155
1.000000 0.527864 0.899691
0.011218 0.768230 0.949518
0.279145 0.777064 0.925055
0.555227 0.785898 0.900591
0.839464 0.794732 0.876127
1.000000 0.803566 0.851664
0.021891 1.000000 0.901491
0.297823 1.000000 0.877027
0.581909 1.000000 0.852564
0.874150 1.000000 0.828100
1.000000 1.000000 0.820000
