app/assets/luts/04_teal_orange.cube
TITLE "Pocket Teal Orange"
# 经典青橙分离，旅行/风光。
# Pocket Live Capture built-in preset (free to use)
# POCKET_CUBE_ORDER=rgb_fastest
LUT_3D_SIZE 9
0.020000 0.100000 0.140000
0.129585 0.091694 0.128372
0.241661 0.083389 0.116744
0.356229 0.075083 0.105117
0.473289 0.066778 0.093489
0.592840 0.058472 0.081861
0.714883 0.050167 0.070233
0.839418 0.041861 0.058606
0.966444 0.033556 0.046978
0.016739 0.204510 0.117172
0.128769 0.196619 0.105544
0.243292 0.188729 0.093917
0.360306 0.180839 0.082289
0.479811 0.172949 0.070661
0.601808 0.165058 0.059033
0.726297 0.157168 0.047406
0.853278 0.149278 0.035778
0.982750 0.141387 0.024150
0.013478 0.310650 0.094344
0.127954 0.303175 0.082717
0.244922 0.295700 0.071089
0.364382 0.288225 0.059461
0.486333 0.280750 0.047833
0.610776 0.273275 0.036206
0.737711 0.265800 0.024578
0.869331 0.258866 0.012915
1.000000 0.253766 0.001302
0.010217 0.418421 0.071517
0.127139 0.411361 0.059889
0.246553 0.404301 0.048261
0.368458 0.397242 0.036633
0.492856 0.390182 0.025006
0.621200 0.383669 0.013347
0.759605 0.379497 0.001725
0.896552 0.381317 0.000000
1.000000 0.384205 0.000000
0.006956 0.527822 0.048689
0.126324 0.521178 0.037061
0.248183 0.514533 0.025433
0.373401 0.508405 0.013780
0.507190 0.505159 0.002147
0.641806 0.507307 0.000000
0.777832 0.510705 0.000000
0.915897 0.514102 0.000000
1.000000 0.517500 0.000000
0.003694 0.638854 0.025861
0.125934 0.633073 0.014214
0.255110 0.630754 0.002570
0.387209 0.633259 0.000000
0.521159 0.637166 0.000000
0.657148 0.641074 0.000000
0.795175 0.644981 0.000000
0.935241 0.648889 0.000000
1.000000 0.652796 0.000000
0.003364 0.756280 0.002993
0.132763 0.759174 0.000000
0.264636 0.763591 0.000000
0.398549 0.768008 0.000000
0.534500 0.772425 0.000000
0.672490 0.776842 0.000000
0.812518 0.781259 0.000000
0.954585 0.785676 0.000000
1.000000 0.790093 0.000000
0.008264 0.889978 0.000000
0.140100 0.894905 0.000000
0.273975 0.899831 0.000000
0.409889 0.904758 0.000000
0.547841 0.909685 0.000000
0.687832 0.914611 0.000000
0.829861 0.919538 0.000000
0.973930 0.924465 0.000000
1.000000 0.929391 0.000000
0.013600 1.000000 0.000000
0.147437 1.000000 0.000000
0.283314 1.000000 0.000000
0.421228 1.000000 0.000000
0.561182 1.000000 0.000000
0.703174 1.000000 0.000000
0.847205 1.000000 0.000000
0.993274 1.000000 0.000000
1.000000 1.000000 0.000000
0.019367 0.096833 0.258146
0.129426 0.088528 0.246726
0.241978 0.080222 0.235306
0.357021 0.071917 0.223885
0.474556 0.063611 0.212465
0.594582 0.055306 0.201045
0.717100 0.047000 0.189625
0.842110 0.038694 0.178205
0.969611 0.030389 0.166785
0.016106 0.201501 0.235726
0.128611 0.193611 0.224306
0.243608 0.185721 0.212885
0.361097 0.177831 0.201465
0.481078 0.169940 0.190045
0.603550 0.162050 0.178625
0.728514 0.154160 0.167205
0.855969 0.146269 0.155785
0.985917 0.138379 0.144365
0.012844 0.307800 0.213306
0.127796 0.300325 0.201885
0.245239 0.292850 0.190465
0.365174 0.285375 0.179045
0.487600 0.277900 0.167625
0.612518 0.270425 0.156205
0.739928 0.262950 0.144785
0.875768 0.256928 0.132377
1.000000 0.253818 0.122545
0.009583 0.415729 0.190885
0.126981 0.408669 0.179465
0.246869 0.401610 0.168045
0.369250 0.394550 0.156625
0.494122 0.387490 0.145205
0.625913 0.382085 0.132854
0.763857 0.379530 0.122602
0.900309 0.382418 0.121073
1.000000 0.385306 0.119544
0.006322 0.525289 0.168465
0.126165 0.518644 0.157045
0.248500 0.512000 0.145625
0.376391 0.507174 0.133332
0.510409 0.505205 0.122658
0.644785 0.508602 0.121129
0.781200 0.512000 0.119600
0.919653 0.515398 0.118071
1.000000 0.518795 0.116542
0.003061 0.636479 0.146045
0.127201 0.632195 0.133810
0.257111 0.630841 0.122714
0.389411 0.634749 0.121185
0.523750 0.638656 0.119656
0.660127 0.642564 0.118127
0.798543 0.646471 0.116598
0.938998 0.650378 0.115069
1.000000 0.654286 0.113540
0.003964 0.756441 0.122770
0.134188 0.760858 0.121241
0.266450 0.765275 0.119712
0.400751 0.769692 0.118184
0.537091 0.774109 0.116655
0.675469 0.778526 0.115126
0.815886 0.782943 0.113597
0.958342 0.787360 0.112068
1.000000 0.791777 0.110539
0.009300 0.891856 0.119769
0.141525 0.896783 0.118240
0.275789 0.901710 0.116711
0.412091 0.906636 0.115182
0.550432 0.911563 0.113653
0.690811 0.916490 0.112124
0.833230 0.921416 0.110595
0.977686 0.926343 0.109066
1.000000 0.931270 0.107537
0.014636 1.000000 0.116767
0.148863 1.000000 0.115238
0.285127 1.000000 0.113709
0.423431 1.000000 0.112180
0.563773 1.000000 0.110651
0.706153 1.000000 0.109122
0.850573 1.000000 0.107593
0.997031 1.000000 0.106064
1.000000 1.000000 0.104535
0.018733 0.093667 0.376450
0.129268 0.085361 0.365237
0.242294 0.077056 0.354025
0.357812 0.068750 0.342812
0.475822 0.060444 0.331600
0.596324 0.052139 0.320387
0.719317 0.043833 0.309175
0.844801 0.035528 0.297963
0.972778 0.027222 0.286750
0.015472 0.198493 0.354438
0.128453 0.190603 0.343225
0.243925 0.182712 0.332013
0.361889 0.174822 0.320800
0.482344 0.166932 0.309588
0.605292 0.159042 0.298375
0.730731 0.151151 0.287162
0.858661 0.143261 0.275950
0.989336 0.135416 0.264662
0.012211 0.304950 0.332425
0.127637 0.297475 0.321213
0.245556 0.290000 0.310000
0.365965 0.282525 0.298787
0.488867 0.275050 0.287575
0.614260 0.267575 0.276363
0.742144 0.260100 0.265150
0.882222 0.254982 0.250873
1.000000 0.254725 0.243925
0.008950 0.413038 0.310412
0.126822 0.405978 0.299200
0.247186 0.398918 0.287988
0.370042 0.391858 0.276775
0.495389 0.384799 0.265562
0.630637 0.380493 0.251395
0.767225 0.380631 0.244037
0.904066 0.383519 0.240980
1.000000 0.386407 0.237922
0.005689 0.522756 0.288400
0.126007 0.516111 0.277188
0.248817 0.509467 0.265975
0.379385 0.505935 0.251917
0.513000 0.506500 0.244150
0.647765 0.509898 0.241092
0.784568 0.513295 0.238034
0.923410 0.516693 0.234976
1.000000 0.520091 0.231918
0.002428 0.634104 0.266387
0.128468 0.631309 0.252440
0.258925 0.632331 0.244263
0.391614 0.636239 0.241205
0.526341 0.640146 0.238147
0.663107 0.644053 0.235089
0.801911 0.647961 0.232031
0.942755 0.651868 0.228973
1.000000 0.655776 0.225915
0.005000 0.758125 0.244375
0.135612 0.762542 0.241317
0.268264 0.766959 0.238259
0.402953 0.771376 0.235201
0.539682 0.775793 0.232143
0.678449 0.780210 0.229085
0.819255 0.784627 0.226027
0.962099 0.789044 0.222969
1.000000 0.793461 0.219911
0.010336 0.893735 0.238372
0.142950 0.898661 0.235314
0.277602 0.903588 0.232256
0.414293 0.908515 0.229198
0.553023 0.913441 0.226140
0.693791 0.918368 0.223082
0.836598 0.923295 0.220024
0.981443 0.928222 0.216966
1.000000 0.933148 0.213908
0.015673 1.000000 0.232368
0.150287 1.000000 0.229310
0.286941 1.000000 0.226252
0.425633 1.000000 0.223194
0.566364 1.000000 0.220136
0.709133 1.000000 0.217078
0.853941 1.000000 0.214020
1.000000 1.000000 0.210962
1.000000 1.000000 0.207905
0.018100 0.090500 0.494912
0.129110 0.082194 0.483908
0.242611 0.073889 0.472903
0.358604 0.065583 0.461898
0.477089 0.057278 0.450893
0.598065 0.048972 0.439888
0.721533 0.040667 0.428883
0.847493 0.032361 0.417878
0.975944 0.024056 0.406874
0.014839 0.195485 0.473308
0.128294 0.187594 0.462303
0.244242 0.179704 0.451298
0.362681 0.171814 0.440293
0.483611 0.163924 0.429288
0.607033 0.156033 0.418283
0.732947 0.148143 0.407278
0.861353 0.140253 0.396274
0.996624 0.133131 0.383362
0.011578 0.302100 0.451703
0.127479 0.294625 0.440698
0.245872 0.287150 0.429693
0.366757 0.279675 0.418688
0.490133 0.272200 0.407683
0.616001 0.264725 0.396678
0.747594 0.258136 0.383938
0.888478 0.253253 0.368726
1.000000 0.255632 0.364139
0.008317 0.410346 0.430098
0.126664 0.403286 0.419093
0.247503 0.396226 0.408088
0.370833 0.389167 0.397083
0.498897 0.383073 0.384515
0.635371 0.378892 0.368967
0.770593 0.381732 0.364307
0.907823 0.384620 0.359720
1.000000 0.387509 0.355134
0.005056 0.520222 0.408493
0.125849 0.513578 0.397488
0.250531 0.507942 0.385092
0.382385 0.504688 0.369534
0.515591 0.507795 0.364476
0.650744 0.511193 0.359889
0.787936 0.514591 0.355302
0.927167 0.517989 0.350715
1.000000 0.521386 0.346128
0.002498 0.632742 0.385669
0.129734 0.630416 0.370102
0.260739 0.633821 0.364645
0.393816 0.637728 0.360058
0.528932 0.641636 0.355471
0.666086 0.645543 0.350884
0.805280 0.649451 0.346297
0.946511 0.653358 0.341710
1.000000 0.657265 0.337123
0.006036 0.759809 0.364814
0.137037 0.764226 0.360227
0.270077 0.768643 0.355640
0.405156 0.773060 0.351053
0.542273 0.777477 0.346466
0.681428 0.781894 0.341879
0.822623 0.786311 0.337292
0.965856 0.790728 0.332705
1.000000 0.795145 0.328118
0.011373 0.895613 0.355809
0.144375 0.900540 0.351222
0.279416 0.905466 0.346635
0.416495 0.910393 0.342048
0.555614 0.915320 0.337461
0.696770 0.920247 0.332874
0.839966 0.925173 0.328287
0.985200 0.930100 0.323700
1.000000 0.935027 0.319113
0.016709 1.000000 0.346803
0.151713 1.000000 0.342216
0.288755 1.000000 0.337630
0.427835 1.000000 0.333043
0.568955 1.000000 0.328456
0.712113 1.000000 0.323869
0.857309 1.000000 0.319282
1.000000 1.000000 0.314695
1.000000 1.000000 0.310108
0.017467 0.087333 0.613533
0.128951 0.079028 0.602736
0.242928 0.070722 0.591939
0.359396 0.062417 0.581142
0.478356 0.054111 0.570344
0.599807 0.045806 0.559547
0.723750 0.037500 0.548750
0.850185 0.029194 0.537953
0.979111 0.020889 0.527156
0.014206 0.192476 0.592336
0.128136 0.184586 0.581539
0.244558 0.176696 0.570742
0.363472 0.168806 0.559944
0.484878 0.160915 0.549147
0.608775 0.153025 0.538350
0.735164 0.145135 0.527553
0.864044 0.137244 0.516756
1.000000 0.130837 0.501094
0.010944 0.299250 0.571139
0.127321 0.291775 0.560342
0.246189 0.284300 0.549544
0.367549 0.276825 0.538747
0.491400 0.269350 0.527950
0.617743 0.261875 0.517153
0.753175 0.256195 0.501715
0.892235 0.254160 0.489302
1.000000 0.256539 0.483186
0.007683 0.407654 0.549942
0.126506 0.400594 0.539144
0.247819 0.393535 0.528347
0.371625 0.386475 0.517550
0.502751 0.381485 0.502337
0.638382 0.379945 0.489527
0.773961 0.382834 0.483411
0.911580 0.385722 0.477295
1.000000 0.388610 0.471180
0.004422 0.517689 0.528744
0.125690 0.511044 0.517947
0.252661 0.506708 0.502959
0.384678 0.505693 0.489752
0.518182 0.509091 0.483636
0.653724 0.512489 0.477520
0.791305 0.515886 0.471405
0.930924 0.519284 0.465289
1.000000 0.522682 0.459173
0.002904 0.631862 0.503581
0.131125 0.631403 0.489977
0.262552 0.635311 0.483861
0.396018 0.639218 0.477745
0.531523 0.643126 0.471630
0.669066 0.647033 0.465514
0.808648 0.650940 0.459398
0.950268 0.654848 0.453282
1.000000 0.658755 0.447166
0.007073 0.761493 0.484086
0.138462 0.765910 0.477970
0.271891 0.770327 0.471855
0.407358 0.774744 0.465739
0.544864 0.779161 0.459623
0.684408 0.783578 0.453507
0.825991 0.787995 0.447391
0.969612 0.792412 0.441275
1.000000 0.796830 0.435159
0.012409 0.897491 0.472080
0.145800 0.902418 0.465964
0.281230 0.907345 0.459848
0.418698 0.912272 0.453732
0.558205 0.917198 0.447616
0.699750 0.922125 0.441500
0.843334 0.927052 0.435384
0.988957 0.931978 0.429268
1.000000 0.936905 0.423152
0.017745 1.000000 0.460073
0.153138 1.000000 0.453957
0.290568 1.000000 0.447841
0.430038 1.000000 0.441725
0.571545 1.000000 0.435609
0.715092 1.000000 0.429493
0.860677 1.000000 0.423377
1.000000 1.000000 0.417261
1.000000 1.000000 0.411145
0.016833 0.084167 0.732313
0.128793 0.075861 0.721723
0.243244 0.067556 0.711133
0.360188 0.059250 0.700544
0.479622 0.050944 0.689954
0.601549 0.042639 0.679365
0.725967 0.034333 0.668775
0.852876 0.026028 0.658185
0.982278 0.017722 0.647596
0.013572 0.189468 0.711523
0.127978 0.181578 0.700933
0.244875 0.173687 0.690344
0.364264 0.165797 0.679754
0.486144 0.157907 0.669165
0.610517 0.150017 0.658575
0.737381 0.142126 0.647985
0.868373 0.134555 0.636092
1.000000 0.128533 0.617857
0.010311 0.296400 0.690733
0.127163 0.288925 0.680144
0.246506 0.281450 0.669554
0.368340 0.273975 0.658965
0.492667 0.266500 0.648375
0.620498 0.259340 0.636768
0.758770 0.254246 0.618523
0.895992 0.255067 0.608713
1.000000 0.257445 0.601068
0.007050 0.404963 0.669944
0.126347 0.397903 0.659354
0.248136 0.390843 0.648765
0.372956 0.384057 0.637444
0.506613 0.379890 0.619190
0.641361 0.381047 0.608994
0.777330 0.383935 0.601349
0.915336 0.386823 0.593705
1.000000 0.389711 0.586060
0.003789 0.515156 0.649154
0.125745 0.508706 0.638120
0.254792 0.505466 0.619857
0.386881 0.506989 0.609276
0.520773 0.510386 0.601631
0.656703 0.513784 0.593986
0.794673 0.517182 0.586341
0.934681 0.520580 0.578696
1.000000 0.523977 0.571051
0.003305 0.630973 0.620524
0.132550 0.632893 0.609557
0.264366 0.636801 0.601912
0.398220 0.640708 0.594267
0.534114 0.644615 0.586622
0.672045 0.648523 0.578977
0.812016 0.652430 0.571332
0.954025 0.656338 0.563688
1.000000 0.660245 0.556043
0.008109 0.763177 0.602193
0.139887 0.767594 0.594548
0.273705 0.772011 0.586903
0.409560 0.776428 0.579259
0.547455 0.780845 0.571614
0.687388 0.785262 0.563969
0.829359 0.789680 0.556324
0.973369 0.794097 0.548679
1.000000 0.798514 0.541034
0.013445 0.899370 0.587185
0.147225 0.904297 0.579540
0.283043 0.909223 0.571895
0.420900 0.914150 0.564250
0.560795 0.919077 0.556605
0.702730 0.924003 0.548960
0.846702 0.928930 0.541315
0.992714 0.933857 0.533670
1.000000 0.938784 0.526026
0.018782 1.000000 0.572176
0.154562 1.000000 0.564531
0.292382 1.000000 0.556886
0.432240 1.000000 0.549241
0.574136 1.000000 0.541597
0.718072 1.000000 0.533952
0.864045 1.000000 0.526307
1.000000 1.000000 0.518662
1.000000 1.000000 0.512500
0.016200 0.081000 0.851250
0.128635 0.072694 0.840868
0.243561 0.064389 0.830486
0.360979 0.056083 0.820104
0.480889 0.047778 0.809722
0.603290 0.039472 0.799340
0.728183 0.031167 0.788958
0.855568 0.022861 0.778576
0.985444 0.014556 0.768194
0.012939 0.186460 0.830868
0.127819 0.178569 0.820486
0.245192 0.170679 0.810104
0.365056 0.162789 0.799722
0.487411 0.154899 0.789340
0.612258 0.147008 0.778958
0.739597 0.139118 0.768576
0.874807 0.132267 0.753108
1.000000 0.127894 0.735794
0.009678 0.293550 0.810486
0.127004 0.286075 0.800104
0.246822 0.278600 0.789722
0.369132 0.271125 0.779340
0.493933 0.263650 0.768958
0.625210 0.257405 0.753828
0.763355 0.253595 0.736132
0.899749 0.255974 0.726958
1.000000 0.258352 0.717784
0.006417 0.402271 0.790104
0.126189 0.395211 0.779722
0.248453 0.388151 0.769340
0.375945 0.382475 0.754549
0.510023 0.379260 0.736469
0.644341 0.382148 0.727295
0.780698 0.385036 0.718122
0.919093 0.387924 0.708948
1.000000 0.390812 0.699774
0.003156 0.512622 0.769722
0.127012 0.507477 0.755271
0.256841 0.504886 0.736807
0.389083 0.508284 0.727633
0.523364 0.511682 0.718459
0.659683 0.515080 0.709285
0.798041 0.518477 0.700111
0.938437 0.521875 0.690937
1.000000 0.525273 0.681764
0.003809 0.630476 0.737144
0.133975 0.634383 0.727970
0.266180 0.638290 0.718797
0.400423 0.642198 0.709623
0.536705 0.646105 0.700449
0.675025 0.650013 0.691275
0.815384 0.653920 0.682101
0.957782 0.657827 0.672927
1.000000 0.661735 0.663753
0.009145 0.764861 0.719134
0.141313 0.769278 0.709960
0.275518 0.773695 0.700786
0.411763 0.778112 0.691612
0.550045 0.782530 0.682439
0.690367 0.786947 0.673265
0.832727 0.791364 0.664091
0.977126 0.795781 0.654917
1.000000 0.800198 0.645743
0.014482 0.901248 0.701124
0.148650 0.906175 0.691950
0.284857 0.911102 0.682776
0.423102 0.916028 0.673602
0.563386 0.920955 0.664428
0.705709 0.925882 0.655255
0.850070 0.930809 0.646081
0.996470 0.935735 0.636907
1.000000 0.940662 0.627733
0.019818 1.000000 0.683114
0.155988 1.000000 0.673940
0.294195 1.000000 0.664766
0.434442 1.000000 0.655592
0.576727 1.000000 0.646418
0.721051 1.000000 0.637244
0.867414 1.000000 0.628070
1.000000 1.000000 0.618897
1.000000 1.000000 0.615000
0.015567 0.077833 0.970346
0.128476 0.069528 0.960172
0.243878 0.061222 0.949997
0.361771 0.052917 0.939823
0.482156 0.044611 0.929649
0.605032 0.036306 0.919474
0.730400 0.028000 0.909300
0.858260 0.019694 0.899126
0.988611 0.011389 0.888951
0.012306 0.183451 0.950372
0.127661 0.175561 0.940197
0.245508 0.167671 0.930023
0.365847 0.159781 0.919849
0.488678 0.151890 0.909674
0.614000 0.144000 0.899500
0.741814 0.136110 0.889326
0.881259 0.129969 0.869153
1.000000 0.128606 0.854346
0.009044 0.290700 0.930397
0.126846 0.283225 0.920223
0.247139 0.275750 0.910049
0.369924 0.268275 0.899874
0.495200 0.260800 0.889700
0.629932 0.255461 0.869919
0.766723 0.254502 0.854740
0.903506 0.256881 0.844037
1.000000 0.259259 0.833334
0.005783 0.399579 0.910423
0.126031 0.392519 0.900249
0.248769 0.385460 0.890074
0.378938 0.380885 0.870685
0.512614 0.380361 0.855134
0.647320 0.383249 0.844431
0.784066 0.386137 0.833728
0.922850 0.389025 0.823025
1.000000 0.391913 0.812322
0.002522 0.510089 0.890449
0.128279 0.506240 0.871452
0.258655 0.506182 0.855527
0.391285 0.509580 0.844824
0.525955 0.512977 0.834122
0.662663 0.516375 0.823419
0.801409 0.519773 0.812716
0.942194 0.523170 0.802013
1.000000 0.526568 0.791310
0.004845 0.631965 0.855921
0.135400 0.635873 0.845218
0.267993 0.639780 0.834515
0.402625 0.643687 0.823812
0.539295 0.647595 0.813110
0.678005 0.651502 0.802407
0.818752 0.655410 0.791704
0.961539 0.659317 0.781001
1.000000 0.663224 0.770298
0.010182 0.766545 0.834909
0.142738 0.770962 0.824206
0.277332 0.775380 0.813503
0.413965 0.779797 0.802801
0.552636 0.784214 0.792098
0.693347 0.788631 0.781395
0.836095 0.793048 0.770692
0.980883 0.797465 0.759989
1.000000 0.801882 0.749286
0.015518 0.903127 0.813897
0.150075 0.908053 0.803194
0.286670 0.912980 0.792491
0.425305 0.917907 0.781789
0.565977 0.922834 0.771086
0.708689 0.927760 0.760383
0.853439 0.932687 0.749680
1.000000 0.937614 0.738977
1.000000 0.942540 0.728274
0.020855 1.000000 0.792885
0.157413 1.000000 0.782182
0.296009 1.000000 0.771480
0.436644 1.000000 0.760777
0.579318 1.000000 0.750074
0.724031 1.000000 0.739371
0.870782 1.000000 0.728668
1.000000 1.000000 0.717965
1.000000 1.000000 0.717500
0.014933 0.074667 1.000000
0.128318 0.066361 1.000000
0.244194 0.058056 1.000000
0.362563 0.049750 1.000000
0.483422 0.041444 1.000000
0.606774 0.033139 1.000000
0.732617 0.024833 1.000000
0.860951 0.016528 1.000000
0.995536 0.008707 1.000000
0.011672 0.180443 1.000000
0.127503 0.172553 1.000000
0.245825 0.164662 1.000000
0.366639 0.156772 1.000000
0.489944 0.148882 1.000000
0.615742 0.140992 1.000000
0.746763 0.133693 1.000000
0.887727 0.127662 0.984226
1.000000 0.129319 0.971732
0.008411 0.287850 1.000000
0.126688 0.280375 1.000000
0.247456 0.272900 1.000000
0.370715 0.265425 1.000000
0.498322 0.258611 1.000000
0.634665 0.253508 0.985037
0.770091 0.255409 0.972182
0.907262 0.257788 0.959950
1.000000 0.260166 0.947718
0.005150 0.396888 1.000000
0.125872 0.389828 1.000000
0.250214 0.383461 1.000000
0.381937 0.379286 0.985849
0.515205 0.381462 0.972632
0.650300 0.384350 0.960400
0.787434 0.387238 0.948168
0.926607 0.390126 0.935936
1.000000 0.393014 0.923705
0.002437 0.508244 1.000000
0.129545 0.504995 0.986660
0.260468 0.507477 0.973082
0.393487 0.510875 0.960850
0.528545 0.514273 0.948618
0.665642 0.517670 0.936386
0.804777 0.521068 0.924155
0.945951 0.524466 0.911923
1.000000 0.527864 0.899691
0.005882 0.633455 0.973532
0.136825 0.637363 0.961300
0.269807 0.641270 0.949068
0.404827 0.645177 0.936836
0.541886 0.649085 0.924605
0.680984 0.652992 0.912373
0.822120 0.656899 0.900141
0.965295 0.660807 0.887909
1.000000 0.664714 0.875677
0.011218 0.768230 0.949518
0.144162 0.772647 0.937286
0.279145 0.777064 0.925055
0.416167 0.781481 0.912823
0.555227 0.785898 0.900591
0.696326 0.790315 0.888359
0.839464 0.794732 0.876127
0.984640 0.799149 0.863895
1.000000 0.803566 0.851664
0.016555 0.905005 0.925505
0.151500 0.909932 0.913273
0.288484 0.914859 0.901041
0.427507 0.919785 0.888809
0.568568 0.924712 0.876577
0.711668 0.929639 0.864345
0.856807 0.934565 0.852114
1.000000 0.939492 0.839882
1.000000 0.944419 0.827650
0.021891 1.000000 0.901491
0.158838 1.000000 0.889259
0.297823 1.000000 0.877027
0.438847 1.000000 0.864795
0.581909 1.000000 0.852564
0.727010 1.000000 0.840332
0.874150 1.000000 0.828100
1.000000 1.000000 0.820000
1.000000 1.000000 0.820000
