app/assets/luts/04_teal_orange.cube
TITLE "Pocket Teal Orange"
# 经典青橙分离，旅行/风光。
# Pocket Live Capture built-in preset (free to use)
# POCKET_CUBE_ORDER=rgb_fastest
LUT_3D_SIZE 17
0.020000 0.100000 0.140000
0.074481 0.095847 0.134186
0.129585 0.091694 0.128372
0.185311 0.087542 0.122558
0.241661 0.083389 0.116744
0.298634 0.079236 0.110931
0.356229 0.075083 0.105117
0.414448 0.070931 0.099303
0.473289 0.066778 0.093489
0.532753 0.062625 0.087675
0.592840 0.058472 0.081861
0.653550 0.054319 0.076047
0.714883 0.050167 0.070233
0.776839 0.046014 0.064419
0.839418 0.041861 0.058606
0.902620 0.037708 0.052792
0.966444 0.033556 0.046978
0.018369 0.152051 0.128586
0.073462 0.148002 0.122772
0.129177 0.143953 0.116958
0.185515 0.139904 0.111144
0.242476 0.135855 0.105331
0.300060 0.131806 0.099517
0.358267 0.127757 0.093703
0.417097 0.123708 0.087889
0.476550 0.119659 0.082075
0.536626 0.115610 0.076261
0.597324 0.111561 0.070447
0.658646 0.107513 0.064633
0.720590 0.103464 0.058819
0.783158 0.099415 0.053006
0.846348 0.095366 0.047192
0.910161 0.091317 0.041378
0.974597 0.087268 0.035564
0.016739 0.204510 0.117172
0.072443 0.200565 0.111358
0.128769 0.196619 0.105544
0.185719 0.192674 0.099731
0.243292 0.188729 0.093917
0.301487 0.184784 0.088103
0.360306 0.180839 0.082289
0.419747 0.176894 0.076475
0.479811 0.172949 0.070661
0.540498 0.169003 0.064847
0.601808 0.165058 0.059033
0.663741 0.161113 0.053219
0.726297 0.157168 0.047406
0.789476 0.153223 0.041592
0.853278 0.149278 0.035778
0.917702 0.145333 0.029964
0.982750 0.141387 0.024150
0.015108 0.257376 0.105758
0.071424 0.253535 0.099944
0.128362 0.249693 0.094131
0.185923 0.245852 0.088317
0.244107 0.242011 0.082503
0.302914 0.238169 0.076689
0.362344 0.234328 0.070875
0.422397 0.230487 0.065061
0.483072 0.226645 0.059247
0.544371 0.222804 0.053433
0.606292 0.218963 0.047619
0.668837 0.215122 0.041806
0.732004 0.211280 0.035992
0.795794 0.207439 0.030178
0.860208 0.203598 0.024364
0.925244 0.199756 0.018550
0.993521 0.196438 0.012698
0.013478 0.310650 0.094344
0.070405 0.306913 0.088531
0.127954 0.303175 0.082717
0.186127 0.299438 0.076903
0.244922 0.295700 0.071089
0.304341 0.291963 0.065275
0.364382 0.288225 0.059461
0.425046 0.284488 0.053647
0.486333 0.280750 0.047833
0.548243 0.277012 0.042019
0.610776 0.273275 0.036206
0.673932 0.269537 0.030392
0.737711 0.265800 0.024578
0.802113 0.262062 0.018764
0.869331 0.258866 0.012915
0.940261 0.256323 0.007073
1.000000 0.253766 0.001302
0.011847 0.364332 0.082931
0.069385 0.360698 0.077117
0.127547 0.357064 0.071303
0.186331 0.353431 0.065489
0.245737 0.349797 0.059675
0.305767 0.346163 0.053861
0.366420 0.342530 0.048047
0.427696 0.338896 0.042233
0.489594 0.335262 0.036419
0.552116 0.331628 0.030606
0.615260 0.327995 0.024792
0.679028 0.324361 0.018978
0.745224 0.321276 0.013131
0.815002 0.318965 0.007287
0.885938 0.316640 0.001513
0.955176 0.316991 0.000000
1.000000 0.318308 0.000000
0.010217 0.418421 0.071517
0.068366 0.414891 0.065703
0.127139 0.411361 0.059889
0.186534 0.407831 0.054075
0.246553 0.404301 0.048261
0.307194 0.400772 0.042447
0.368458 0.397242 0.036633
0.430345 0.393712 0.030819
0.492856 0.390182 0.025006
0.555989 0.386652 0.019192
0.621200 0.383669 0.013347
0.689826 0.381590 0.007500
0.759605 0.379497 0.001725
0.828266 0.379873 0.000000
0.896552 0.381317 0.000000
0.965349 0.382761 0.000000
1.000000 0.384205 0.000000
0.008586 0.472918 0.060103
0.067347 0.469492 0.054289
0.126731 0.466066 0.048475
0.186738 0.462640 0.042661
0.247368 0.459214 0.036847
0.308621 0.455788 0.031033
0.370497 0.452361 0.025219
0.432995 0.448935 0.019406
0.497259 0.446046 0.013564
0.564733 0.444198 0.007714
0.633356 0.442337 0.001936
0.701393 0.442745 0.000000
0.769160 0.444317 0.000000
0.837438 0.445888 0.000000
0.906224 0.447460 0.000000
0.975521 0.449031 0.000000
1.000000 0.450602 0.000000
0.006956 0.527822 0.048689
0.066328 0.524500 0.042875
0.126324 0.521178 0.037061
0.186942 0.517856 0.031247
0.248183 0.514533 0.025433
0.310048 0.511211 0.019619
0.373401 0.508405 0.013780
0.439724 0.506789 0.007928
0.507190 0.505159 0.002147
0.574557 0.505608 0.000000
0.641806 0.507307 0.000000
0.709564 0.509006 0.000000
0.777832 0.510705 0.000000
0.846609 0.512403 0.000000
0.915897 0.514102 0.000000
0.985693 0.515801 0.000000
1.000000 0.517500 0.000000
0.005325 0.583134 0.037275
0.065309 0.579916 0.031461
0.125916 0.576698 0.025647
0.187146 0.573479 0.019833
0.249626 0.570747 0.013997
0.314798 0.569363 0.008142
0.381108 0.567965 0.002359
0.447759 0.568461 0.000000
0.514489 0.570288 0.000000
0.581728 0.572114 0.000000
0.649477 0.573940 0.000000
0.717735 0.575766 0.000000
0.786503 0.577593 0.000000
0.855781 0.579419 0.000000
0.925569 0.581245 0.000000
0.995866 0.583072 0.000000
1.000000 0.584898 0.000000
0.003694 0.638854 0.025861
0.064290 0.635740 0.020047
0.125934 0.633073 0.014214
0.189955 0.631920 0.008356
0.255110 0.630754 0.002570
0.320999 0.631305 0.000000
0.387209 0.633259 0.000000
0.453929 0.635213 0.000000
0.521159 0.637166 0.000000
0.588899 0.639120 0.000000
0.657148 0.641074 0.000000
0.725907 0.643028 0.000000
0.795175 0.644981 0.000000
0.864953 0.646935 0.000000
0.935241 0.648889 0.000000
1.000000 0.650842 0.000000
1.000000 0.652796 0.000000
0.002325 0.695381 0.014430
0.065196 0.694460 0.008570
0.129195 0.693526 0.002782
0.194276 0.694140 0.000000
0.259967 0.696221 0.000000
0.326168 0.698302 0.000000
0.392879 0.700383 0.000000
0.460099 0.702464 0.000000
0.527830 0.704546 0.000000
0.596069 0.706627 0.000000
0.664819 0.708708 0.000000
0.734078 0.710789 0.000000
0.803847 0.712870 0.000000
0.874125 0.714951 0.000000
0.944913 0.717032 0.000000
1.000000 0.719113 0.000000
1.000000 0.721194 0.000000
0.003364 0.756280 0.002993
0.067590 0.756965 0.000000
0.132763 0.759174 0.000000
0.198445 0.761382 0.000000
0.264636 0.763591 0.000000
0.331338 0.765799 0.000000
0.398549 0.768008 0.000000
0.466270 0.770216 0.000000
0.534500 0.772425 0.000000
0.603240 0.774634 0.000000
0.672490 0.776842 0.000000
0.742249 0.779051 0.000000
0.812518 0.781259 0.000000
0.883297 0.783468 0.000000
0.954585 0.785676 0.000000
1.000000 0.787885 0.000000
1.000000 0.790093 0.000000
0.005595 0.822117 0.000000
0.070759 0.824453 0.000000
0.136431 0.826789 0.000000
0.202614 0.829125 0.000000
0.269306 0.831461 0.000000
0.336507 0.833797 0.000000
0.404219 0.836133 0.000000
0.472440 0.838469 0.000000
0.541170 0.840805 0.000000
0.610411 0.843141 0.000000
0.680161 0.845477 0.000000
0.750420 0.847813 0.000000
0.821190 0.850148 0.000000
0.892469 0.852484 0.000000
0.964257 0.854820 0.000000
1.000000 0.857156 0.000000
1.000000 0.859492 0.000000
0.008264 0.889978 0.000000
0.073927 0.892441 0.000000
0.140100 0.894905 0.000000
0.206783 0.897368 0.000000
0.273975 0.899831 0.000000
0.341677 0.902295 0.000000
0.409889 0.904758 0.000000
0.478610 0.907221 0.000000
0.547841 0.909685 0.000000
0.617582 0.912148 0.000000
0.687832 0.914611 0.000000
0.758592 0.917075 0.000000
0.829861 0.919538 0.000000
0.901641 0.922001 0.000000
0.973930 0.924465 0.000000
1.000000 0.926928 0.000000
1.000000 0.929391 0.000000
0.010932 0.958339 0.000000
0.077095 0.960930 0.000000
0.143769 0.963520 0.000000
0.210952 0.966111 0.000000
0.278644 0.968702 0.000000
0.346847 0.971293 0.000000
0.415559 0.973883 0.000000
0.484780 0.976474 0.000000
0.554511 0.979065 0.000000
0.624752 0.981656 0.000000
0.695503 0.984246 0.000000
0.766763 0.986837 0.000000
0.838533 0.989428 0.000000
0.910813 0.992019 0.000000
0.983602 0.994610 0.000000
1.000000 0.997200 0.000000
1.000000 0.999791 0.000000
0.013600 1.000000 0.000000
0.080264 1.000000 0.000000
0.147437 1.000000 0.000000
0.215121 1.000000 0.000000
0.283314 1.000000 0.000000
0.352016 1.000000 0.000000
0.421228 1.000000 0.000000
0.490950 1.000000 0.000000
0.561182 1.000000 0.000000
0.631923 1.000000 0.000000
0.703174 1.000000 0.000000
0.774934 1.000000 0.000000
0.847205 1.000000 0.000000
0.919984 1.000000 0.000000
0.993274 1.000000 0.000000
1.000000 1.000000 0.000000
1.000000 1.000000 0.000000
0.019683 0.098417 0.199053
0.074283 0.094264 0.193291
0.129506 0.090111 0.187529
0.185351 0.085958 0.181767
0.241819 0.081806 0.176005
0.298911 0.077653 0.170243
0.356625 0.073500 0.164481
0.414962 0.069347 0.158719
0.473922 0.065194 0.152957
0.533505 0.061042 0.147195
0.593711 0.056889 0.141433
0.654540 0.052736 0.135671
0.715992 0.048583 0.129909
0.778066 0.044431 0.124147
0.840764 0.040278 0.118385
0.904084 0.036125 0.112623
0.968028 0.031972 0.106861
0.018053 0.150507 0.187741
0.073264 0.146458 0.181979
0.129098 0.142409 0.176217
0.185555 0.138360 0.170455
0.242635 0.134311 0.164693
0.300338 0.130263 0.158931
0.358663 0.126214 0.153169
0.417612 0.122165 0.147407
0.477183 0.118116 0.141645
0.537378 0.114067 0.135883
0.598195 0.110018 0.130121
0.659635 0.105969 0.124359
0.721699 0.101920 0.118597
0.784385 0.097871 0.112835
0.847694 0.093822 0.107073
0.911626 0.089773 0.101311
0.976181 0.085724 0.095549
0.016422 0.203006 0.176429
0.072245 0.199060 0.170667
0.128690 0.195115 0.164905
0.185759 0.191170 0.159143
0.243450 0.187225 0.153381
0.301764 0.183280 0.147619
0.360701 0.179335 0.141857
0.420261 0.175390 0.136095
0.480444 0.171444 0.130333
0.541250 0.167499 0.124571
0.602679 0.163554 0.118809
0.664731 0.159609 0.113047
0.727406 0.155664 0.107285
0.790703 0.151719 0.101523
0.854624 0.147774 0.095761
0.919167 0.143828 0.089999
0.984333 0.139883 0.084238
0.014792 0.255911 0.165117
0.071226 0.252070 0.159355
0.128283 0.248229 0.153593
0.185963 0.244388 0.147831
0.244265 0.240546 0.142069
0.303191 0.236705 0.136307
0.362740 0.232864 0.130545
0.422911 0.229022 0.124783
0.483706 0.225181 0.119021
0.545123 0.221340 0.113259
0.607163 0.217498 0.107497
0.669826 0.213657 0.101735
0.733112 0.209816 0.095973
0.797022 0.205974 0.090211
0.861553 0.202133 0.084449
0.926708 0.198292 0.078688
0.997169 0.195382 0.072539
0.013161 0.309225 0.153805
0.070207 0.305488 0.148043
0.127875 0.301750 0.142281
0.186166 0.298013 0.136519
0.245081 0.294275 0.130757
0.304618 0.290538 0.124995
0.364778 0.286800 0.119233
0.425561 0.283062 0.113471
0.486967 0.279325 0.107709
0.548995 0.275587 0.101947
0.611647 0.271850 0.096185
0.674922 0.268113 0.090423
0.738819 0.264375 0.084661
0.803340 0.260638 0.078899
0.872548 0.257898 0.072766
0.943705 0.255350 0.066622
1.000000 0.253365 0.061418
0.011531 0.362946 0.142493
0.069187 0.359313 0.136731
0.127467 0.355679 0.130969
0.186370 0.352045 0.125207
0.245896 0.348411 0.119445
0.306044 0.344778 0.113683
0.366816 0.341144 0.107921
0.428210 0.337510 0.102159
0.490228 0.333877 0.096397
0.552868 0.330243 0.090635
0.616131 0.326609 0.084873
0.680017 0.322976 0.079111
0.748010 0.320397 0.072994
0.818013 0.318080 0.066846
0.888759 0.316177 0.061433
0.957152 0.317493 0.061050
1.000000 0.318810 0.060668
0.009900 0.417075 0.131181
0.068168 0.413545 0.125419
0.127060 0.410015 0.119657
0.186574 0.406485 0.113895
0.246711 0.402956 0.108133
0.307471 0.399426 0.102371
0.368854 0.395896 0.096609
0.430860 0.392366 0.090847
0.493489 0.388836 0.085085
0.556741 0.385306 0.079323
0.623555 0.382878 0.073221
0.692404 0.380794 0.067071
0.762173 0.378980 0.061447
0.830047 0.380424 0.061064
0.898431 0.381868 0.060682
0.967324 0.383312 0.060300
1.000000 0.384756 0.059918
0.008269 0.471611 0.119869
0.067149 0.468185 0.114107
0.126652 0.464759 0.108345
0.186778 0.461333 0.102583
0.247526 0.457907 0.096821
0.308898 0.454481 0.091059
0.370892 0.451055 0.085297
0.433510 0.447629 0.079535
0.499184 0.445343 0.073449
0.566879 0.443490 0.067296
0.635624 0.441773 0.061461
0.702980 0.443344 0.061078
0.770844 0.444916 0.060696
0.839219 0.446487 0.060314
0.908103 0.448059 0.059932
0.977497 0.449630 0.059549
1.000000 0.451202 0.059167
0.006639 0.526556 0.108557
0.066130 0.523233 0.102795
0.126244 0.519911 0.097033
0.186982 0.516589 0.091271
0.248342 0.513267 0.085509
0.310325 0.509944 0.079747
0.374895 0.507791 0.073677
0.441437 0.506169 0.067522
0.509114 0.504557 0.061475
0.575950 0.506256 0.061092
0.643295 0.507955 0.060710
0.711151 0.509653 0.060328
0.779516 0.511352 0.059946
0.848391 0.513051 0.059563
0.917775 0.514750 0.059181
0.987669 0.516449 0.058799
1.000000 0.518148 0.058417
0.005008 0.581907 0.097245
0.065111 0.578689 0.091483
0.125837 0.575470 0.085721
0.187185 0.572252 0.079959
0.250690 0.570221 0.073904
0.316079 0.568832 0.067747
0.382609 0.567429 0.061659
0.448957 0.569158 0.061107
0.515784 0.570984 0.060724
0.583120 0.572810 0.060342
0.650966 0.574637 0.059960
0.719322 0.576463 0.059578
0.788188 0.578289 0.059195
0.857563 0.580115 0.058813
0.927447 0.581942 0.058431
0.997841 0.583768 0.058049
1.000000 0.585594 0.057666
0.003378 0.637667 0.085933
0.064092 0.634552 0.080171
0.126568 0.632635 0.074132
0.190805 0.631477 0.067972
0.256176 0.630306 0.061882
0.322003 0.632050 0.061121
0.388310 0.634004 0.060738
0.455128 0.635958 0.060356
0.522455 0.637911 0.059974
0.590291 0.639865 0.059592
0.658637 0.641819 0.059209
0.727493 0.643772 0.058827
0.796859 0.645726 0.058445
0.866734 0.647680 0.058063
0.937119 0.649634 0.057680
1.000000 0.651587 0.057298
1.000000 0.653541 0.056916
0.002529 0.695031 0.074360
0.065614 0.694105 0.068197
0.129828 0.693166 0.062105
0.195085 0.694934 0.061135
0.260874 0.697015 0.060752
0.327172 0.699096 0.060370
0.393980 0.701177 0.059988
0.461298 0.703258 0.059606
0.529125 0.705339 0.059223
0.597462 0.707420 0.058841
0.666309 0.709501 0.058459
0.735665 0.711582 0.058077
0.805531 0.713663 0.057694
0.875906 0.715745 0.057312
0.946791 0.717826 0.056930
1.000000 0.719907 0.056548
1.000000 0.721988 0.056165
0.003563 0.756009 0.062328
0.068205 0.757807 0.061149
0.133475 0.760016 0.060766
0.199254 0.762224 0.060384
0.265543 0.764433 0.060002
0.332342 0.766641 0.059620
0.399650 0.768850 0.059237
0.467468 0.771059 0.058855
0.535795 0.773267 0.058473
0.604633 0.775476 0.058091
0.673980 0.777684 0.057709
0.743836 0.779893 0.057326
0.814202 0.782101 0.056944
0.885078 0.784310 0.056562
0.956464 0.786518 0.056180
1.000000 0.788727 0.055797
1.000000 0.790935 0.055415
0.006114 0.823008 0.060781
0.071374 0.825344 0.060398
0.137144 0.827680 0.060016
0.203423 0.830016 0.059634
0.270212 0.832352 0.059252
0.337511 0.834688 0.058869
0.405320 0.837023 0.058487
0.473638 0.839359 0.058105
0.542466 0.841695 0.057723
0.611803 0.844031 0.057340
0.681651 0.846367 0.056958
0.752007 0.848703 0.056576
0.822874 0.851039 0.056194
0.894250 0.853375 0.055811
0.966136 0.855711 0.055429
1.000000 0.858047 0.055047
1.000000 0.860383 0.054665
0.008782 0.890917 0.060030
0.074542 0.893380 0.059648
0.140813 0.895844 0.059266
0.207592 0.898307 0.058883
0.274882 0.900770 0.058501
0.342681 0.903234 0.058119
0.410990 0.905697 0.057737
0.479808 0.908161 0.057354
0.549136 0.910624 0.056972
0.618974 0.913087 0.056590
0.689322 0.915551 0.056208
0.760179 0.918014 0.055825
0.831545 0.920477 0.055443
0.903422 0.922941 0.055061
0.975808 0.925404 0.054679
1.000000 0.927867 0.054296
1.000000 0.930331 0.053914
0.011450 0.959327 0.059280
0.077711 0.961917 0.058897
0.144481 0.964508 0.058515
0.211761 0.967099 0.058133
0.279551 0.969690 0.057751
0.347851 0.972280 0.057368
0.416660 0.974871 0.056986
0.485978 0.977462 0.056604
0.555807 0.980053 0.056222
0.626145 0.982643 0.055839
0.696993 0.985234 0.055457
0.768350 0.987825 0.055075
0.840217 0.990416 0.054693
0.912594 0.993007 0.054311
0.985480 0.995597 0.053928
1.000000 0.998188 0.053546
1.000000 1.000000 0.053164
0.014118 1.000000 0.058529
0.080879 1.000000 0.058147
0.148150 1.000000 0.057765
0.215930 1.000000 0.057383
0.284220 1.000000 0.057000
0.353020 1.000000 0.056618
0.422330 1.000000 0.056236
0.492149 1.000000 0.055854
0.562477 1.000000 0.055471
0.633316 1.000000 0.055089
0.704664 1.000000 0.054707
0.776521 1.000000 0.054325
0.848889 1.000000 0.053942
0.921766 1.000000 0.053560
0.995152 1.000000 0.053178
1.000000 1.000000 0.052796
1.000000 1.000000 0.052413
0.019367 0.096833 0.258146
0.074085 0.092681 0.252436
0.129426 0.088528 0.246726
0.185391 0.084375 0.241016
0.241978 0.080222 0.235306
0.299188 0.076069 0.229595
0.357021 0.071917 0.223885
0.415477 0.067764 0.218175
0.474556 0.063611 0.212465
0.534257 0.059458 0.206755
0.594582 0.055306 0.201045
0.655530 0.051153 0.195335
0.717100 0.047000 0.189625
0.779293 0.042847 0.183915
0.842110 0.038694 0.178205
0.905549 0.034542 0.172495
0.969611 0.030389 0.166785
0.017736 0.148964 0.246936
0.073066 0.144915 0.241226
0.129019 0.140866 0.235516
0.185594 0.136817 0.229806
0.242793 0.132768 0.224095
0.300615 0.128719 0.218385
0.359059 0.124670 0.212675
0.418126 0.120621 0.206965
0.477817 0.116572 0.201255
0.538130 0.112523 0.195545
0.599066 0.108474 0.189835
0.660625 0.104425 0.184125
0.722807 0.100376 0.178415
0.785612 0.096327 0.172705
0.849040 0.092278 0.166995
0.913090 0.088229 0.161285
0.977764 0.084180 0.155575
0.016106 0.201501 0.235726
0.072047 0.197556 0.230016
0.128611 0.193611 0.224306
0.185798 0.189666 0.218595
0.243608 0.185721 0.212885
0.302041 0.181776 0.207175
0.361097 0.177831 0.201465
0.420776 0.173885 0.195755
0.481078 0.169940 0.190045
0.542002 0.165995 0.184335
0.603550 0.162050 0.178625
0.665720 0.158105 0.172915
0.728514 0.154160 0.167205
0.791930 0.150215 0.161495
0.855969 0.146269 0.155785
0.920632 0.142324 0.150075
0.985917 0.138379 0.144365
0.014475 0.254447 0.224516
0.071028 0.250606 0.218806
0.128203 0.246764 0.213095
0.186002 0.242923 0.207385
0.244424 0.239082 0.201675
0.303468 0.235240 0.195965
0.363135 0.231399 0.190255
0.423426 0.227558 0.184545
0.484339 0.223716 0.178835
0.545875 0.219875 0.173125
0.608034 0.216034 0.167415
0.670816 0.212192 0.161705
0.734221 0.208351 0.155995
0.798249 0.204510 0.150285
0.862899 0.200668 0.144575
0.929446 0.197095 0.138654
1.000000 0.194324 0.132139
0.012844 0.307800 0.213306
0.070009 0.304063 0.207595
0.127796 0.300325 0.201885
0.186206 0.296588 0.196175
0.245239 0.292850 0.190465
0.304895 0.289112 0.184755
0.365174 0.285375 0.179045
0.426075 0.281637 0.173335
0.487600 0.277900 0.167625
0.549748 0.274163 0.161915
0.612518 0.270425 0.156205
0.675911 0.266688 0.150495
0.739928 0.262950 0.144785
0.805545 0.259467 0.138895
0.875768 0.256928 0.132377
0.947153 0.254374 0.125929
1.000000 0.253818 0.122545
0.011214 0.361561 0.202095
0.068990 0.357927 0.196385
0.127388 0.354293 0.190675
0.186410 0.350660 0.184965
0.246054 0.347026 0.179255
0.306322 0.343392 0.173545
0.367212 0.339759 0.167835
0.428725 0.336125 0.162125
0.490861 0.332491 0.156415
0.553620 0.328858 0.150705
0.617002 0.325224 0.144995
0.681726 0.321822 0.139137
0.750799 0.319515 0.132616
0.821027 0.317193 0.126165
0.890637 0.316679 0.122574
0.959127 0.317995 0.121809
1.000000 0.319312 0.121045
0.009583 0.415729 0.190885
0.067970 0.412199 0.185175
0.126981 0.408669 0.179465
0.186614 0.405140 0.173755
0.246869 0.401610 0.168045
0.307748 0.398080 0.162335
0.369250 0.394550 0.156625
0.431375 0.391020 0.150915
0.494122 0.387490 0.145205
0.557991 0.384161 0.139378
0.625913 0.382085 0.132854
0.694985 0.379995 0.126401
0.763857 0.379530 0.122602
0.831828 0.380974 0.121837
0.900309 0.382418 0.121073
0.969300 0.383862 0.120308
1.000000 0.385306 0.119544
0.007953 0.470305 0.179675
0.066951 0.466879 0.173965
0.126573 0.463453 0.168255
0.186817 0.460027 0.162545
0.247685 0.456601 0.156835
0.309175 0.453175 0.151125
0.371288 0.449749 0.145415
0.434338 0.446482 0.139619
0.501110 0.444638 0.133093
0.569027 0.442780 0.126637
0.637114 0.442372 0.122630
0.704566 0.443943 0.121865
0.772528 0.445515 0.121101
0.841000 0.447086 0.120336
0.909981 0.448658 0.119572
0.979472 0.450229 0.118807
1.000000 0.451801 0.118043
0.006322 0.525289 0.168465
0.065932 0.521967 0.162755
0.126165 0.518644 0.157045
0.187021 0.515322 0.151335
0.248500 0.512000 0.145625
0.310769 0.508787 0.139861
0.376391 0.507174 0.133332
0.443153 0.505548 0.126873
0.510409 0.505205 0.122658
0.577342 0.506903 0.121893
0.644785 0.508602 0.121129
0.712738 0.510301 0.120364
0.781200 0.512000 0.119600
0.850172 0.513699 0.118836
0.919653 0.515398 0.118071
0.989645 0.517097 0.117307
1.000000 0.518795 0.116542
0.004692 0.580680 0.157255
0.064913 0.577462 0.151545
0.125758 0.574243 0.145835
0.187282 0.571074 0.140102
0.251754 0.569693 0.133571
0.317362 0.568298 0.127110
0.383741 0.568028 0.122686
0.450156 0.569854 0.121922
0.517080 0.571680 0.121157
0.584513 0.573507 0.120393
0.652456 0.575333 0.119628
0.720909 0.577159 0.118864
0.789872 0.578985 0.118099
0.859344 0.580812 0.117335
0.929326 0.582638 0.116570
0.999817 0.584464 0.115806
1.000000 0.586290 0.115041
0.003061 0.636479 0.146045
0.063894 0.633365 0.140335
0.127201 0.632195 0.133810
0.191654 0.631032 0.127346
0.257111 0.630841 0.122714
0.323007 0.632795 0.121950
0.389411 0.634749 0.121185
0.456326 0.636703 0.120421
0.523750 0.638656 0.119656
0.591684 0.640610 0.118892
0.660127 0.642564 0.118127
0.729080 0.644517 0.117363
0.798543 0.646471 0.116598
0.868516 0.648425 0.115834
0.938998 0.650378 0.115069
1.000000 0.652332 0.114305
1.000000 0.654286 0.113540
0.002732 0.694680 0.134049
0.066030 0.693748 0.127583
0.130519 0.693646 0.122742
0.195895 0.695727 0.121978
0.261781 0.697808 0.121213
0.328176 0.699889 0.120449
0.395081 0.701970 0.119684
0.462496 0.704051 0.118920
0.530420 0.706133 0.118155
0.598855 0.708214 0.117391
0.667798 0.710295 0.116626
0.737252 0.712376 0.115862
0.807215 0.714457 0.115097
0.877688 0.716538 0.114333
0.948670 0.718619 0.113568
1.000000 0.720700 0.112804
1.000000 0.722781 0.112039
0.003964 0.756441 0.122770
0.068821 0.758649 0.122006
0.134188 0.760858 0.121241
0.200064 0.763066 0.120477
0.266450 0.765275 0.119712
0.333346 0.767484 0.118948
0.400751 0.769692 0.118184
0.468666 0.771901 0.117419
0.537091 0.774109 0.116655
0.606025 0.776318 0.115890
0.675469 0.778526 0.115126
0.745423 0.780735 0.114361
0.815886 0.782943 0.113597
0.886859 0.785152 0.112832
0.958342 0.787360 0.112068
1.000000 0.789569 0.111303
1.000000 0.791777 0.110539
0.006632 0.823898 0.121270
0.071989 0.826234 0.120505
0.137856 0.828570 0.119741
0.204233 0.830906 0.118976
0.271119 0.833242 0.118212
0.338515 0.835578 0.117447
0.406421 0.837914 0.116683
0.474836 0.840250 0.115918
0.543761 0.842586 0.115154
0.613196 0.844922 0.114389
0.683140 0.847258 0.113625
0.753594 0.849594 0.112860
0.824558 0.851930 0.112096
0.896031 0.854266 0.111331
0.968014 0.856602 0.110567
1.000000 0.858938 0.109802
1.000000 0.861273 0.109038
0.009300 0.891856 0.119769
0.075158 0.894320 0.119004
0.141525 0.896783 0.118240
0.208402 0.899246 0.117475
0.275789 0.901710 0.116711
0.343685 0.904173 0.115946
0.412091 0.906636 0.115182
0.481007 0.909100 0.114417
0.550432 0.911563 0.113653
0.620367 0.914026 0.112888
0.690811 0.916490 0.112124
0.761766 0.918953 0.111359
0.833230 0.921416 0.110595
0.905203 0.923880 0.109830
0.977686 0.926343 0.109066
1.000000 0.928807 0.108301
1.000000 0.931270 0.107537
0.011968 0.960314 0.118268
0.078326 0.962905 0.117503
0.145194 0.965496 0.116739
0.212571 0.968087 0.115974
0.280458 0.970677 0.115210
0.348855 0.973268 0.114445
0.417761 0.975859 0.113681
0.487177 0.978450 0.112916
0.557102 0.981040 0.112152
0.627538 0.983631 0.111388
0.698482 0.986222 0.110623
0.769937 0.988813 0.109859
0.841901 0.991404 0.109094
0.914375 0.993994 0.108330
0.987359 0.996585 0.107565
1.000000 0.999176 0.106801
1.000000 1.000000 0.106036
0.014636 1.000000 0.116767
0.081495 1.000000 0.116003
0.148863 1.000000 0.115238
0.216740 1.000000 0.114474
0.285127 1.000000 0.113709
0.354024 1.000000 0.112945
0.423431 1.000000 0.112180
0.493347 1.000000 0.111416
0.563773 1.000000 0.110651
0.634708 1.000000 0.109887
0.706153 1.000000 0.109122
0.778108 1.000000 0.108358
0.850573 1.000000 0.107593
0.923547 1.000000 0.106829
0.997031 1.000000 0.106064
1.000000 1.000000 0.105300
1.000000 1.000000 0.104535
0.019050 0.095250 0.317278
0.073887 0.091097 0.311620
0.129347 0.086944 0.305962
0.185430 0.082792 0.300304
0.242136 0.078639 0.294645
0.299465 0.074486 0.288987
0.357417 0.070333 0.283329
0.415991 0.066181 0.277671
0.475189 0.062028 0.272013
0.535009 0.057875 0.266355
0.595453 0.053722 0.260697
0.656519 0.049569 0.255038
0.718208 0.045417 0.249380
0.780520 0.041264 0.243722
0.843456 0.037111 0.238064
0.907014 0.032958 0.232406
