app/assets/luts/05_vintage_film.cube
TITLE "Pocket Vintage Film"
# 褪色胶片感，怀旧色调。
# Pocket Live Capture built-in preset (free to use)
# POCKET_CUBE_ORDER=rgb_fastest
LUT_3D_SIZE 9
0.050000 0.040000 0.030000
0.144437 0.049419 0.040286
0.238874 0.058837 0.050571
0.333311 0.068256 0.060857
0.427748 0.077674 0.071142
0.522185 0.087093 0.081428
0.616623 0.096511 0.091714
0.711060 0.105930 0.101999
0.805497 0.115348 0.112285
0.069312 0.139491 0.050193
0.163749 0.148909 0.060478
0.258186 0.158328 0.070764
0.352624 0.167746 0.081050
0.447061 0.177165 0.091335
0.541498 0.186583 0.101621
0.635935 0.196002 0.111906
0.730372 0.205420 0.122192
0.824809 0.214839 0.132478
0.088625 0.238981 0.070386
0.183062 0.248400 0.080671
0.277499 0.257818 0.090957
0.371936 0.267236 0.101242
0.466373 0.276655 0.111528
0.560810 0.286073 0.121814
0.655247 0.295492 0.132099
0.749684 0.304910 0.142385
0.844121 0.314329 0.152670
0.107937 0.338471 0.090578
0.202374 0.347890 0.100864
0.296811 0.357309 0.111150
0.391248 0.366727 0.121435
0.485685 0.376146 0.131721
0.580122 0.385564 0.142006
0.674560 0.394982 0.152292
0.768997 0.404401 0.162578
0.863434 0.413819 0.172863
0.127249 0.437962 0.110771
0.221686 0.447380 0.121057
0.316123 0.456799 0.131342
0.410560 0.466217 0.141628
0.504998 0.475636 0.151914
0.599435 0.485054 0.162199
0.693872 0.494473 0.172485
0.788309 0.503892 0.182770
0.882746 0.513310 0.193056
0.146562 0.537452 0.130964
0.240999 0.546871 0.141250
0.335436 0.556290 0.151535
0.429873 0.565708 0.161821
0.524310 0.575126 0.172106
0.618747 0.584545 0.182392
0.713184 0.593963 0.192678
0.807621 0.603382 0.202963
0.902058 0.612801 0.213249
0.165874 0.636943 0.151157
0.260311 0.646362 0.161442
0.354748 0.655780 0.171728
0.449185 0.665199 0.182014
0.543622 0.674617 0.192299
0.638059 0.684036 0.202585
0.732496 0.693454 0.212870
0.826933 0.702873 0.223156
0.921371 0.712291 0.233442
0.185186 0.736433 0.171350
0.279623 0.745852 0.181635
0.374060 0.755271 0.191921
0.468497 0.764689 0.202206
0.562935 0.774107 0.212492
0.657372 0.783526 0.222778
0.751809 0.792945 0.233063
0.846246 0.802363 0.243349
0.940683 0.811782 0.253634
0.204498 0.835924 0.191542
0.298936 0.845342 0.201828
0.393373 0.854761 0.212114
0.487810 0.864179 0.222399
0.582247 0.873598 0.232685
0.676684 0.883017 0.242970
0.771121 0.892435 0.253256
0.865558 0.901854 0.263542
0.959995 0.911272 0.273827
0.053751 0.043591 0.107022
0.148188 0.053010 0.117307
0.242625 0.062428 0.127593
0.337062 0.071847 0.137878
0.431499 0.081265 0.148164
0.525936 0.090684 0.158450
0.620373 0.100102 0.168735
0.714810 0.109521 0.179021
0.809247 0.118939 0.189306
0.073063 0.143082 0.127214
0.167500 0.152500 0.137500
0.261937 0.161918 0.147786
0.356374 0.171337 0.158071
0.450811 0.180756 0.168357
0.545248 0.190174 0.178642
0.639685 0.199593 0.188928
0.734123 0.209011 0.199214
0.828560 0.218430 0.209499
0.092375 0.242572 0.147407
0.186812 0.251991 0.157693
0.281249 0.261409 0.167978
0.375686 0.270827 0.178264
0.470124 0.280246 0.188550
0.564561 0.289664 0.198835
0.658998 0.299083 0.209121
0.753435 0.308501 0.219406
0.847872 0.317920 0.229692
0.111688 0.342062 0.167600
0.206125 0.351481 0.177886
0.300562 0.360899 0.188171
0.394999 0.370318 0.198457
0.489436 0.379736 0.208742
0.583873 0.389155 0.219028
0.678310 0.398573 0.229314
0.772747 0.407992 0.239599
0.867184 0.417410 0.249885
0.131000 0.441553 0.187793
0.225437 0.450972 0.198078
0.319874 0.460390 0.208364
0.414311 0.469809 0.218650
0.508748 0.479227 0.228935
0.603185 0.488646 0.239221
0.697622 0.498064 0.249506
0.792060 0.507483 0.259792
0.886497 0.516901 0.270078
0.150312 0.541044 0.207986
0.244749 0.550462 0.218271
0.339186 0.559881 0.228557
0.433623 0.569299 0.238842
0.528061 0.578717 0.249128
0.622498 0.588136 0.259414
0.716935 0.597554 0.269699
0.811372 0.606973 0.279985
0.905809 0.616391 0.290270
0.169624 0.640534 0.228178
0.264062 0.649952 0.238464
0.358499 0.659371 0.248750
0.452936 0.668790 0.259035
0.547373 0.678208 0.269321
0.641810 0.687627 0.279606
0.736247 0.697045 0.289892
0.830684 0.706464 0.300178
0.925121 0.715882 0.310463
0.188937 0.740024 0.248371
0.283374 0.749443 0.258657
0.377811 0.758862 0.268942
0.472248 0.768280 0.279228
0.566685 0.777699 0.289514
0.661122 0.787117 0.299799
0.755559 0.796536 0.310085
0.849996 0.805954 0.320370
0.944433 0.815373 0.330656
0.208249 0.839515 0.268564
0.302686 0.848934 0.278850
0.397123 0.858352 0.289135
0.491560 0.867771 0.299421
0.585997 0.877189 0.309706
0.680435 0.886607 0.319992
0.774872 0.896026 0.330278
0.869309 0.905445 0.340563
0.963746 0.914863 0.350849
0.057501 0.047182 0.184043
0.151938 0.056601 0.194329
0.246375 0.066019 0.204614
0.340812 0.075438 0.214900
0.435250 0.084856 0.225186
0.529687 0.094274 0.235471
0.624124 0.103693 0.245757
0.718561 0.113112 0.256042
0.812998 0.122530 0.266328
0.076813 0.146672 0.204236
0.171251 0.156091 0.214522
0.265688 0.165510 0.224807
0.360125 0.174928 0.235093
0.454562 0.184347 0.245378
0.548999 0.193765 0.255664
0.643436 0.203184 0.265950
0.737873 0.212602 0.276235
0.832310 0.222021 0.286521
0.096126 0.246163 0.224429
0.190563 0.255582 0.234714
0.285000 0.265000 0.245000
0.379437 0.274419 0.255286
0.473874 0.283837 0.265571
0.568311 0.293256 0.275857
0.662748 0.302674 0.286142
0.757185 0.312092 0.296428
0.851623 0.321511 0.306714
0.115438 0.345654 0.244622
0.209875 0.355072 0.254907
0.304312 0.364490 0.265193
0.398749 0.373909 0.275478
0.493186 0.383327 0.285764
0.587624 0.392746 0.296050
0.682061 0.402164 0.306335
0.776498 0.411583 0.316621
0.870935 0.421001 0.326906
0.134750 0.445144 0.264814
0.229187 0.454562 0.275100
0.323625 0.463981 0.285386
0.418062 0.473399 0.295671
0.512499 0.482818 0.305957
0.606936 0.492236 0.316242
0.701373 0.501655 0.326528
0.795810 0.511073 0.336814
0.890247 0.520492 0.347099
0.154063 0.544635 0.285007
0.248500 0.554053 0.295293
0.342937 0.563472 0.305578
0.437374 0.572890 0.315864
0.531811 0.582309 0.326150
0.626248 0.591727 0.336435
0.720685 0.601145 0.346721
0.815122 0.610564 0.357006
0.909560 0.619983 0.367292
0.173375 0.644125 0.305200
0.267812 0.653544 0.315486
0.362249 0.662962 0.325771
0.456686 0.672381 0.336057
0.551123 0.681799 0.346342
0.645560 0.691218 0.356628
0.739998 0.700636 0.366914
0.834435 0.710055 0.377199
0.928872 0.719473 0.387485
0.192687 0.743616 0.325393
0.287124 0.753034 0.335678
0.381561 0.762452 0.345964
0.475999 0.771871 0.356250
0.570436 0.781290 0.366535
0.664873 0.790708 0.376821
0.759310 0.800127 0.387106
0.853747 0.809545 0.397392
0.948184 0.818963 0.407678
0.212000 0.843106 0.345586
0.306437 0.852525 0.355871
0.400874 0.861943 0.366157
0.495311 0.871362 0.376442
0.589748 0.880780 0.386728
0.684185 0.890199 0.397014
0.778622 0.899617 0.407299
0.873059 0.909035 0.417585
0.967496 0.918454 0.427870
0.061252 0.050773 0.261065
0.155689 0.060192 0.271350
0.250126 0.069610 0.281636
0.344563 0.079029 0.291922
0.439000 0.088447 0.302207
0.533437 0.097866 0.312493
0.627874 0.107284 0.322778
0.722311 0.116703 0.333064
0.816749 0.126121 0.343350
0.080564 0.150263 0.281258
0.175001 0.159682 0.291543
0.269438 0.169101 0.301829
0.363875 0.178519 0.312114
0.458312 0.187938 0.322400
0.552750 0.197356 0.332686
0.647187 0.206775 0.342971
0.741624 0.216193 0.353257
0.836061 0.225612 0.363542
0.099876 0.249754 0.301450
0.194313 0.259172 0.311736
0.288751 0.268591 0.322022
0.383188 0.278010 0.332307
0.477625 0.287428 0.342593
0.572062 0.296847 0.352878
0.666499 0.306265 0.363164
0.760936 0.315684 0.373450
0.855373 0.325102 0.383735
0.119189 0.349244 0.321643
0.213626 0.358663 0.331929
0.308063 0.368082 0.342214
0.402500 0.377500 0.352500
0.496937 0.386918 0.362786
0.591374 0.396337 0.373071
0.685811 0.405755 0.383357
0.780248 0.415174 0.393642
0.874685 0.424592 0.403928
0.138501 0.448735 0.341836
0.232938 0.458153 0.352122
0.327375 0.467572 0.362407
0.421812 0.476990 0.372693
0.516249 0.486409 0.382978
0.610687 0.495827 0.393264
0.705124 0.505246 0.403550
0.799561 0.514665 0.413835
0.893998 0.524083 0.424121
0.157813 0.548226 0.362029
0.252250 0.557644 0.372314
0.346687 0.567063 0.382600
0.441125 0.576481 0.392886
0.535562 0.585900 0.403171
0.629999 0.595318 0.413457
0.724436 0.604737 0.423742
0.818873 0.614155 0.434028
0.913310 0.623574 0.444314
0.177126 0.647716 0.382222
0.271563 0.657135 0.392507
0.366000 0.666553 0.402793
0.460437 0.675972 0.413078
0.554874 0.685390 0.423364
0.649311 0.694809 0.433650
0.743748 0.704227 0.443935
0.838185 0.713646 0.454221
0.932622 0.723064 0.464506
0.196438 0.747206 0.402414
0.290875 0.756625 0.412700
0.385312 0.766043 0.422986
0.479749 0.775462 0.433271
0.574186 0.784880 0.443557
0.668623 0.794299 0.453842
0.763061 0.803717 0.464128
0.857498 0.813136 0.474414
0.951935 0.822555 0.484699
0.215750 0.846697 0.422607
0.310187 0.856116 0.432893
0.404624 0.865534 0.443178
0.499061 0.874953 0.453464
0.593499 0.884371 0.463750
0.687936 0.893790 0.474035
0.782373 0.903208 0.484321
0.876810 0.912627 0.494606
0.971247 0.922045 0.504892
0.065002 0.054364 0.338086
0.159440 0.063783 0.348372
0.253877 0.073201 0.358658
0.348314 0.082620 0.368943
0.442751 0.092038 0.379229
0.537188 0.101457 0.389514
0.631625 0.110875 0.399800
0.726062 0.120294 0.410086
0.820499 0.129712 0.420371
0.084315 0.153855 0.358279
0.178752 0.163273 0.368565
0.273189 0.172692 0.378850
0.367626 0.182110 0.389136
0.462063 0.191528 0.399422
0.556500 0.200947 0.409707
0.650937 0.210366 0.419993
0.745374 0.219784 0.430278
0.839812 0.229203 0.440564
0.103627 0.253345 0.378472
0.198064 0.262763 0.388758
0.292501 0.272182 0.399043
0.386938 0.281600 0.409329
0.481375 0.291019 0.419614
0.575812 0.300437 0.429900
0.670250 0.309856 0.440186
0.764687 0.319274 0.450471
0.859124 0.328693 0.460757
0.122939 0.352835 0.398665
0.217376 0.362254 0.408950
0.311814 0.371672 0.419236
0.406251 0.381091 0.429522
0.500688 0.390510 0.439807
0.595125 0.399928 0.450093
0.689562 0.409347 0.460378
0.783999 0.418765 0.470664
0.878436 0.428183 0.480950
0.142252 0.452326 0.418858
0.236689 0.461745 0.429143
0.331126 0.471163 0.439429
0.425563 0.480581 0.449714
0.520000 0.490000 0.460000
0.614437 0.499419 0.470286
0.708874 0.508837 0.480571
0.803311 0.518256 0.490857
0.897748 0.527674 0.501142
0.161564 0.551817 0.439050
0.256001 0.561235 0.449336
0.350438 0.570654 0.459622
0.444875 0.580072 0.469907
0.539312 0.589491 0.480193
0.633749 0.598909 0.490478
0.728186 0.608328 0.500764
0.822624 0.617746 0.511050
0.917061 0.627165 0.521335
0.180876 0.651307 0.459243
0.275313 0.660725 0.469529
0.369750 0.670144 0.479814
0.464188 0.679562 0.490100
0.558625 0.688981 0.500386
0.653062 0.698400 0.510671
0.747499 0.707818 0.520957
0.841936 0.717237 0.531242
0.936373 0.726655 0.541528
0.200189 0.750798 0.479436
0.294626 0.760216 0.489722
0.389063 0.769635 0.500007
0.483500 0.779053 0.510293
0.577937 0.788472 0.520578
0.672374 0.797890 0.530864
0.766811 0.807309 0.541150
0.861248 0.816727 0.551435
0.955685 0.826146 0.561721
0.219501 0.850288 0.499629
0.313938 0.859707 0.509914
0.408375 0.869125 0.520200
0.502812 0.878544 0.530486
0.597249 0.887962 0.540771
0.691686 0.897381 0.551057
0.786123 0.906799 0.561342
0.880560 0.916218 0.571628
0.974998 0.925636 0.581914
0.068753 0.057955 0.415108
0.163190 0.067374 0.425394
0.257627 0.076792 0.435679
0.352064 0.086210 0.445965
0.446501 0.095629 0.456250
0.540938 0.105048 0.466536
0.635376 0.114466 0.476822
0.729813 0.123885 0.487107
0.824250 0.133303 0.497393
0.088065 0.157446 0.435301
0.182502 0.166864 0.445586
0.276940 0.176283 0.455872
0.371377 0.185701 0.466158
0.465814 0.195120 0.476443
0.560251 0.204538 0.486729
0.654688 0.213957 0.497014
0.749125 0.223375 0.507300
0.843562 0.232794 0.517586
0.107378 0.256936 0.455494
0.201815 0.266354 0.465779
0.296252 0.275773 0.476065
0.390689 0.285191 0.486350
0.485126 0.294610 0.496636
0.579563 0.304028 0.506922
0.674000 0.313447 0.517207
0.768437 0.322865 0.527493
0.862874 0.332284 0.537778
0.126690 0.356426 0.475686
0.221127 0.365845 0.485972
0.315564 0.375263 0.496258
0.410001 0.384682 0.506543
0.504438 0.394100 0.516829
0.598875 0.403519 0.527114
0.693312 0.412937 0.537400
0.787750 0.422356 0.547686
0.882187 0.431775 0.557971
0.146002 0.455917 0.495879
0.240439 0.465335 0.506165
0.334876 0.474754 0.516450
0.429314 0.484173 0.526736
0.523751 0.493591 0.537022
0.618188 0.503009 0.547307
0.712625 0.512428 0.557593
0.807062 0.521846 0.567878
0.901499 0.531265 0.578164
0.165315 0.555408 0.516072
0.259752 0.564826 0.526358
0.354189 0.574245 0.536643
0.448626 0.583663 0.546929
0.543063 0.593082 0.557214
0.637500 0.602500 0.567500
0.731937 0.611919 0.577786
0.826374 0.621337 0.588071
0.920811 0.630756 0.598357
0.184627 0.654898 0.536265
0.279064 0.664317 0.546550
0.373501 0.673735 0.556836
0.467938 0.683154 0.567122
0.562375 0.692572 0.577407
0.656812 0.701991 0.587693
0.751249 0.711409 0.597978
0.845687 0.720828 0.608264
0.940124 0.730246 0.618550
0.203939 0.754389 0.556458
0.298376 0.763807 0.566743
0.392813 0.773226 0.577029
0.487250 0.782644 0.587314
0.581688 0.792063 0.597600
0.676125 0.801481 0.607886
0.770562 0.810900 0.618171
0.864999 0.820318 0.628457
0.959436 0.829736 0.638742
0.223251 0.853879 0.576650
0.317689 0.863298 0.586936
0.412126 0.872716 0.597222
0.506563 0.882135 0.607507
0.601000 0.891553 0.617793
0.695437 0.900972 0.628078
0.789874 0.910390 0.638364
0.884311 0.919809 0.648650
0.978748 0.929227 0.658935
0.072504 0.061546 0.492130
0.166941 0.070965 0.502415
0.261378 0.080383 0.512701
0.355815 0.089802 0.522986
0.450252 0.099220 0.533272
0.544689 0.108638 0.543558
0.639126 0.118057 0.553843
0.733563 0.127476 0.564129
0.828000 0.136894 0.574414
0.091816 0.161036 0.512322
0.186253 0.170455 0.522608
0.280690 0.179874 0.532894
0.375127 0.189292 0.543179
0.469564 0.198711 0.553465
0.564001 0.208129 0.563750
0.658439 0.217548 0.574036
0.752876 0.226966 0.584322
0.847313 0.236385 0.594607
0.111128 0.260527 0.532515
0.205565 0.269946 0.542801
0.300002 0.279364 0.553086
0.394439 0.288783 0.563372
0.488877 0.298201 0.573658
0.583314 0.307619 0.583943
0.677751 0.317038 0.594229
0.772188 0.326457 0.604514
0.866625 0.335875 0.614800
0.130441 0.360017 0.552708
0.224878 0.369436 0.562994
0.319315 0.378854 0.573279
0.413752 0.388273 0.583565
0.508189 0.397691 0.593850
0.602626 0.407110 0.604136
0.697063 0.416528 0.614422
0.791500 0.425947 0.624707
0.885937 0.435365 0.634993
0.149753 0.459508 0.572901
0.244190 0.468926 0.583186
0.338627 0.478345 0.593472
0.433064 0.487763 0.603758
0.527501 0.497182 0.614043
0.621938 0.506601 0.624329
0.716375 0.516019 0.634614
0.810812 0.525438 0.644900
0.905250 0.534856 0.655186
0.169065 0.558999 0.593094
0.263502 0.568417 0.603379
0.357939 0.577836 0.613665
0.452376 0.587254 0.623950
0.546814 0.596673 0.634236
0.641251 0.606091 0.644522
0.735688 0.615510 0.654807
0.830125 0.624928 0.665093
0.924562 0.634347 0.675378
0.188377 0.658489 0.613286
0.282815 0.667908 0.623572
0.377252 0.677326 0.633858
0.471689 0.686744 0.644143
0.566126 0.696163 0.654429
0.660563 0.705581 0.664714
0.755000 0.715000 0.675000
0.849437 0.724419 0.685286
0.943874 0.733837 0.695571
0.207690 0.757980 0.633479
0.302127 0.767398 0.643765
0.396564 0.776817 0.654050
0.491001 0.786235 0.664336
0.585438 0.795654 0.674622
0.679875 0.805072 0.684907
0.774312 0.814491 0.695193
0.868749 0.823909 0.705478
0.963186 0.833328 0.715764
0.227002 0.857470 0.653672
0.321439 0.866889 0.663958
0.415876 0.876307 0.674243
0.510313 0.885726 0.684529
0.604750 0.895144 0.694814
0.699188 0.904563 0.705100
0.793625 0.913981 0.715386
0.888062 0.923400 0.725671
0.982499 0.932818 0.735957
0.076254 0.065137 0.569151
0.170691 0.074555 0.579437
0.265128 0.083974 0.589722
0.359565 0.093393 0.600008
0.454003 0.102811 0.610294
0.548440 0.112230 0.620579
0.642877 0.121648 0.630865
0.737314 0.131067 0.641150
0.831751 0.140485 0.651436
0.095566 0.164628 0.589344
0.190004 0.174046 0.599630
0.284441 0.183465 0.609915
0.378878 0.192883 0.620201
0.473315 0.202301 0.630486
0.567752 0.211720 0.640772
0.662189 0.221139 0.651058
0.756626 0.230557 0.661343
0.851063 0.239976 0.671629
0.114879 0.264118 0.609537
0.209316 0.273537 0.619822
0.303753 0.282955 0.630108
0.398190 0.292373 0.640394
0.492627 0.301792 0.650679
0.587064 0.311210 0.660965
0.681501 0.320629 0.671250
0.775939 0.330047 0.681536
0.870376 0.339466 0.691822
0.134191 0.363609 0.629730
0.228628 0.373027 0.640015
0.323065 0.382445 0.650301
0.417502 0.391864 0.660586
0.511939 0.401283 0.670872
0.606377 0.410701 0.681158
0.700814 0.420119 0.691443
0.795251 0.429538 0.701729
0.889688 0.438956 0.712014
0.153503 0.463099 0.649922
0.247941 0.472517 0.660208
0.342378 0.481936 0.670494
0.436815 0.491354 0.680779
0.531252 0.500773 0.691065
0.625689 0.510192 0.701350
0.720126 0.519610 0.711636
0.814563 0.529029 0.721922
0.909000 0.538447 0.732207
0.172816 0.562589 0.670115
0.267253 0.572008 0.680401
0.361690 0.581427 0.690686
0.456127 0.590845 0.700972
0.550564 0.600263 0.711258
0.645001 0.609682 0.721543
0.739438 0.619100 0.731829
0.833875 0.628519 0.742114
0.928312 0.637938 0.752400
0.192128 0.662080 0.690308
0.286565 0.671498 0.700594
0.381002 0.680917 0.710879
0.475439 0.690335 0.721165
0.569876 0.699754 0.731450
0.664314 0.709173 0.741736
0.758751 0.718591 0.752022
0.853188 0.728010 0.762307
0.947625 0.737428 0.772593
0.211440 0.761571 0.710501
0.305877 0.770989 0.720786
0.400315 0.780408 0.731072
0.494752 0.789826 0.741358
0.589189 0.799245 0.751643
0.683626 0.808663 0.761929
0.778063 0.818082 0.772214
0.872500 0.827500 0.782500
0.966937 0.836919 0.792786
0.230753 0.861061 0.730694
0.325190 0.870480 0.740979
0.419627 0.879898 0.751265
0.514064 0.889317 0.761550
0.608501 0.898735 0.771836
0.702938 0.908154 0.782122
0.797375 0.917572 0.792407
0.891812 0.926991 0.802693
0.986249 0.936409 0.812978
0.080005 0.068728 0.646173
0.174442 0.078147 0.656458
0.268879 0.087565 0.666744
0.363316 0.096984 0.677030
0.457753 0.106402 0.687315
0.552190 0.115821 0.697601
0.646627 0.125239 0.707886
0.741064 0.134658 0.718172
0.835502 0.144076 0.728458
0.099317 0.168219 0.666366
0.193754 0.177637 0.676651
0.288191 0.187056 0.686937
0.382628 0.196474 0.697222
0.477065 0.205893 0.707508
0.571503 0.215311 0.717794
0.665940 0.224730 0.728079
0.760377 0.234148 0.738365
0.854814 0.243567 0.748650
0.118629 0.267709 0.686558
0.213066 0.277128 0.696844
0.307504 0.286546 0.707130
0.401941 0.295965 0.717415
0.496378 0.305383 0.727701
0.590815 0.314802 0.737986
0.685252 0.324220 0.748272
0.779689 0.333639 0.758558
0.874126 0.343057 0.768843
0.137942 0.367200 0.706751
0.232379 0.376618 0.717037
0.326816 0.386037 0.727322
0.421253 0.395455 0.737608
0.515690 0.404873 0.747894
0.610127 0.414292 0.758179
0.704564 0.423710 0.768465
0.799001 0.433129 0.778750
0.893439 0.442547 0.789036
0.157254 0.466690 0.726944
0.251691 0.476108 0.737230
0.346128 0.485527 0.747515
0.440565 0.494946 0.757801
0.535002 0.504364 0.768086
0.629440 0.513783 0.778372
0.723877 0.523201 0.788658
0.818314 0.532620 0.798943
0.912751 0.542038 0.809229
0.176566 0.566180 0.747137
0.271003 0.575599 0.757422
0.365440 0.585018 0.767708
0.459878 0.594436 0.777994
0.554315 0.603855 0.788279
0.648752 0.613273 0.798565
0.743189 0.622692 0.808850
0.837626 0.632110 0.819136
0.932063 0.641529 0.829422
0.195879 0.665671 0.767330
0.290316 0.675090 0.777615
0.384753 0.684508 0.787901
0.479190 0.693927 0.798186
0.573627 0.703345 0.808472
0.668064 0.712763 0.818758
0.762501 0.722182 0.829043
0.856938 0.731601 0.839329
0.951375 0.741019 0.849614
0.215191 0.765162 0.787522
0.309628 0.774580 0.797808
0.404065 0.783999 0.808094
0.498502 0.793417 0.818379
0.592939 0.802836 0.828665
0.687376 0.812254 0.838950
0.781814 0.821673 0.849236
0.876251 0.831091 0.859522
0.970688 0.840510 0.869807
0.234503 0.864652 0.807715
0.328940 0.874070 0.818001
0.423377 0.883489 0.828286
0.517815 0.892908 0.838572
0.612252 0.902326 0.848858
0.706689 0.911744 0.859143
0.801126 0.921163 0.869429
0.895563 0.930581 0.879714
0.990000 0.940000 0.890000
