app/assets/luts/05_vintage_film.cube
TITLE "Pocket Vintage Film"
# 褪色胶片感，怀旧色调。
# Pocket Live Capture built-in preset (free to use)
# POCKET_CUBE_ORDER=rgb_fastest
LUT_3D_SIZE 17
0.050000 0.040000 0.030000
0.097219 0.044709 0.035143
0.144437 0.049419 0.040286
0.191656 0.054128 0.045428
0.238874 0.058837 0.050571
0.286093 0.063546 0.055714
0.333311 0.068256 0.060857
0.380530 0.072965 0.066000
0.427748 0.077674 0.071142
0.474967 0.082383 0.076285
0.522185 0.087093 0.081428
0.569404 0.091802 0.086571
0.616623 0.096511 0.091714
0.663841 0.101220 0.096856
0.711060 0.105930 0.101999
0.758278 0.110639 0.107142
0.805497 0.115348 0.112285
0.059656 0.089745 0.040096
0.106875 0.094454 0.045239
0.154093 0.099164 0.050382
0.201312 0.103873 0.055525
0.248530 0.108582 0.060668
0.295749 0.113292 0.065810
0.342967 0.118001 0.070953
0.390186 0.122710 0.076096
0.437405 0.127419 0.081239
0.484623 0.132129 0.086382
0.531842 0.136838 0.091524
0.579060 0.141547 0.096667
0.626279 0.146256 0.101810
0.673497 0.150966 0.106953
0.720716 0.155675 0.112096
0.767934 0.160384 0.117238
0.815153 0.165093 0.122381
0.069312 0.139491 0.050193
0.116531 0.144200 0.055336
0.163749 0.148909 0.060478
0.210968 0.153618 0.065621
0.258186 0.158328 0.070764
0.305405 0.163037 0.075907
0.352624 0.167746 0.081050
0.399842 0.172455 0.086192
0.447061 0.177165 0.091335
0.494279 0.181874 0.096478
0.541498 0.186583 0.101621
0.588716 0.191292 0.106764
0.635935 0.196002 0.111906
0.683153 0.200711 0.117049
0.730372 0.205420 0.122192
0.777591 0.210129 0.127335
0.824809 0.214839 0.132478
0.078968 0.189236 0.060289
0.126187 0.193945 0.065432
0.173406 0.198654 0.070575
0.220624 0.203364 0.075718
0.267843 0.208073 0.080860
0.315061 0.212782 0.086003
0.362280 0.217491 0.091146
0.409498 0.222200 0.096289
0.456717 0.226910 0.101432
0.503935 0.231619 0.106574
0.551154 0.236328 0.111717
0.598372 0.241038 0.116860
0.645591 0.245747 0.122003
0.692810 0.250456 0.127146
0.740028 0.255165 0.132288
0.787247 0.259875 0.137431
0.834465 0.264584 0.142574
0.088625 0.238981 0.070386
0.135843 0.243690 0.075528
0.183062 0.248400 0.080671
0.230280 0.253109 0.085814
0.277499 0.257818 0.090957
0.324717 0.262527 0.096100
0.371936 0.267236 0.101242
0.419154 0.271946 0.106385
0.466373 0.276655 0.111528
0.513592 0.281364 0.116671
0.560810 0.286073 0.121814
0.608029 0.290783 0.126956
0.655247 0.295492 0.132099
0.702466 0.300201 0.137242
0.749684 0.304910 0.142385
0.796903 0.309620 0.147528
0.844121 0.314329 0.152670
0.098281 0.288726 0.080482
0.145499 0.293435 0.085625
0.192718 0.298145 0.090768
0.239936 0.302854 0.095910
0.287155 0.307563 0.101053
0.334373 0.312272 0.106196
0.381592 0.316982 0.111339
0.428811 0.321691 0.116482
0.476029 0.326400 0.121624
0.523248 0.331110 0.126767
0.570466 0.335819 0.131910
0.617685 0.340528 0.137053
0.664903 0.345237 0.142196
0.712122 0.349946 0.147338
0.759340 0.354656 0.152481
0.806559 0.359365 0.157624
0.853778 0.364074 0.162767
0.107937 0.338471 0.090578
0.155155 0.343181 0.095721
0.202374 0.347890 0.100864
0.249593 0.352599 0.106007
0.296811 0.357309 0.111150
0.344030 0.362018 0.116292
0.391248 0.366727 0.121435
0.438467 0.371436 0.126578
0.485685 0.376146 0.131721
0.532904 0.380855 0.136864
0.580122 0.385564 0.142006
0.627341 0.390273 0.147149
0.674560 0.394982 0.152292
0.721778 0.399692 0.157435
0.768997 0.404401 0.162578
0.816215 0.409110 0.167720
0.863434 0.413819 0.172863
0.117593 0.388217 0.100675
0.164812 0.392926 0.105818
0.212030 0.397635 0.110960
0.259249 0.402344 0.116103
0.306467 0.407054 0.121246
0.353686 0.411763 0.126389
0.400904 0.416472 0.131532
0.448123 0.421181 0.136674
0.495341 0.425891 0.141817
0.542560 0.430600 0.146960
0.589779 0.435309 0.152103
0.636997 0.440018 0.157246
0.684216 0.444728 0.162388
0.731434 0.449437 0.167531
0.778653 0.454146 0.172674
0.825871 0.458855 0.177817
0.873090 0.463565 0.182960
0.127249 0.437962 0.110771
0.174468 0.442671 0.115914
0.221686 0.447380 0.121057
0.268905 0.452090 0.126200
0.316123 0.456799 0.131342
0.363342 0.461508 0.136485
0.410560 0.466217 0.141628
0.457779 0.470927 0.146771
0.504998 0.475636 0.151914
0.552216 0.480345 0.157056
0.599435 0.485054 0.162199
0.646653 0.489764 0.167342
0.693872 0.494473 0.172485
0.741090 0.499182 0.177628
0.788309 0.503892 0.182770
0.835527 0.508601 0.187913
0.882746 0.513310 0.193056
0.136905 0.487707 0.120868
0.184124 0.492417 0.126010
0.231342 0.497126 0.131153
0.278561 0.501835 0.136296
0.325780 0.506544 0.141439
0.372998 0.511253 0.146582
0.420217 0.515963 0.151724
0.467435 0.520672 0.156867
0.514654 0.525381 0.162010
0.561872 0.530091 0.167153
0.609091 0.534800 0.172296
0.656309 0.539509 0.177438
0.703528 0.544218 0.182581
0.750746 0.548928 0.187724
0.797965 0.553637 0.192867
0.845184 0.558346 0.198010
0.892402 0.563055 0.203152
0.146562 0.537452 0.130964
0.193780 0.542162 0.136107
0.240999 0.546871 0.141250
0.288217 0.551580 0.146392
0.335436 0.556290 0.151535
0.382654 0.560999 0.156678
0.429873 0.565708 0.161821
0.477091 0.570417 0.166964
0.524310 0.575126 0.172106
0.571528 0.579836 0.177249
0.618747 0.584545 0.182392
0.665966 0.589254 0.187535
0.713184 0.593963 0.192678
0.760403 0.598673 0.197820
0.807621 0.603382 0.202963
0.854840 0.608091 0.208106
0.902058 0.612801 0.213249
0.156218 0.587198 0.141060
0.203436 0.591907 0.146203
0.250655 0.596616 0.151346
0.297873 0.601326 0.156489
0.345092 0.606035 0.161632
0.392310 0.610744 0.166774
0.439529 0.615453 0.171917
0.486747 0.620163 0.177060
0.533966 0.624872 0.182203
0.581185 0.629581 0.187346
0.628403 0.634290 0.192488
0.675622 0.639000 0.197631
0.722840 0.643709 0.202774
0.770059 0.648418 0.207917
0.817277 0.653127 0.213060
0.864496 0.657837 0.218202
0.911714 0.662546 0.223345
0.165874 0.636943 0.151157
0.213092 0.641652 0.156300
0.260311 0.646362 0.161442
0.307529 0.651071 0.166585
0.354748 0.655780 0.171728
0.401967 0.660489 0.176871
0.449185 0.665199 0.182014
0.496404 0.669908 0.187156
0.543622 0.674617 0.192299
0.590841 0.679326 0.197442
0.638059 0.684036 0.202585
0.685278 0.688745 0.207728
0.732496 0.693454 0.212870
0.779715 0.698163 0.218013
0.826933 0.702873 0.223156
0.874152 0.707582 0.228299
0.921371 0.712291 0.233442
0.175530 0.686688 0.161253
0.222749 0.691397 0.166396
0.269967 0.696107 0.171539
0.317186 0.700816 0.176682
0.364404 0.705525 0.181824
0.411623 0.710234 0.186967
0.458841 0.714944 0.192110
0.506060 0.719653 0.197253
0.553278 0.724362 0.202396
0.600497 0.729071 0.207538
0.647715 0.733781 0.212681
0.694934 0.738490 0.217824
0.742153 0.743199 0.222967
0.789371 0.747908 0.228110
0.836590 0.752618 0.233252
0.883808 0.757327 0.238395
0.931027 0.762036 0.243538
0.185186 0.736433 0.171350
0.232405 0.741143 0.176492
0.279623 0.745852 0.181635
0.326842 0.750561 0.186778
0.374060 0.755271 0.191921
0.421279 0.759980 0.197064
0.468497 0.764689 0.202206
0.515716 0.769398 0.207349
0.562935 0.774107 0.212492
0.610153 0.778817 0.217635
0.657372 0.783526 0.222778
0.704590 0.788235 0.227920
0.751809 0.792945 0.233063
0.799027 0.797654 0.238206
0.846246 0.802363 0.243349
0.893464 0.807072 0.248492
0.940683 0.811782 0.253634
0.194842 0.786179 0.181446
0.242061 0.790888 0.186589
0.289279 0.795597 0.191732
0.336498 0.800307 0.196874
0.383716 0.805016 0.202017
0.430935 0.809725 0.207160
0.478154 0.814434 0.212303
0.525372 0.819144 0.217446
0.572591 0.823853 0.222588
0.619809 0.828562 0.227731
0.667028 0.833271 0.232874
0.714246 0.837981 0.238017
0.761465 0.842690 0.243160
0.808683 0.847399 0.248302
0.855902 0.852108 0.253445
0.903120 0.856818 0.258588
0.950339 0.861527 0.263731
0.204498 0.835924 0.191542
0.251717 0.840633 0.196685
0.298936 0.845342 0.201828
0.346154 0.850052 0.206971
0.393373 0.854761 0.212114
0.440591 0.859470 0.217256
0.487810 0.864179 0.222399
0.535028 0.868889 0.227542
0.582247 0.873598 0.232685
0.629465 0.878307 0.237828
0.676684 0.883017 0.242970
0.723902 0.887726 0.248113
0.771121 0.892435 0.253256
0.818340 0.897144 0.258399
0.865558 0.901854 0.263542
0.912777 0.906563 0.268684
0.959995 0.911272 0.273827
0.051875 0.041795 0.068511
0.099094 0.046505 0.073654
0.146312 0.051214 0.078796
0.193531 0.055923 0.083939
0.240750 0.060633 0.089082
0.287968 0.065342 0.094225
0.335187 0.070051 0.099368
0.382405 0.074760 0.104510
0.429624 0.079469 0.109653
0.476842 0.084179 0.114796
0.524061 0.088888 0.119939
0.571279 0.093597 0.125082
0.618498 0.098307 0.130224
0.665716 0.103016 0.135367
0.712935 0.107725 0.140510
0.760154 0.112434 0.145653
0.807372 0.117144 0.150796
0.061531 0.091541 0.078607
0.108750 0.096250 0.083750
0.155969 0.100959 0.088893
0.203187 0.105668 0.094036
0.250406 0.110378 0.099178
0.297624 0.115087 0.104321
0.344843 0.119796 0.109464
0.392061 0.124505 0.114607
0.439280 0.129215 0.119750
0.486498 0.133924 0.124892
0.533717 0.138633 0.130035
0.580935 0.143342 0.135178
0.628154 0.148052 0.140321
0.675373 0.152761 0.145464
0.722591 0.157470 0.150606
0.769810 0.162180 0.155749
0.817028 0.166889 0.160892
0.071188 0.141286 0.088704
0.118406 0.145995 0.093846
0.165625 0.150705 0.098989
0.212843 0.155414 0.104132
0.260062 0.160123 0.109275
0.307280 0.164832 0.114418
0.354499 0.169542 0.119560
0.401717 0.174251 0.124703
0.448936 0.178960 0.129846
0.496155 0.183669 0.134989
0.543373 0.188379 0.140132
0.590592 0.193088 0.145274
0.637810 0.197797 0.150417
0.685029 0.202506 0.155560
0.732247 0.207215 0.160703
0.779466 0.211925 0.165846
0.826684 0.216634 0.170988
0.080844 0.191031 0.098800
0.128062 0.195741 0.103943
0.175281 0.200450 0.109086
0.222499 0.205159 0.114228
0.269718 0.209868 0.119371
0.316936 0.214578 0.124514
0.364155 0.219287 0.129657
0.411374 0.223996 0.134800
0.458592 0.228705 0.139942
0.505811 0.233415 0.145085
0.553029 0.238124 0.150228
0.600248 0.242833 0.155371
0.647466 0.247542 0.160514
0.694685 0.252252 0.165656
0.741903 0.256961 0.170799
0.789122 0.261670 0.175942
0.836341 0.266379 0.181085
0.090500 0.240777 0.108896
0.137718 0.245486 0.114039
0.184937 0.250195 0.119182
0.232156 0.254904 0.124325
0.279374 0.259613 0.129468
0.326593 0.264323 0.134610
0.373811 0.269032 0.139753
0.421030 0.273741 0.144896
0.468248 0.278450 0.150039
0.515467 0.283160 0.155182
0.562685 0.287869 0.160324
0.609904 0.292578 0.165467
0.657122 0.297287 0.170610
0.704341 0.301997 0.175753
0.751560 0.306706 0.180896
0.798778 0.311415 0.186038
0.845997 0.316124 0.191181
0.100156 0.290522 0.118993
0.147375 0.295231 0.124136
0.194593 0.299940 0.129278
0.241812 0.304650 0.134421
0.289030 0.309359 0.139564
0.336249 0.314068 0.144707
0.383467 0.318777 0.149850
0.430686 0.323487 0.154992
0.477904 0.328196 0.160135
0.525123 0.332905 0.165278
0.572342 0.337614 0.170421
0.619560 0.342323 0.175564
0.666779 0.347033 0.180706
0.713997 0.351742 0.185849
0.761216 0.356451 0.190992
0.808434 0.361160 0.196135
0.855653 0.365870 0.201278
0.109812 0.340267 0.129089
0.157031 0.344976 0.134232
0.204249 0.349685 0.139375
0.251468 0.354395 0.144518
0.298686 0.359104 0.149660
0.345905 0.363813 0.154803
0.393123 0.368522 0.159946
0.440342 0.373232 0.165089
0.487561 0.377941 0.170232
0.534779 0.382650 0.175374
0.581998 0.387359 0.180517
0.629216 0.392069 0.185660
0.676435 0.396778 0.190803
0.723653 0.401487 0.195946
0.770872 0.406196 0.201088
0.818090 0.410906 0.206231
0.865309 0.415615 0.211374
0.119468 0.390012 0.139186
0.166687 0.394722 0.144328
0.213905 0.399431 0.149471
0.261124 0.404140 0.154614
0.308343 0.408849 0.159757
0.355561 0.413558 0.164900
0.402780 0.418268 0.170042
0.449998 0.422977 0.175185
0.497217 0.427686 0.180328
0.544435 0.432395 0.185471
0.591654 0.437105 0.190614
0.638872 0.441814 0.195756
0.686091 0.446523 0.200899
0.733310 0.451233 0.206042
0.780528 0.455942 0.211185
0.827747 0.460651 0.216328
0.874965 0.465360 0.221470
0.129125 0.439757 0.149282
0.176343 0.444467 0.154425
0.223562 0.449176 0.159568
0.270780 0.453885 0.164710
0.317999 0.458594 0.169853
0.365217 0.463304 0.174996
0.412436 0.468013 0.180139
0.459654 0.472722 0.185282
0.506873 0.477432 0.190424
0.554091 0.482141 0.195567
0.601310 0.486850 0.200710
0.648529 0.491559 0.205853
0.695747 0.496269 0.210996
0.742966 0.500978 0.216138
0.790184 0.505687 0.221281
0.837403 0.510396 0.226424
0.884621 0.515105 0.231567
0.138781 0.489503 0.159378
0.185999 0.494212 0.164521
0.233218 0.498921 0.169664
0.280436 0.503630 0.174807
0.327655 0.508340 0.179950
0.374873 0.513049 0.185092
0.422092 0.517758 0.190235
0.469310 0.522467 0.195378
0.516529 0.527177 0.200521
0.563748 0.531886 0.205664
0.610966 0.536595 0.210806
0.658185 0.541305 0.215949
0.705403 0.546014 0.221092
0.752622 0.550723 0.226235
0.799840 0.555432 0.231378
0.847059 0.560142 0.236520
0.894277 0.564851 0.241663
0.148437 0.539248 0.169475
0.195655 0.543957 0.174618
0.242874 0.548666 0.179760
0.290092 0.553376 0.184903
0.337311 0.558085 0.190046
0.384530 0.562794 0.195189
0.431748 0.567504 0.200332
0.478967 0.572213 0.205474
0.526185 0.576922 0.210617
0.573404 0.581631 0.215760
0.620622 0.586341 0.220903
0.667841 0.591050 0.226046
0.715059 0.595759 0.231188
0.762278 0.600468 0.236331
0.809496 0.605178 0.241474
0.856715 0.609887 0.246617
0.903934 0.614596 0.251760
0.158093 0.588993 0.179571
0.205311 0.593703 0.184714
0.252530 0.598412 0.189857
0.299749 0.603121 0.195000
0.346967 0.607830 0.200142
0.394186 0.612540 0.205285
0.441404 0.617249 0.210428
0.488623 0.621958 0.215571
0.535841 0.626667 0.220714
0.583060 0.631377 0.225856
0.630278 0.636086 0.230999
0.677497 0.640795 0.236142
0.724716 0.645504 0.241285
0.771934 0.650214 0.246428
0.819153 0.654923 0.251570
0.866371 0.659632 0.256713
0.913590 0.664341 0.261856
0.167749 0.638739 0.189668
0.214968 0.643448 0.194810
0.262186 0.648157 0.199953
0.309405 0.652866 0.205096
0.356623 0.657576 0.210239
0.403842 0.662285 0.215382
0.451060 0.666994 0.220524
0.498279 0.671703 0.225667
0.545498 0.676413 0.230810
0.592716 0.681122 0.235953
0.639935 0.685831 0.241096
0.687153 0.690540 0.246238
0.734372 0.695250 0.251381
0.781590 0.699959 0.256524
0.828809 0.704668 0.261667
0.876027 0.709377 0.266810
0.923246 0.714087 0.271952
0.177405 0.688484 0.199764
0.224624 0.693193 0.204907
0.271842 0.697902 0.210050
0.319061 0.702612 0.215192
0.366279 0.707321 0.220335
0.413498 0.712030 0.225478
0.460717 0.716739 0.230621
0.507935 0.721449 0.235764
0.555154 0.726158 0.240906
0.602372 0.730867 0.246049
0.649591 0.735576 0.251192
0.696809 0.740286 0.256335
0.744028 0.744995 0.261478
0.791246 0.749704 0.266620
0.838465 0.754413 0.271763
0.885683 0.759123 0.276906
0.932902 0.763832 0.282049
0.187061 0.738229 0.209860
0.234280 0.742938 0.215003
0.281498 0.747648 0.220146
0.328717 0.752357 0.225289
0.375936 0.757066 0.230432
0.423154 0.761775 0.235574
0.470373 0.766485 0.240717
0.517591 0.771194 0.245860
0.564810 0.775903 0.251003
0.612028 0.780612 0.256146
0.659247 0.785322 0.261288
0.706465 0.790031 0.266431
0.753684 0.794740 0.271574
0.800903 0.799449 0.276717
0.848121 0.804158 0.281860
0.895340 0.808868 0.287002
0.942558 0.813577 0.292145
0.196718 0.787974 0.219957
0.243936 0.792683 0.225100
0.291155 0.797393 0.230242
0.338373 0.802102 0.235385
0.385592 0.806811 0.240528
0.432810 0.811521 0.245671
0.480029 0.816230 0.250814
0.527247 0.820939 0.255956
0.574466 0.825648 0.261099
0.621685 0.830357 0.266242
0.668903 0.835067 0.271385
0.716122 0.839776 0.276528
0.763340 0.844485 0.281670
0.810559 0.849195 0.286813
0.857777 0.853904 0.291956
0.904996 0.858613 0.297099
0.952214 0.863322 0.302242
0.206374 0.837720 0.230053
0.253592 0.842429 0.235196
0.300811 0.847138 0.240339
0.348029 0.851847 0.245482
0.395248 0.856557 0.250624
0.442466 0.861266 0.255767
0.489685 0.865975 0.260910
0.536904 0.870684 0.266053
0.584122 0.875394 0.271196
0.631341 0.880103 0.276338
0.678559 0.884812 0.281481
0.725778 0.889521 0.286624
0.772996 0.894231 0.291767
0.820215 0.898940 0.296910
0.867433 0.903649 0.302052
0.914652 0.908358 0.307195
0.961870 0.913068 0.312338
0.053751 0.043591 0.107022
0.100969 0.048300 0.112164
0.148188 0.053010 0.117307
0.195406 0.057719 0.122450
0.242625 0.062428 0.127593
0.289843 0.067137 0.132736
0.337062 0.071847 0.137878
0.384280 0.076556 0.143021
0.431499 0.081265 0.148164
0.478718 0.085974 0.153307
0.525936 0.090684 0.158450
0.573155 0.095393 0.163592
0.620373 0.100102 0.168735
0.667592 0.104811 0.173878
0.714810 0.109521 0.179021
0.762029 0.114230 0.184164
0.809247 0.118939 0.189306
0.063407 0.093336 0.117118
0.110625 0.098046 0.122261
0.157844 0.102755 0.127404
0.205062 0.107464 0.132546
0.252281 0.112173 0.137689
0.299500 0.116883 0.142832
0.346718 0.121592 0.147975
0.393937 0.126301 0.153118
0.441155 0.131010 0.158260
0.488374 0.135720 0.163403
0.535592 0.140429 0.168546
0.582811 0.145138 0.173689
0.630029 0.149847 0.178832
0.677248 0.154557 0.183974
0.724466 0.159266 0.189117
0.771685 0.163975 0.194260
0.818904 0.168684 0.199403
0.073063 0.143082 0.127214
0.120281 0.147791 0.132357
0.167500 0.152500 0.137500
0.214719 0.157209 0.142643
0.261937 0.161918 0.147786
0.309156 0.166628 0.152928
0.356374 0.171337 0.158071
0.403593 0.176046 0.163214
0.450811 0.180756 0.168357
0.498030 0.185465 0.173500
0.545248 0.190174 0.178642
0.592467 0.194883 0.183785
0.639685 0.199593 0.188928
0.686904 0.204302 0.194071
0.734123 0.209011 0.199214
0.781341 0.213720 0.204356
0.828560 0.218430 0.209499
0.082719 0.192827 0.137311
0.129938 0.197536 0.142454
0.177156 0.202245 0.147596
0.224375 0.206955 0.152739
0.271593 0.211664 0.157882
0.318812 0.216373 0.163025
0.366030 0.221082 0.168168
0.413249 0.225792 0.173310
0.460467 0.230501 0.178453
0.507686 0.235210 0.183596
0.554905 0.239919 0.188739
0.602123 0.244628 0.193882
0.649342 0.249338 0.199024
0.696560 0.254047 0.204167
0.743779 0.258756 0.209310
0.790997 0.263465 0.214453
0.838216 0.268175 0.219596
0.092375 0.242572 0.147407
0.139594 0.247281 0.152550
0.186812 0.251991 0.157693
0.234031 0.256700 0.162836
0.281249 0.261409 0.167978
0.328468 0.266118 0.173121
0.375686 0.270827 0.178264
0.422905 0.275537 0.183407
0.470124 0.280246 0.188550
0.517342 0.284955 0.193692
0.564561 0.289664 0.198835
0.611779 0.294374 0.203978
0.658998 0.299083 0.209121
0.706216 0.303792 0.214264
0.753435 0.308501 0.219406
0.800653 0.313211 0.224549
0.847872 0.317920 0.229692
0.102031 0.292317 0.157504
0.149250 0.297026 0.162646
0.196468 0.301736 0.167789
0.243687 0.306445 0.172932
0.290906 0.311154 0.178075
0.338124 0.315863 0.183218
0.385343 0.320573 0.188360
0.432561 0.325282 0.193503
0.479780 0.329991 0.198646
0.526998 0.334700 0.203789
0.574217 0.339410 0.208932
0.621435 0.344119 0.214074
0.668654 0.348828 0.219217
0.715873 0.353538 0.224360
0.763091 0.358247 0.229503
0.810310 0.362956 0.234646
0.857528 0.367665 0.239788
0.111688 0.342062 0.167600
0.158906 0.346772 0.172743
0.206125 0.351481 0.177886
0.253343 0.356190 0.183028
0.300562 0.360899 0.188171
0.347780 0.365609 0.193314
0.394999 0.370318 0.198457
0.442217 0.375027 0.203600
0.489436 0.379736 0.208742
0.536654 0.384446 0.213885
0.583873 0.389155 0.219028
0.631092 0.393864 0.224171
0.678310 0.398573 0.229314
0.725529 0.403283 0.234456
0.772747 0.407992 0.239599
0.819966 0.412701 0.244742
0.867184 0.417410 0.249885
0.121344 0.391808 0.177696
0.168562 0.396517 0.182839
0.215781 0.401226 0.187982
0.262999 0.405935 0.193125
0.310218 0.410645 0.198268
0.357436 0.415354 0.203410
0.404655 0.420063 0.208553
0.451873 0.424772 0.213696
0.499092 0.429482 0.218839
0.546311 0.434191 0.223982
0.593529 0.438900 0.229124
0.640748 0.443609 0.234267
0.687966 0.448319 0.239410
0.735185 0.453028 0.244553
0.782403 0.457737 0.249696
0.829622 0.462446 0.254838
0.876840 0.467156 0.259981
0.131000 0.441553 0.187793
0.178218 0.446262 0.192936
0.225437 0.450972 0.198078
0.272655 0.455681 0.203221
0.319874 0.460390 0.208364
0.367093 0.465099 0.213507
0.414311 0.469809 0.218650
0.461530 0.474518 0.223792
0.508748 0.479227 0.228935
0.555967 0.483936 0.234078
0.603185 0.488646 0.239221
0.650404 0.493355 0.244364
0.697622 0.498064 0.249506
0.744841 0.502773 0.254649
0.792060 0.507483 0.259792
0.839278 0.512192 0.264935
0.886497 0.516901 0.270078
0.140656 0.491298 0.197889
0.187874 0.496007 0.203032
0.235093 0.500717 0.208175
0.282312 0.505426 0.213318
0.329530 0.510135 0.218460
0.376749 0.514845 0.223603
0.423967 0.519554 0.228746
0.471186 0.524263 0.233889
0.518404 0.528972 0.239032
0.565623 0.533682 0.244174
0.612841 0.538391 0.249317
0.660060 0.543100 0.254460
0.707279 0.547809 0.259603
0.754497 0.552519 0.264746
0.801716 0.557228 0.269888
0.848934 0.561937 0.275031
0.896153 0.566646 0.280174
0.150312 0.541044 0.207986
0.197531 0.545753 0.213128
0.244749 0.550462 0.218271
0.291968 0.555171 0.223414
0.339186 0.559881 0.228557
0.386405 0.564590 0.233700
0.433623 0.569299 0.238842
0.480842 0.574008 0.243985
0.528061 0.578717 0.249128
0.575279 0.583427 0.254271
0.622498 0.588136 0.259414
0.669716 0.592845 0.264556
0.716935 0.597554 0.269699
0.764153 0.602264 0.274842
0.811372 0.606973 0.279985
0.858590 0.611682 0.285128
0.905809 0.616391 0.290270
0.159968 0.590789 0.218082
0.207187 0.595498 0.223225
0.254405 0.600207 0.228368
0.301624 0.604917 0.233510
0.348842 0.609626 0.238653
0.396061 0.614335 0.243796
0.443280 0.619044 0.248939
0.490498 0.623754 0.254082
0.537717 0.628463 0.259224
0.584935 0.633172 0.264367
0.632154 0.637881 0.269510
0.679372 0.642590 0.274653
0.726591 0.647300 0.279796
0.773809 0.652009 0.284938
0.821028 0.656718 0.290081
0.868247 0.661428 0.295224
0.915465 0.666137 0.300367
0.169624 0.640534 0.228178
0.216843 0.645243 0.233321
0.264062 0.649952 0.238464
0.311280 0.654662 0.243607
0.358499 0.659371 0.248750
0.405717 0.664080 0.253892
0.452936 0.668790 0.259035
0.500154 0.673499 0.264178
0.547373 0.678208 0.269321
0.594591 0.682917 0.274464
0.641810 0.687627 0.279606
0.689028 0.692336 0.284749
0.736247 0.697045 0.289892
0.783466 0.701754 0.295035
0.830684 0.706464 0.300178
0.877903 0.711173 0.305320
0.925121 0.715882 0.310463
0.179281 0.690279 0.238275
0.226499 0.694989 0.243418
0.273718 0.699698 0.248560
0.320936 0.704407 0.253703
0.368155 0.709116 0.258846
0.415373 0.713826 0.263989
0.462592 0.718535 0.269132
0.509810 0.723244 0.274274
0.557029 0.727953 0.279417
0.604247 0.732663 0.284560
0.651466 0.737372 0.289703
0.698685 0.742081 0.294846
0.745903 0.746790 0.299988
0.793122 0.751500 0.305131
0.840340 0.756209 0.310274
0.887559 0.760918 0.315417
0.934777 0.765627 0.320560
0.188937 0.740024 0.248371
0.236155 0.744734 0.253514
0.283374 0.749443 0.258657
0.330592 0.754152 0.263800
0.377811 0.758862 0.268942
0.425029 0.763571 0.274085
0.472248 0.768280 0.279228
0.519467 0.772989 0.284371
0.566685 0.777699 0.289514
0.613904 0.782408 0.294656
0.661122 0.787117 0.299799
0.708341 0.791826 0.304942
0.755559 0.796536 0.310085
0.802778 0.801245 0.315228
0.849996 0.805954 0.320370
0.897215 0.810663 0.325513
0.944433 0.815373 0.330656
0.198593 0.789770 0.258468
0.245811 0.794479 0.263610
0.293030 0.799188 0.268753
0.340249 0.803898 0.273896
0.387467 0.808607 0.279039
0.434686 0.813316 0.284182
0.481904 0.818025 0.289324
0.529123 0.822735 0.294467
0.576341 0.827444 0.299610
0.623560 0.832153 0.304753
0.670778 0.836862 0.309896
0.717997 0.841572 0.315038
0.765215 0.846281 0.320181
0.812434 0.850990 0.325324
0.859653 0.855699 0.330467
0.906871 0.860409 0.335610
0.954090 0.865118 0.340752
0.208249 0.839515 0.268564
0.255468 0.844224 0.273707
0.302686 0.848934 0.278850
0.349905 0.853643 0.283992
0.397123 0.858352 0.289135
0.444342 0.863061 0.294278
0.491560 0.867771 0.299421
0.538779 0.872480 0.304564
0.585997 0.877189 0.309706
0.633216 0.881898 0.314849
0.680435 0.886607 0.319992
0.727653 0.891317 0.325135
0.774872 0.896026 0.330278
0.822090 0.900735 0.335420
0.869309 0.905445 0.340563
0.916527 0.910154 0.345706
0.963746 0.914863 0.350849
0.055626 0.045387 0.145532
0.102844 0.050096 0.150675
0.150063 0.054805 0.155818
0.197282 0.059514 0.160961
0.244500 0.064224 0.166104
0.291719 0.068933 0.171246
0.338937 0.073642 0.176389
0.386156 0.078351 0.181532
0.433374 0.083061 0.186675
0.480593 0.087770 0.191818
0.527811 0.092479 0.196960
0.575030 0.097188 0.202103
0.622248 0.101898 0.207246
0.669467 0.106607 0.212389
0.716686 0.111316 0.217532
0.763904 0.116025 0.222674
