app/assets/luts/05_vintage_film.cube
TITLE "Pocket Vintage Film"
# 褪色胶片感，怀旧色调。
# Pocket Live Capture built-in preset (free to use)
# POCKET_CUBE_ORDER=rgb_fastest
LUT_3D_SIZE 5
0.050000 0.040000 0.030000
0.238874 0.058837 0.050571
0.427748 0.077674 0.071142
0.616623 0.096511 0.091714
0.805497 0.115348 0.112285
0.088625 0.238981 0.070386
0.277499 0.257818 0.090957
0.466373 0.276655 0.111528
0.655247 0.295492 0.132099
0.844121 0.314329 0.152670
0.127249 0.437962 0.110771
0.316123 0.456799 0.131342
0.504998 0.475636 0.151914
0.693872 0.494473 0.172485
0.882746 0.513310 0.193056
0.165874 0.636943 0.151157
0.354748 0.655780 0.171728
0.543622 0.674617 0.192299
0.732496 0.693454 0.212870
0.921371 0.712291 0.233442
0.204498 0.835924 0.191542
0.393373 0.854761 0.212114
0.582247 0.873598 0.232685
0.771121 0.892435 0.253256
0.959995 0.911272 0.273827
0.057501 0.047182 0.184043
0.246375 0.066019 0.204614
0.435250 0.084856 0.225186
0.624124 0.103693 0.245757
0.812998 0.122530 0.266328
0.096126 0.246163 0.224429
0.285000 0.265000 0.245000
0.473874 0.283837 0.265571
0.662748 0.302674 0.286142
0.851623 0.321511 0.306714
0.134750 0.445144 0.264814
0.323625 0.463981 0.285386
0.512499 0.482818 0.305957
0.701373 0.501655 0.326528
0.890247 0.520492 0.347099
0.173375 0.644125 0.305200
0.362249 0.662962 0.325771
0.551123 0.681799 0.346342
0.739998 0.700636 0.366914
0.928872 0.719473 0.387485
0.212000 0.843106 0.345586
0.400874 0.861943 0.366157
0.589748 0.880780 0.386728
0.778622 0.899617 0.407299
0.967496 0.918454 0.427870
0.065002 0.054364 0.338086
0.253877 0.073201 0.358658
0.442751 0.092038 0.379229
0.631625 0.110875 0.399800
0.820499 0.129712 0.420371
0.103627 0.253345 0.378472
0.292501 0.272182 0.399043
0.481375 0.291019 0.419614
0.670250 0.309856 0.440186
0.859124 0.328693 0.460757
0.142252 0.452326 0.418858
0.331126 0.471163 0.439429
0.520000 0.490000 0.460000
0.708874 0.508837 0.480571
0.897748 0.527674 0.501142
0.180876 0.651307 0.459243
0.369750 0.670144 0.479814
0.558625 0.688981 0.500386
0.747499 0.707818 0.520957
0.936373 0.726655 0.541528
0.219501 0.850288 0.499629
0.408375 0.869125 0.520200
0.597249 0.887962 0.540771
0.786123 0.906799 0.561342
0.974998 0.925636 0.581914
0.072504 0.061546 0.492130
0.261378 0.080383 0.512701
0.450252 0.099220 0.533272
0.639126 0.118057 0.553843
0.828000 0.136894 0.574414
0.111128 0.260527 0.532515
0.300002 0.279364 0.553086
0.488877 0.298201 0.573658
0.677751 0.317038 0.594229
0.866625 0.335875 0.614800
0.149753 0.459508 0.572901
0.338627 0.478345 0.593472
0.527501 0.497182 0.614043
0.716375 0.516019 0.634614
0.905250 0.534856 0.655186
0.188377 0.658489 0.613286
0.377252 0.677326 0.633858
0.566126 0.696163 0.654429
0.755000 0.715000 0.675000
0.943874 0.733837 0.695571
0.227002 0.857470 0.653672
0.415876 0.876307 0.674243
0.604750 0.895144 0.694814
0.793625 0.913981 0.715386
0.982499 0.932818 0.735957
0.080005 0.068728 0.646173
0.268879 0.087565 0.666744
0.457753 0.106402 0.687315
0.646627 0.125239 0.707886
0.835502 0.144076 0.728458
0.118629 0.267709 0.686558
0.307504 0.286546 0.707130
0.496378 0.305383 0.727701
0.685252 0.324220 0.748272
0.874126 0.343057 0.768843
0.157254 0.466690 0.726944
0.346128 0.485527 0.747515
0.535002 0.504364 0.768086
0.723877 0.523201 0.788658
0.912751 0.542038 0.809229
0.195879 0.665671 0.767330
0.384753 0.684508 0.787901
0.573627 0.703345 0.808472
0.762501 0.722182 0.829043
0.951375 0.741019 0.849614
0.234503 0.864652 0.807715
0.423377 0.883489 0.828286
0.612252 0.902326 0.848858
0.801126 0.921163 0.869429
0.990000 0.940000 0.890000
