app/assets/luts/06_vivid_pop.cube
TITLE "Pocket Vivid Pop"
# 适度提饱和与对比，色彩更跳。
# Pocket Live Capture built-in preset (free to use)
# POCKET_CUBE_ORDER=rgb_fastest
LUT_3D_SIZE 17
0.000000 0.000000 0.000000
0.092875 0.000000 0.000000
0.173311 0.000000 0.000000
0.249637 0.000000 0.000000
0.323410 0.000000 0.000000
0.395342 0.000000 0.000000
0.465839 0.000000 0.000000
0.535165 0.000000 0.000000
0.603505 0.000000 0.000000
0.670993 0.000000 0.000000
0.737734 0.000000 0.000000
0.803810 0.000000 0.000000
0.869287 0.000000 0.000000
0.934219 0.000000 0.000000
0.998654 0.000000 0.000000
1.000000 0.000000 0.000000
1.000000 0.000000 0.000000
0.000000 0.088600 0.000000
0.084162 0.084162 0.000000
0.164598 0.080317 0.000000
0.240923 0.076670 0.000000
0.314697 0.073144 0.000000
0.386628 0.069707 0.000000
0.457125 0.066338 0.000000
0.526452 0.063025 0.000000
0.594791 0.059759 0.000000
0.662279 0.056533 0.000000
0.729020 0.053344 0.000000
0.795096 0.050186 0.000000
0.860573 0.047057 0.000000
0.925506 0.043954 0.000000
0.989940 0.040874 0.000000
1.000000 0.037817 0.000000
1.000000 0.034780 0.000000
0.000000 0.165333 0.000000
0.076615 0.160895 0.000000
0.157051 0.157051 0.000000
0.233377 0.153403 0.000000
0.307150 0.149878 0.000000
0.379082 0.146440 0.000000
0.449579 0.143071 0.000000
0.518905 0.139758 0.000000
0.587245 0.136492 0.000000
0.654733 0.133267 0.000000
0.721474 0.130077 0.000000
0.787549 0.126919 0.000000
0.853026 0.123790 0.000000
0.917959 0.120687 0.000000
0.982394 0.117608 0.000000
1.000000 0.114551 0.000000
1.000000 0.111513 0.000000
0.000000 0.238146 0.000000
0.069454 0.233707 0.000000
0.149890 0.229863 0.000000
0.226216 0.226216 0.000000
0.299989 0.222690 0.000000
0.371921 0.219252 0.000000
0.442418 0.215883 0.000000
0.511744 0.212570 0.000000
0.580084 0.209304 0.000000
0.647572 0.206079 0.000000
0.714313 0.202890 0.000000
0.780388 0.199732 0.000000
0.845865 0.196603 0.000000
0.910798 0.193500 0.000000
0.975233 0.190420 0.000000
1.000000 0.187363 0.000000
1.000000 0.184326 0.000000
0.000000 0.308523 0.000000
0.062532 0.304085 0.000000
0.142968 0.300241 0.000000
0.219294 0.296593 0.000000
0.293067 0.293067 0.000000
0.364999 0.289630 0.000000
0.435496 0.286261 0.000000
0.504823 0.282948 0.000000
0.573162 0.279682 0.000000
0.640650 0.276456 0.000000
0.707391 0.273267 0.000000
0.773467 0.270109 0.000000
0.838944 0.266980 0.000000
0.903876 0.263877 0.000000
0.968311 0.260798 0.000000
1.000000 0.257740 0.000000
1.000000 0.254703 0.000000
0.000000 0.377144 0.000000
0.055784 0.372705 0.000000
0.136220 0.368861 0.000000
0.212545 0.365213 0.000000
0.286319 0.361688 0.000000
0.358250 0.358250 0.000000
0.428748 0.354881 0.000000
0.498074 0.351568 0.000000
0.566413 0.348302 0.000000
0.633902 0.345077 0.000000
0.700642 0.341887 0.000000
0.766718 0.338730 0.000000
0.832195 0.335601 0.000000
0.897128 0.332497 0.000000
0.961562 0.329418 0.000000
1.000000 0.326361 0.000000
1.000000 0.323324 0.000000
0.000000 0.444396 0.000000
0.049169 0.439957 0.000000
0.129606 0.436113 0.000000
0.205931 0.432466 0.000000
0.279705 0.428940 0.000000
0.351636 0.425502 0.000000
0.422133 0.422133 0.000000
0.491460 0.418820 0.000000
0.559799 0.415554 0.000000
0.627287 0.412329 0.000000
0.694028 0.409140 0.000000
0.760104 0.405982 0.000000
0.825581 0.402853 0.000000
0.890514 0.399750 0.000000
0.954948 0.396670 0.000000
1.000000 0.393613 0.000000
1.000000 0.390576 0.000000
0.000000 0.510531 0.000000
0.042665 0.506092 0.000000
0.123101 0.502248 0.000000
0.199427 0.498601 0.000000
0.273200 0.495075 0.000000
0.345132 0.491638 0.000000
0.415629 0.488268 0.000000
0.484955 0.484955 0.000000
0.553295 0.481689 0.000000
0.620783 0.478464 0.000000
0.687524 0.475275 0.000000
0.753600 0.472117 0.000000
0.819076 0.468988 0.000000
0.884009 0.465885 0.000000
0.948444 0.462805 0.000000
1.000000 0.459748 0.000000
1.000000 0.456711 0.000000
0.000000 0.575725 0.000000
0.036253 0.571286 0.000000
0.116689 0.567442 0.000000
0.193015 0.563794 0.000000
0.266788 0.560269 0.000000
0.338720 0.556831 0.000000
0.409217 0.553462 0.000000
0.478544 0.550149 0.000000
0.546883 0.546883 0.000000
0.614371 0.543658 0.000000
0.681112 0.540468 0.000000
0.747188 0.537311 0.000000
0.812665 0.534181 0.000000
0.877598 0.531078 0.000000
0.942032 0.527999 0.000000
1.000000 0.524942 0.000000
1.000000 0.521905 0.000000
0.000000 0.640106 0.000000
0.029922 0.635668 0.000000
0.110358 0.631824 0.000000
0.186683 0.628176 0.000000
0.260457 0.624650 0.000000
0.332388 0.621213 0.000000
0.402885 0.617844 0.000000
0.472212 0.614531 0.000000
0.540551 0.611265 0.000000
0.608040 0.608040 0.000000
0.674780 0.604850 0.000000
0.740856 0.601692 0.000000
0.806333 0.598563 0.000000
0.871266 0.595460 0.000000
0.935700 0.592381 0.000000
0.999676 0.589323 0.000000
1.000000 0.586286 0.000000
0.000000 0.703775 0.000000
0.023660 0.699336 0.000000
0.104096 0.695492 0.000000
0.180422 0.691845 0.000000
0.254195 0.688319 0.000000
0.326127 0.684882 0.000000
0.396624 0.681512 0.000000
0.465950 0.678199 0.000000
0.534290 0.674933 0.000000
0.601778 0.671708 0.000000
0.668519 0.668519 0.000000
0.734594 0.665361 0.000000
0.800071 0.662232 0.000000
0.865004 0.659129 0.000000
0.929439 0.656049 0.000000
0.993414 0.652992 0.000000
1.000000 0.649955 0.000000
0.000000 0.766809 0.000000
0.017461 0.762370 0.000000
0.097897 0.758526 0.000000
0.174222 0.754879 0.000000
0.247996 0.751353 0.000000
0.319927 0.747916 0.000000
0.390424 0.744547 0.000000
0.459751 0.741233 0.000000
0.528090 0.737968 0.000000
0.595578 0.734742 0.000000
0.662319 0.731553 0.000000
0.728395 0.728395 0.000000
0.793872 0.725266 0.000000
0.858805 0.722163 0.000000
0.923239 0.719083 0.000000
0.987215 0.716026 0.000000
1.000000 0.712989 0.000000
0.000000 0.829272 0.000000
0.011317 0.824833 0.000000
0.091753 0.820989 0.000000
0.168079 0.817342 0.000000
0.241852 0.813816 0.000000
0.313784 0.810378 0.000000
0.384281 0.807009 0.000000
0.453608 0.803696 0.000000
0.521947 0.800430 0.000000
0.589435 0.797205 0.000000
0.656176 0.794016 0.000000
0.722252 0.790858 0.000000
0.787729 0.787729 0.000000
0.852661 0.784626 0.000000
0.917096 0.781546 0.000000
0.981072 0.778489 0.000000
1.000000 0.775452 0.000000
0.000000 0.891216 0.000000
0.005225 0.886777 0.000000
0.085661 0.882933 0.000000
0.161987 0.879285 0.000000
0.235760 0.875760 0.000000
0.307692 0.872322 0.000000
0.378189 0.868953 0.000000
0.447515 0.865640 0.000000
0.515855 0.862374 0.000000
0.583343 0.859149 0.000000
0.650084 0.855959 0.000000
0.716160 0.852802 0.000000
0.781637 0.849673 0.000000
0.846569 0.846569 0.000000
0.911004 0.843490 0.000000
0.974980 0.840433 0.000000
1.000000 0.837396 0.000000
0.000000 0.952684 0.000000
0.000000 0.948246 0.000000
0.079616 0.944402 0.000000
0.155942 0.940754 0.000000
0.229715 0.937229 0.000000
0.301647 0.933791 0.000000
0.372144 0.930422 0.000000
0.441470 0.927109 0.000000
0.509810 0.923843 0.000000
0.577298 0.920618 0.000000
0.644039 0.917428 0.000000
0.710114 0.914270 0.000000
0.775591 0.911141 0.000000
0.840524 0.908038 0.000000
0.904959 0.904959 0.000000
0.968934 0.901901 0.000000
1.000000 0.898864 0.000000
0.000000 1.000000 0.000000
0.000000 1.000000 0.000000
0.073614 1.000000 0.000000
0.149939 1.000000 0.000000
0.223713 0.998259 0.000000
0.295644 0.994822 0.000000
0.366142 0.991453 0.000000
0.435468 0.988140 0.000000
0.503807 0.984874 0.000000
0.571296 0.981648 0.000000
0.638036 0.978459 0.000000
0.704112 0.975301 0.000000
0.769589 0.972172 0.000000
0.834522 0.969069 0.000000
0.898956 0.965990 0.000000
0.962932 0.962932 0.000000
1.000000 0.959895 0.000000
0.000000 1.000000 0.000000
0.000000 1.000000 0.000000
0.067651 1.000000 0.000000
0.143977 1.000000 0.000000
0.217750 1.000000 0.000000
0.289682 1.000000 0.000000
0.360179 1.000000 0.000000
0.429505 1.000000 0.000000
0.497845 1.000000 0.000000
0.565333 1.000000 0.000000
0.632074 1.000000 0.000000
0.698150 1.000000 0.000000
0.763627 1.000000 0.000000
0.828559 1.000000 0.000000
0.892994 1.000000 0.000000
0.956970 1.000000 0.000000
1.000000 1.000000 0.000000
0.000000 0.000000 0.095621
0.091183 0.000000 0.091183
0.171619 0.000000 0.087339
0.247945 0.000000 0.083691
0.321718 0.000000 0.080166
0.393650 0.000000 0.076728
0.464147 0.000000 0.073359
0.533473 0.000000 0.070046
0.601813 0.000000 0.066780
0.669301 0.000000 0.063555
0.736042 0.000000 0.060365
0.802117 0.000000 0.057207
0.867594 0.000000 0.054078
0.932527 0.000000 0.050975
0.996962 0.000000 0.047896
1.000000 0.000000 0.044838
1.000000 0.000000 0.041801
0.000000 0.086908 0.086908
0.082469 0.082469 0.082469
0.162905 0.078625 0.078625
0.239231 0.074978 0.074978
0.313004 0.071452 0.071452
0.384936 0.068014 0.068014
0.455433 0.064645 0.064645
0.524759 0.061332 0.061332
0.593099 0.058066 0.058066
0.660587 0.054841 0.054841
0.727328 0.051652 0.051652
0.793404 0.048494 0.048494
0.858881 0.045365 0.045365
0.923813 0.042262 0.042262
0.988248 0.039182 0.039182
1.000000 0.036125 0.036125
1.000000 0.033088 0.033088
0.000000 0.163641 0.079361
0.074923 0.159203 0.074923
0.155359 0.155359 0.071079
0.231684 0.151711 0.067431
0.305458 0.148185 0.063905
0.377389 0.144748 0.060468
0.447887 0.141379 0.057099
0.517213 0.138066 0.053786
0.585552 0.134800 0.050520
0.653041 0.131575 0.047294
0.719781 0.128385 0.044105
0.785857 0.125227 0.040947
0.851334 0.122098 0.037818
0.916267 0.118995 0.034715
0.980701 0.115916 0.031636
1.000000 0.112858 0.028578
1.000000 0.109821 0.025541
0.000000 0.236454 0.072200
0.067762 0.232015 0.067762
0.148198 0.228171 0.063918
0.224523 0.224523 0.060270
0.298297 0.220998 0.056744
0.370228 0.217560 0.053307
0.440726 0.214191 0.049938
0.510052 0.210878 0.046625
0.578391 0.207612 0.043359
0.645880 0.204387 0.040133
0.712620 0.201197 0.036944
0.778696 0.198040 0.033786
0.844173 0.194910 0.030657
0.909106 0.191807 0.027554
0.973540 0.188728 0.024475
1.000000 0.185671 0.021417
1.000000 0.182634 0.018380
0.000000 0.306831 0.065279
0.060840 0.302392 0.060840
0.141276 0.298548 0.056996
0.217602 0.294901 0.053348
0.291375 0.291375 0.049823
0.363307 0.287938 0.046385
0.433804 0.284568 0.043016
0.503130 0.281255 0.039703
0.571470 0.277989 0.036437
0.638958 0.274764 0.033212
0.705699 0.271575 0.030022
0.771775 0.268417 0.026865
0.837251 0.265288 0.023735
0.902184 0.262185 0.020632
0.966619 0.259105 0.017553
1.000000 0.256048 0.014496
1.000000 0.253011 0.011459
0.000000 0.375451 0.058530
0.054091 0.371013 0.054091
0.134527 0.367169 0.050247
0.210853 0.363521 0.046600
0.284626 0.359996 0.043074
0.356558 0.356558 0.039636
0.427055 0.353189 0.036267
0.496382 0.349876 0.032954
0.564721 0.346610 0.029688
0.632209 0.343385 0.026463
0.698950 0.340195 0.023274
0.765026 0.337037 0.020116
0.830503 0.333908 0.016987
0.895435 0.330805 0.013884
0.959870 0.327726 0.010804
1.000000 0.324668 0.007747
1.000000 0.321631 0.004710
0.000000 0.442703 0.051916
0.047477 0.438265 0.047477
0.127913 0.434421 0.043633
0.204239 0.430773 0.039986
0.278012 0.427248 0.036460
0.349944 0.423810 0.033022
0.420441 0.420441 0.029653
0.489767 0.417128 0.026340
0.558107 0.413862 0.023074
0.625595 0.410637 0.019849
0.692336 0.407447 0.016659
0.758412 0.404290 0.013502
0.823888 0.401160 0.010373
0.888821 0.398057 0.007269
0.953256 0.394978 0.004190
1.000000 0.391921 0.001133
1.000000 0.388883 0.000000
0.000000 0.508839 0.045411
0.040973 0.504400 0.040973
0.121409 0.500556 0.037129
0.197735 0.496908 0.033481
0.271508 0.493383 0.029956
0.343440 0.489945 0.026518
0.413937 0.486576 0.023149
0.483263 0.483263 0.019836
0.551603 0.479997 0.016570
0.619091 0.476772 0.013345
0.685832 0.473582 0.010155
0.751907 0.470425 0.006997
0.817384 0.467295 0.003868
0.882317 0.464192 0.000765
0.946752 0.461113 0.000000
1.000000 0.458056 0.000000
1.000000 0.455019 0.000000
0.000000 0.574032 0.039000
0.034561 0.569594 0.034561
0.114997 0.565750 0.030717
0.191323 0.562102 0.027070
0.265096 0.558577 0.023544
0.337028 0.555139 0.020106
0.407525 0.551770 0.016737
0.476851 0.548457 0.013424
0.545191 0.545191 0.010158
0.612679 0.541966 0.006933
0.679420 0.538776 0.003743
0.745496 0.535618 0.000586
0.810972 0.532489 0.000000
0.875905 0.529386 0.000000
0.940340 0.526307 0.000000
1.000000 0.523249 0.000000
1.000000 0.520212 0.000000
0.000000 0.638414 0.032668
0.028229 0.633975 0.028229
0.108665 0.630131 0.024385
0.184991 0.626484 0.020738
0.258764 0.622958 0.017212
0.330696 0.619521 0.013774
0.401193 0.616152 0.010405
0.470520 0.612838 0.007092
0.538859 0.609572 0.003826
0.606347 0.606347 0.000601
0.673088 0.603158 0.000000
0.739164 0.600000 0.000000
0.804641 0.596871 0.000000
0.869573 0.593768 0.000000
0.934008 0.590688 0.000000
0.997984 0.587631 0.000000
1.000000 0.584594 0.000000
0.000000 0.702083 0.026406
0.021968 0.697644 0.021968
0.102404 0.693800 0.018124
0.178729 0.690152 0.014476
0.252503 0.686627 0.010950
0.324434 0.683189 0.007513
0.394931 0.679820 0.004144
0.464258 0.676507 0.000831
0.532597 0.673241 0.000000
0.600085 0.670016 0.000000
0.666826 0.666826 0.000000
0.732902 0.663669 0.000000
0.798379 0.660540 0.000000
0.863312 0.657436 0.000000
0.927746 0.654357 0.000000
0.991722 0.651300 0.000000
1.000000 0.648263 0.000000
0.000000 0.765117 0.020207
0.015768 0.760678 0.015768
0.096204 0.756834 0.011924
0.172530 0.753187 0.008277
0.246303 0.749661 0.004751
0.318235 0.746223 0.001313
0.388732 0.742854 0.000000
0.458058 0.739541 0.000000
0.526398 0.736275 0.000000
0.593886 0.733050 0.000000
0.660627 0.729860 0.000000
0.726703 0.726703 0.000000
0.792180 0.723574 0.000000
0.857112 0.720470 0.000000
0.921547 0.717391 0.000000
0.985523 0.714334 0.000000
1.000000 0.711297 0.000000
0.000000 0.827580 0.014064
0.009625 0.823141 0.009625
0.090061 0.819297 0.005781
0.166387 0.815649 0.002133
0.240160 0.812124 0.000000
0.312092 0.808686 0.000000
0.382589 0.805317 0.000000
0.451915 0.802004 0.000000
0.520255 0.798738 0.000000
0.587743 0.795513 0.000000
0.654484 0.792323 0.000000
0.720560 0.789166 0.000000
0.786036 0.786036 0.000000
0.850969 0.782933 0.000000
0.915404 0.779854 0.000000
0.979380 0.776797 0.000000
1.000000 0.773760 0.000000
0.000000 0.889523 0.007971
0.003533 0.885085 0.003533
0.083969 0.881241 0.000000
0.160295 0.877593 0.000000
0.234068 0.874068 0.000000
0.306000 0.870630 0.000000
0.376497 0.867261 0.000000
0.445823 0.863948 0.000000
0.514163 0.860682 0.000000
0.581651 0.857457 0.000000
0.648392 0.854267 0.000000
0.714467 0.851109 0.000000
0.779944 0.847980 0.000000
0.844877 0.844877 0.000000
0.909312 0.841798 0.000000
0.973288 0.838740 0.000000
1.000000 0.835703 0.000000
0.000000 0.950992 0.001926
0.000000 0.946554 0.000000
0.077924 0.942709 0.000000
0.154249 0.939062 0.000000
0.228023 0.935536 0.000000
0.299954 0.932099 0.000000
0.370452 0.928730 0.000000
0.439778 0.925417 0.000000
0.508117 0.922151 0.000000
0.575606 0.918925 0.000000
0.642346 0.915736 0.000000
0.708422 0.912578 0.000000
0.773899 0.909449 0.000000
0.838832 0.906346 0.000000
0.903266 0.903266 0.000000
0.967242 0.900209 0.000000
1.000000 0.897172 0.000000
0.000000 1.000000 0.000000
0.000000 1.000000 0.000000
0.071921 1.000000 0.000000
0.148247 1.000000 0.000000
0.222020 0.996567 0.000000
0.293952 0.993129 0.000000
0.364449 0.989760 0.000000
0.433776 0.986447 0.000000
0.502115 0.983181 0.000000
0.569603 0.979956 0.000000
0.636344 0.976767 0.000000
0.702420 0.973609 0.000000
0.767897 0.970480 0.000000
0.832829 0.967377 0.000000
0.897264 0.964297 0.000000
0.961240 0.961240 0.000000
1.000000 0.958203 0.000000
0.000000 1.000000 0.000000
0.000000 1.000000 0.000000
0.065959 1.000000 0.000000
0.142285 1.000000 0.000000
0.216058 1.000000 0.000000
0.287990 1.000000 0.000000
0.358487 1.000000 0.000000
0.427813 1.000000 0.000000
0.496153 1.000000 0.000000
0.563641 1.000000 0.000000
0.630382 1.000000 0.000000
0.696457 1.000000 0.000000
0.761934 1.000000 0.000000
0.826867 1.000000 0.000000
0.891302 1.000000 0.000000
0.955277 1.000000 0.000000
1.000000 1.000000 0.000000
0.000000 0.000000 0.178436
0.089717 0.000000 0.173997
0.170153 0.000000 0.170153
0.246479 0.000000 0.166506
0.320252 0.000000 0.162980
0.392184 0.000000 0.159543
0.462681 0.000000 0.156174
0.532008 0.000000 0.152860
0.600347 0.000000 0.149594
0.667835 0.000000 0.146369
0.734576 0.000000 0.143180
0.800652 0.000000 0.140022
0.866129 0.000000 0.136893
0.931061 0.000000 0.133790
0.995496 0.000000 0.130710
1.000000 0.000000 0.127653
1.000000 0.000000 0.124616
0.000000 0.085442 0.169722
0.081004 0.081004 0.165284
0.161440 0.077160 0.161440
0.237765 0.073512 0.157792
0.311539 0.069986 0.154266
0.383470 0.066549 0.150829
0.453968 0.063180 0.147460
0.523294 0.059867 0.144147
0.591633 0.056601 0.140881
0.659122 0.053375 0.137656
0.725862 0.050186 0.134466
0.791938 0.047028 0.131308
0.857415 0.043899 0.128179
0.922348 0.040796 0.125076
0.986782 0.037717 0.121997
1.000000 0.034659 0.118939
1.000000 0.031622 0.115902
0.000000 0.162176 0.162176
0.073457 0.157737 0.157737
0.153893 0.153893 0.153893
0.230219 0.150245 0.150245
0.303992 0.146720 0.146720
0.375924 0.143282 0.143282
0.446421 0.139913 0.139913
0.515747 0.136600 0.136600
0.584087 0.133334 0.133334
0.651575 0.130109 0.130109
0.718316 0.126919 0.126919
0.784391 0.123762 0.123762
0.849868 0.120632 0.120632
0.914801 0.117529 0.117529
0.979236 0.114450 0.114450
1.000000 0.111393 0.111393
1.000000 0.108356 0.108356
0.000000 0.234988 0.155015
0.066296 0.230549 0.150576
0.146732 0.226705 0.146732
0.223058 0.223058 0.143084
0.296831 0.219532 0.139559
0.368763 0.216095 0.136121
0.439260 0.212726 0.132752
0.508586 0.209412 0.129439
0.576926 0.206146 0.126173
0.644414 0.202921 0.122948
0.711155 0.199732 0.119758
0.777230 0.196574 0.116601
0.842707 0.193445 0.113471
0.907640 0.190342 0.110368
0.972075 0.187262 0.107289
1.000000 0.184205 0.104232
1.000000 0.181168 0.101195
0.000000 0.305365 0.148093
0.059374 0.300927 0.143655
0.139811 0.297083 0.139811
0.216136 0.293435 0.136163
0.289910 0.289910 0.132637
0.361841 0.286472 0.129200
0.432338 0.283103 0.125831
0.501665 0.279790 0.122518
0.570004 0.276524 0.119252
0.637492 0.273299 0.116026
0.704233 0.270109 0.112837
0.770309 0.266951 0.109679
0.835786 0.263822 0.106550
0.900719 0.260719 0.103447
0.965153 0.257640 0.100367
1.000000 0.254582 0.097310
1.000000 0.251545 0.094273
0.000000 0.373986 0.141344
0.052626 0.369547 0.136906
0.133062 0.365703 0.133062
0.209388 0.362056 0.129414
0.283161 0.358530 0.125889
0.355092 0.355092 0.122451
0.425590 0.351723 0.119082
0.494916 0.348410 0.115769
0.563255 0.345144 0.112503
0.630744 0.341919 0.109278
0.697485 0.338730 0.106088
0.763560 0.335572 0.102930
0.829037 0.332443 0.099801
0.893970 0.329340 0.096698
0.958405 0.326260 0.093619
1.000000 0.323203 0.090561
1.000000 0.320166 0.087524
0.000000 0.441238 0.134730
0.046012 0.436799 0.130292
0.126448 0.432955 0.126448
0.202773 0.429308 0.122800
0.276547 0.425782 0.119274
0.348478 0.422345 0.115837
0.418975 0.418975 0.112468
0.488302 0.415662 0.109155
0.556641 0.412396 0.105889
0.624129 0.409171 0.102663
0.690870 0.405982 0.099474
0.756946 0.402824 0.096316
0.822423 0.399695 0.093187
0.887356 0.396592 0.090084
0.951790 0.393512 0.087005
1.000000 0.390455 0.083947
1.000000 0.387418 0.080910
0.000000 0.507373 0.128226
0.039507 0.502934 0.123787
0.119943 0.499090 0.119943
0.196269 0.495443 0.116296
0.270042 0.491917 0.112770
0.341974 0.488480 0.109333
0.412471 0.485111 0.105963
0.481797 0.481797 0.102650
0.550137 0.478532 0.099384
0.617625 0.475306 0.096159
0.684366 0.472117 0.092970
0.750442 0.468959 0.089812
0.815919 0.465830 0.086683
0.880851 0.462727 0.083580
0.945286 0.459647 0.080500
1.000000 0.456590 0.077443
1.000000 0.453553 0.074406
0.000000 0.572567 0.121814
0.033096 0.568128 0.117376
0.113532 0.564284 0.113532
0.189857 0.560637 0.109884
0.263631 0.557111 0.106358
0.335562 0.553673 0.102921
0.406059 0.550304 0.099552
0.475386 0.546991 0.096239
0.543725 0.543725 0.092973
0.611213 0.540500 0.089747
0.677954 0.537310 0.086558
0.744030 0.534153 0.083400
0.809507 0.531024 0.080271
0.874440 0.527920 0.077168
0.938874 0.524841 0.074089
1.000000 0.521784 0.071031
1.000000 0.518747 0.067994
0.000000 0.636948 0.115482
0.026764 0.632510 0.111044
0.107200 0.628666 0.107200
0.183525 0.625018 0.103552
0.257299 0.621493 0.100027
0.329230 0.618055 0.096589
0.399728 0.614686 0.093220
0.469054 0.611373 0.089907
0.537393 0.608107 0.086641
0.604882 0.604882 0.083416
0.671623 0.601692 0.080226
0.737698 0.598534 0.077068
0.803175 0.595405 0.073939
0.868108 0.592302 0.070836
0.932542 0.589223 0.067757
0.996518 0.586165 0.064699
1.000000 0.583128 0.061662
0.000000 0.700617 0.109221
0.020502 0.696178 0.104782
0.100938 0.692334 0.100938
0.177264 0.688687 0.097290
0.251037 0.685161 0.093765
0.322969 0.681724 0.090327
0.393466 0.678355 0.086958
0.462792 0.675042 0.083645
0.531132 0.671776 0.080379
0.598620 0.668550 0.077154
0.665361 0.665361 0.073964
0.731436 0.662203 0.070807
0.796913 0.659074 0.067677
0.861846 0.655971 0.064574
0.926281 0.652891 0.061495
0.990256 0.649834 0.058438
1.000000 0.646797 0.055401
0.000000 0.763651 0.103021
0.014303 0.759213 0.098583
0.094739 0.755369 0.094739
0.171064 0.751721 0.091091
0.244838 0.748195 0.087565
0.316769 0.744758 0.084128
0.387267 0.741389 0.080759
0.456593 0.738076 0.077446
0.524932 0.734810 0.074180
0.592421 0.731584 0.070955
0.659161 0.728395 0.067765
0.725237 0.725237 0.064607
0.790714 0.722108 0.061478
0.855647 0.719005 0.058375
0.920081 0.715926 0.055296
0.984057 0.712868 0.052238
1.000000 0.709831 0.049201
0.000000 0.826114 0.096878
0.008159 0.821675 0.092440
0.088596 0.817831 0.088596
0.164921 0.814184 0.084948
0.238695 0.810658 0.081422
0.310626 0.807221 0.077985
0.381123 0.803851 0.074616
0.450450 0.800538 0.071303
0.518789 0.797272 0.068037
0.586277 0.794047 0.064811
0.653018 0.790858 0.061622
0.719094 0.787700 0.058464
0.784571 0.784571 0.055335
0.849504 0.781468 0.052232
0.913938 0.778388 0.049153
0.977914 0.775331 0.046095
1.000000 0.772294 0.043058
0.000000 0.888058 0.090786
0.002067 0.883619 0.086347
0.082503 0.879775 0.082503
0.158829 0.876128 0.078856
0.232602 0.872602 0.075330
0.304534 0.869164 0.071893
0.375031 0.865795 0.068524
0.444358 0.862482 0.065210
0.512697 0.859216 0.061945
0.580185 0.855991 0.058719
0.646926 0.852801 0.055530
0.713002 0.849644 0.052372
0.778479 0.846515 0.049243
0.843411 0.843411 0.046140
0.907846 0.840332 0.043060
0.971822 0.837275 0.040003
1.000000 0.834238 0.036966
0.000000 0.949526 0.084741
0.000000 0.945088 0.080302
0.076458 0.941244 0.076458
0.152784 0.937596 0.072810
0.226557 0.934071 0.069285
0.298489 0.930633 0.065847
0.368986 0.927264 0.062478
0.438312 0.923951 0.059165
0.506652 0.920685 0.055899
0.574140 0.917460 0.052674
0.640881 0.914270 0.049484
0.706957 0.911112 0.046327
0.772433 0.907983 0.043198
0.837366 0.904880 0.040094
0.901801 0.901801 0.037015
0.965777 0.898743 0.033958
1.000000 0.895706 0.030921
0.000000 1.000000 0.078738
0.000000 1.000000 0.074300
0.070456 1.000000 0.070456
0.146782 0.998627 0.066808
0.220555 0.995101 0.063283
0.292486 0.991664 0.059845
0.362984 0.988295 0.056476
0.432310 0.984982 0.053163
0.500649 0.981716 0.049897
0.568138 0.978490 0.046672
0.634879 0.975301 0.043482
0.700954 0.972143 0.040324
0.766431 0.969014 0.037195
0.831364 0.965911 0.034092
0.895799 0.962832 0.031013
0.959774 0.959774 0.027955
1.000000 0.956737 0.024918
0.000000 1.000000 0.072776
0.000000 1.000000 0.068337
0.064493 1.000000 0.064493
0.140819 1.000000 0.060846
0.214592 1.000000 0.057320
0.286524 1.000000 0.053883
0.357021 1.000000 0.050514
0.426348 1.000000 0.047200
0.494687 1.000000 0.043934
0.562175 1.000000 0.040709
0.628916 1.000000 0.037520
0.694992 1.000000 0.034362
0.760469 1.000000 0.031233
0.825401 1.000000 0.028130
0.889836 1.000000 0.025050
0.953812 1.000000 0.021993
1.000000 1.000000 0.018956
0.000000 0.000000 0.257019
0.088327 0.000000 0.252580
0.168763 0.000000 0.248736
0.245088 0.000000 0.245088
0.318862 0.000000 0.241563
0.390793 0.000000 0.238125
0.461291 0.000000 0.234756
0.530617 0.000000 0.231443
0.598956 0.000000 0.228177
0.666445 0.000000 0.224952
0.733185 0.000000 0.221762
0.799261 0.000000 0.218605
0.864738 0.000000 0.215475
0.929671 0.000000 0.212372
0.994105 0.000000 0.209293
1.000000 0.000000 0.206236
