app/assets/luts/06_vivid_pop.cube
TITLE "Pocket Vivid Pop"
# 适度提饱和与对比，色彩更跳。
# Pocket Live Capture built-in preset (free to use)
# POCKET_CUBE_ORDER=rgb_fastest
LUT_3D_SIZE 5
0.000000 0.000000 0.000000
0.323410 0.000000 0.000000
0.603505 0.000000 0.000000
0.869287 0.000000 0.000000
1.000000 0.000000 0.000000
0.000000 0.308523 0.000000
0.293067 0.293067 0.000000
0.573162 0.279682 0.000000
0.838944 0.266980 0.000000
1.000000 0.254703 0.000000
0.000000 0.575725 0.000000
0.266788 0.560269 0.000000
0.546883 0.546883 0.000000
0.812665 0.534181 0.000000
1.000000 0.521905 0.000000
0.000000 0.829272 0.000000
0.241852 0.813816 0.000000
0.521947 0.800430 0.000000
0.787729 0.787729 0.000000
1.000000 0.775452 0.000000
0.000000 1.000000 0.000000
0.217750 1.000000 0.000000
0.497845 1.000000 0.000000
0.763627 1.000000 0.000000
1.000000 1.000000 0.000000
0.000000 0.000000 0.332973
0.317517 0.000000 0.317517
0.597612 0.000000 0.304132
0.863394 0.000000 0.291430
1.000000 0.000000 0.279153
0.000000 0.302630 0.302630
0.287175 0.287175 0.287175
0.567269 0.273789 0.273789
0.833051 0.261087 0.261087
1.000000 0.248810 0.248810
0.000000 0.569832 0.276351
0.260896 0.554376 0.260896
0.540990 0.540990 0.247510
0.806772 0.528289 0.234808
1.000000 0.516012 0.222531
0.000000 0.823379 0.251415
0.235960 0.807923 0.235960
0.516054 0.794538 0.222574
0.781836 0.781836 0.209872
1.000000 0.769559 0.197595
0.000000 1.000000 0.227313
0.211857 1.000000 0.211857
0.491952 1.000000 0.198472
0.757734 1.000000 0.185770
1.000000 1.000000 0.173493
0.000000 0.000000 0.621350
0.312414 0.000000 0.605894
0.592509 0.000000 0.592509
0.858290 0.000000 0.579807
1.000000 0.000000 0.567530
0.000000 0.297527 0.591007
0.282071 0.282071 0.575551
0.562166 0.268685 0.562166
0.827947 0.255984 0.549464
1.000000 0.243707 0.537187
0.000000 0.564728 0.564728
0.255792 0.549272 0.549272
0.535887 0.535887 0.535887
0.801668 0.523185 0.523185
1.000000 0.510908 0.510908
0.000000 0.818275 0.539792
0.230856 0.802820 0.524336
0.510951 0.789434 0.510951
0.776732 0.776732 0.498249
1.000000 0.764455 0.485972
0.000000 1.000000 0.515690
0.206754 1.000000 0.500234
0.486849 1.000000 0.486849
0.752630 1.000000 0.474147
1.000000 1.000000 0.461870
0.000000 0.000000 0.894990
0.307571 0.000000 0.879535
0.587666 0.000000 0.866149
0.853447 0.000000 0.853447
1.000000 0.000000 0.841170
0.000000 0.292684 0.864648
0.277228 0.277228 0.849192
0.557323 0.263843 0.835806
0.823104 0.251141 0.823104
1.000000 0.238864 0.810828
0.000000 0.559885 0.838369
0.250949 0.544430 0.822913
0.531044 0.531044 0.809527
0.796826 0.518342 0.796826
1.000000 0.506065 0.784549
0.000000 0.813433 0.813433
0.226013 0.797977 0.797977
0.506108 0.784591 0.784591
0.771890 0.771890 0.771890
1.000000 0.759613 0.759613
0.000000 1.000000 0.789330
0.201911 1.000000 0.773875
0.482006 1.000000 0.760489
0.747787 1.000000 0.747787
1.000000 1.000000 0.735510
0.000000 0.000000 1.000000
0.302890 0.000000 1.000000
0.582985 0.000000 1.000000
0.848767 0.000000 1.000000
1.000000 0.000000 1.000000
0.000000 0.288003 1.000000
0.272547 0.272547 1.000000
0.552642 0.259162 1.000000
0.818424 0.246460 1.000000
1.000000 0.234183 1.000000
0.000000 0.555205 1.000000
0.246268 0.539749 1.000000
0.526363 0.526363 1.000000
0.792145 0.513661 1.000000
1.000000 0.501385 1.000000
0.000000 0.808752 1.000000
0.221332 0.793296 1.000000
0.501427 0.779910 1.000000
0.767209 0.767209 1.000000
1.000000 0.754932 1.000000
0.000000 1.000000 1.000000
0.197230 1.000000 1.000000
0.477325 1.000000 1.000000
0.743107 1.000000 1.000000
1.000000 1.000000 1.000000
