app/assets/luts/06_vivid_pop.cube
TITLE "Pocket Vivid Pop"
# 适度提饱和与对比，色彩更跳。
# Pocket Live Capture built-in preset (free to use)
# POCKET_CUBE_ORDER=rgb_fastest
LUT_3D_SIZE 9
0.000000 0.000000 0.000000
0.173311 0.000000 0.000000
0.323410 0.000000 0.000000
0.465839 0.000000 0.000000
0.603505 0.000000 0.000000
0.737734 0.000000 0.000000
0.869287 0.000000 0.000000
0.998654 0.000000 0.000000
1.000000 0.000000 0.000000
0.000000 0.165333 0.000000
0.157051 0.157051 0.000000
0.307150 0.149878 0.000000
0.449579 0.143071 0.000000
0.587245 0.136492 0.000000
0.721474 0.130077 0.000000
0.853026 0.123790 0.000000
0.982394 0.117608 0.000000
1.000000 0.111513 0.000000
0.000000 0.308523 0.000000
0.142968 0.300241 0.000000
0.293067 0.293067 0.000000
0.435496 0.286261 0.000000
0.573162 0.279682 0.000000
0.707391 0.273267 0.000000
0.838944 0.266980 0.000000
0.968311 0.260798 0.000000
1.000000 0.254703 0.000000
0.000000 0.444396 0.000000
0.129606 0.436113 0.000000
0.279705 0.428940 0.000000
0.422133 0.422133 0.000000
0.559799 0.415554 0.000000
0.694028 0.409140 0.000000
0.825581 0.402853 0.000000
0.954948 0.396670 0.000000
1.000000 0.390576 0.000000
0.000000 0.575725 0.000000
0.116689 0.567442 0.000000
0.266788 0.560269 0.000000
0.409217 0.553462 0.000000
0.546883 0.546883 0.000000
0.681112 0.540468 0.000000
0.812665 0.534181 0.000000
0.942032 0.527999 0.000000
1.000000 0.521905 0.000000
0.000000 0.703775 0.000000
0.104096 0.695492 0.000000
0.254195 0.688319 0.000000
0.396624 0.681512 0.000000
0.534290 0.674933 0.000000
0.668519 0.668519 0.000000
0.800071 0.662232 0.000000
0.929439 0.656049 0.000000
1.000000 0.649955 0.000000
0.000000 0.829272 0.000000
0.091753 0.820989 0.000000
0.241852 0.813816 0.000000
0.384281 0.807009 0.000000
0.521947 0.800430 0.000000
0.656176 0.794016 0.000000
0.787729 0.787729 0.000000
0.917096 0.781546 0.000000
1.000000 0.775452 0.000000
0.000000 0.952684 0.000000
0.079616 0.944402 0.000000
0.229715 0.937229 0.000000
0.372144 0.930422 0.000000
0.509810 0.923843 0.000000
0.644039 0.917428 0.000000
0.775591 0.911141 0.000000
0.904959 0.904959 0.000000
1.000000 0.898864 0.000000
0.000000 1.000000 0.000000
0.067651 1.000000 0.000000
0.217750 1.000000 0.000000
0.360179 1.000000 0.000000
0.497845 1.000000 0.000000
0.632074 1.000000 0.000000
0.763627 1.000000 0.000000
0.892994 1.000000 0.000000
1.000000 1.000000 0.000000
0.000000 0.000000 0.178436
0.170153 0.000000 0.170153
0.320252 0.000000 0.162980
0.462681 0.000000 0.156174
0.600347 0.000000 0.149594
0.734576 0.000000 0.143180
0.866129 0.000000 0.136893
0.995496 0.000000 0.130710
1.000000 0.000000 0.124616
0.000000 0.162176 0.162176
0.153893 0.153893 0.153893
0.303992 0.146720 0.146720
0.446421 0.139913 0.139913
0.584087 0.133334 0.133334
0.718316 0.126919 0.126919
0.849868 0.120632 0.120632
0.979236 0.114450 0.114450
1.000000 0.108356 0.108356
0.000000 0.305365 0.148093
0.139811 0.297083 0.139811
0.289910 0.289910 0.132637
0.432338 0.283103 0.125831
0.570004 0.276524 0.119252
0.704233 0.270109 0.112837
0.835786 0.263822 0.106550
0.965153 0.257640 0.100367
1.000000 0.251545 0.094273
0.000000 0.441238 0.134730
0.126448 0.432955 0.126448
0.276547 0.425782 0.119274
0.418975 0.418975 0.112468
0.556641 0.412396 0.105889
0.690870 0.405982 0.099474
0.822423 0.399695 0.093187
0.951790 0.393512 0.087005
1.000000 0.387418 0.080910
0.000000 0.572567 0.121814
0.113532 0.564284 0.113532
0.263631 0.557111 0.106358
0.406059 0.550304 0.099552
0.543725 0.543725 0.092973
0.677954 0.537310 0.086558
0.809507 0.531024 0.080271
0.938874 0.524841 0.074089
1.000000 0.518747 0.067994
0.000000 0.700617 0.109221
0.100938 0.692334 0.100938
0.251037 0.685161 0.093765
0.393466 0.678355 0.086958
0.531132 0.671776 0.080379
0.665361 0.665361 0.073964
0.796913 0.659074 0.067677
0.926281 0.652891 0.061495
1.000000 0.646797 0.055401
0.000000 0.826114 0.096878
0.088596 0.817831 0.088596
0.238695 0.810658 0.081422
0.381123 0.803851 0.074616
0.518789 0.797272 0.068037
0.653018 0.790858 0.061622
0.784571 0.784571 0.055335
0.913938 0.778388 0.049153
1.000000 0.772294 0.043058
0.000000 0.949526 0.084741
0.076458 0.941244 0.076458
0.226557 0.934071 0.069285
0.368986 0.927264 0.062478
0.506652 0.920685 0.055899
0.640881 0.914270 0.049484
0.772433 0.907983 0.043198
0.901801 0.901801 0.037015
1.000000 0.895706 0.030921
0.000000 1.000000 0.072776
0.064493 1.000000 0.064493
0.214592 1.000000 0.057320
0.357021 1.000000 0.050514
0.494687 1.000000 0.043934
0.628916 1.000000 0.037520
0.760469 1.000000 0.031233
0.889836 1.000000 0.025050
1.000000 1.000000 0.018956
0.000000 0.000000 0.332973
0.167418 0.000000 0.324691
0.317517 0.000000 0.317517
0.459946 0.000000 0.310711
0.597612 0.000000 0.304132
0.731841 0.000000 0.297717
0.863394 0.000000 0.291430
0.992761 0.000000 0.285248
1.000000 0.000000 0.279153
0.000000 0.159441 0.316713
0.151158 0.151158 0.308430
0.301257 0.143985 0.301257
0.443686 0.137178 0.294450
0.581352 0.130599 0.287871
0.715581 0.124184 0.281457
0.847133 0.117898 0.275170
0.976501 0.111715 0.268987
1.000000 0.105621 0.262893
0.000000 0.302630 0.302630
0.137076 0.294348 0.294348
0.287175 0.287175 0.287175
0.429603 0.280368 0.280368
0.567269 0.273789 0.273789
0.701498 0.267374 0.267374
0.833051 0.261087 0.261087
0.962418 0.254905 0.254905
1.000000 0.248810 0.248810
0.000000 0.438503 0.289267
0.123713 0.430220 0.280985
0.273812 0.423047 0.273812
0.416241 0.416241 0.267005
0.553906 0.409661 0.260426
0.688135 0.403247 0.254011
0.819688 0.396960 0.247724
0.949055 0.390777 0.241542
1.000000 0.384683 0.235447
0.000000 0.569832 0.276351
0.110797 0.561549 0.268069
0.260896 0.554376 0.260896
0.403324 0.547569 0.254089
0.540990 0.540990 0.247510
0.675219 0.534576 0.241095
0.806772 0.528289 0.234808
0.936139 0.522106 0.228626
1.000000 0.516012 0.222531
0.000000 0.697882 0.263758
0.098203 0.689600 0.255475
0.248302 0.682426 0.248302
0.390731 0.675620 0.241495
0.528397 0.669041 0.234916
0.662626 0.662626 0.228502
0.794178 0.656339 0.222215
0.923546 0.650157 0.216032
1.000000 0.644062 0.209938
0.000000 0.823379 0.251415
0.085861 0.815096 0.243133
0.235960 0.807923 0.235960
0.378388 0.801117 0.229153
0.516054 0.794538 0.222574
0.650283 0.788123 0.216159
0.781836 0.781836 0.209872
0.911203 0.775653 0.203690
1.000000 0.769559 0.197595
0.000000 0.946791 0.239278
0.073723 0.938509 0.230995
0.223822 0.931336 0.223822
0.366251 0.924529 0.217015
0.503917 0.917950 0.210436
0.638146 0.911535 0.204022
0.769698 0.905248 0.197735
0.899066 0.899066 0.191552
1.000000 0.892971 0.185458
0.000000 1.000000 0.227313
0.061758 1.000000 0.219031
0.211857 1.000000 0.211857
0.354286 1.000000 0.205051
0.491952 1.000000 0.198472
0.626181 1.000000 0.192057
0.757734 1.000000 0.185770
0.887101 1.000000 0.179588
1.000000 1.000000 0.173493
0.000000 0.000000 0.479614
0.164823 0.000000 0.471331
0.314922 0.000000 0.464158
0.457351 0.000000 0.457351
0.595017 0.000000 0.450772
0.729246 0.000000 0.444357
0.860799 0.000000 0.438070
0.990166 0.000000 0.431888
1.000000 0.000000 0.425794
0.000000 0.156845 0.463353
0.148563 0.148563 0.455071
0.298662 0.141390 0.447897
0.441091 0.134583 0.441091
0.578757 0.128004 0.434512
0.712986 0.121589 0.428097
0.844538 0.115302 0.421810
0.973906 0.109120 0.415628
1.000000 0.103025 0.409533
0.000000 0.300035 0.449271
0.134480 0.291753 0.440988
0.284579 0.284579 0.433815
0.427008 0.277773 0.427008
0.564674 0.271194 0.420429
0.698903 0.264779 0.414014
0.830456 0.258492 0.407728
0.959823 0.252310 0.401545
1.000000 0.246215 0.395451
0.000000 0.435908 0.435908
0.121118 0.427625 0.427625
0.271217 0.420452 0.420452
0.413645 0.413645 0.413645
0.551311 0.407066 0.407066
0.685540 0.400652 0.400652
0.817093 0.394365 0.394365
0.946460 0.388182 0.388182
1.000000 0.382088 0.382088
0.000000 0.567237 0.422992
0.108201 0.558954 0.414709
0.258300 0.551781 0.407536
0.400729 0.544974 0.400729
0.538395 0.538395 0.394150
0.672624 0.531980 0.387735
0.804177 0.525693 0.381449
0.933544 0.519511 0.375266
1.000000 0.513417 0.369172
0.000000 0.695287 0.410398
0.095608 0.687004 0.402116
0.245707 0.679831 0.394942
0.388136 0.673024 0.388136
0.525802 0.666445 0.381557
0.660031 0.660031 0.375142
0.791583 0.653744 0.368855
0.920951 0.647561 0.362673
1.000000 0.641467 0.356578
0.000000 0.820784 0.398056
0.083265 0.812501 0.389773
0.233364 0.805328 0.382600
0.375793 0.798521 0.375793
0.513459 0.791942 0.369214
0.647688 0.785528 0.362799
0.779241 0.779241 0.356513
0.908608 0.773058 0.350330
1.000000 0.766964 0.344236
0.000000 0.944196 0.385918
0.071128 0.935914 0.377636
0.221227 0.928741 0.370462
0.363656 0.921934 0.363656
0.501322 0.915355 0.357077
0.635551 0.908940 0.350662
0.767103 0.902653 0.344375
0.896471 0.896471 0.338193
1.000000 0.890376 0.332098
0.000000 1.000000 0.373954
0.059163 1.000000 0.365671
0.209262 1.000000 0.358498
0.351691 1.000000 0.351691
0.489357 1.000000 0.345112
0.623586 1.000000 0.338697
0.755139 1.000000 0.332410
0.884506 1.000000 0.326228
1.000000 1.000000 0.320134
0.000000 0.000000 0.621350
0.162315 0.000000 0.613067
0.312414 0.000000 0.605894
0.454843 0.000000 0.599088
0.592509 0.000000 0.592509
0.726738 0.000000 0.586094
0.858290 0.000000 0.579807
0.987658 0.000000 0.573624
1.000000 0.000000 0.567530
0.000000 0.154337 0.605090
0.146055 0.146055 0.596807
0.296154 0.138881 0.589634
0.438582 0.132075 0.582827
0.576248 0.125496 0.576248
0.710477 0.119081 0.569833
0.842030 0.112794 0.563547
0.971397 0.106612 0.557364
1.000000 0.100517 0.551270
0.000000 0.297527 0.591007
0.131972 0.289244 0.582725
0.282071 0.282071 0.575551
0.424500 0.275264 0.568745
0.562166 0.268685 0.562166
0.696395 0.262271 0.555751
0.827947 0.255984 0.549464
0.957315 0.249801 0.543282
1.000000 0.243707 0.537187
0.000000 0.433399 0.577644
0.118609 0.425117 0.569362
0.268708 0.417944 0.562188
0.411137 0.411137 0.555382
0.548803 0.404558 0.548803
0.683032 0.398143 0.542388
0.814584 0.391856 0.536101
0.943952 0.385674 0.529919
1.000000 0.379579 0.523824
0.000000 0.564728 0.564728
0.105693 0.556446 0.556446
0.255792 0.549272 0.549272
0.398221 0.542466 0.542466
0.535887 0.535887 0.535887
0.670116 0.529472 0.529472
0.801668 0.523185 0.523185
0.931036 0.517003 0.517003
1.000000 0.510908 0.510908
0.000000 0.692778 0.552135
0.093099 0.684496 0.543852
0.243199 0.677323 0.536679
0.385627 0.670516 0.529872
0.523293 0.663937 0.523293
0.657522 0.657522 0.516878
0.789075 0.651235 0.510591
0.918442 0.645053 0.504409
1.000000 0.638958 0.498315
0.000000 0.818275 0.539792
0.080757 0.809993 0.531510
0.230856 0.802820 0.524336
0.373285 0.796013 0.517530
0.510951 0.789434 0.510951
0.645180 0.783019 0.504536
0.776732 0.776732 0.498249
0.906100 0.770550 0.492067
1.000000 0.764455 0.485972
0.000000 0.941688 0.527655
0.068620 0.933405 0.519372
0.218719 0.926232 0.512199
0.361147 0.919425 0.505392
0.498813 0.912846 0.498813
0.633042 0.906432 0.492398
0.764595 0.900145 0.486112
0.893962 0.893962 0.479929
1.000000 0.887868 0.473835
0.000000 1.000000 0.515690
0.056655 1.000000 0.507407
0.206754 1.000000 0.500234
0.349183 1.000000 0.493428
0.486849 1.000000 0.486849
0.621078 1.000000 0.480434
0.752630 1.000000 0.474147
0.881998 1.000000 0.467964
1.000000 1.000000 0.461870
0.000000 0.000000 0.759548
0.159869 0.000000 0.751266
0.309968 0.000000 0.744092
0.452397 0.000000 0.737286
0.590063 0.000000 0.730707
0.724292 0.000000 0.724292
0.855844 0.000000 0.718005
0.985212 0.000000 0.711823
1.000000 0.000000 0.705728
0.000000 0.151891 0.743288
0.143609 0.143609 0.735005
0.293708 0.136436 0.727832
0.436137 0.129629 0.721025
0.573802 0.123050 0.714446
0.708032 0.116635 0.708032
0.839584 0.110348 0.701745
0.968952 0.104166 0.695562
1.000000 0.098071 0.689468
0.000000 0.295081 0.729205
0.129526 0.286798 0.720923
0.279625 0.279625 0.713749
0.422054 0.272819 0.706943
0.559720 0.266240 0.700364
0.693949 0.259825 0.693949
0.825501 0.253538 0.687662
0.954869 0.247355 0.681480
1.000000 0.241261 0.675385
0.000000 0.430954 0.715842
0.116163 0.422671 0.707560
0.266262 0.415498 0.700387
0.408691 0.408691 0.693580
0.546357 0.402112 0.687001
0.680586 0.395697 0.680586
0.812139 0.389410 0.674299
0.941506 0.383228 0.668117
1.000000 0.377134 0.662022
0.000000 0.562282 0.702926
0.103247 0.554000 0.694644
0.253346 0.546827 0.687471
0.395775 0.540020 0.680664
0.533441 0.533441 0.674085
0.667670 0.527026 0.667670
0.799223 0.520739 0.661383
0.928590 0.514557 0.655201
1.000000 0.508462 0.649106
0.000000 0.690333 0.690333
0.090654 0.682050 0.682050
0.240753 0.674877 0.674877
0.383182 0.668070 0.668070
0.520847 0.661491 0.661491
0.655076 0.655076 0.655076
0.786629 0.648790 0.648790
0.915996 0.642607 0.642607
1.000000 0.636513 0.636513
0.000000 0.815830 0.677990
0.078311 0.807547 0.669708
0.228410 0.800374 0.662535
0.370839 0.793567 0.655728
0.508505 0.786988 0.649149
0.642734 0.780573 0.642734
0.774287 0.774287 0.636447
0.903654 0.768104 0.630265
1.000000 0.762010 0.624170
0.000000 0.939242 0.665853
0.066174 0.930960 0.657570
0.216273 0.923786 0.650397
0.358702 0.916980 0.643590
0.496367 0.910401 0.637011
0.630597 0.903986 0.630597
0.762149 0.897699 0.624310
0.891517 0.891517 0.618127
1.000000 0.885422 0.612033
0.000000 1.000000 0.653888
0.054209 1.000000 0.645606
0.204308 1.000000 0.638432
0.346737 1.000000 0.631626
0.484403 1.000000 0.625047
0.618632 1.000000 0.618632
0.750184 1.000000 0.612345
0.879552 1.000000 0.606163
1.000000 1.000000 0.600068
0.000000 0.000000 0.894990
0.157472 0.000000 0.886708
0.307571 0.000000 0.879535
0.450000 0.000000 0.872728
0.587666 0.000000 0.866149
0.721895 0.000000 0.859734
0.853447 0.000000 0.853447
0.982815 0.000000 0.847265
1.000000 0.000000 0.841170
0.000000 0.149494 0.878730
0.141212 0.141212 0.870448
0.291311 0.134039 0.863274
0.433740 0.127232 0.856468
0.571405 0.120653 0.849889
0.705635 0.114238 0.843474
0.837187 0.107951 0.837187
0.966555 0.101769 0.831005
1.000000 0.095674 0.824910
0.000000 0.292684 0.864648
0.127129 0.284401 0.856365
0.277228 0.277228 0.849192
0.419657 0.270422 0.842385
0.557323 0.263843 0.835806
0.691552 0.257428 0.829391
0.823104 0.251141 0.823104
0.952472 0.244958 0.816922
1.000000 0.238864 0.810828
0.000000 0.428557 0.851285
0.113766 0.420274 0.843002
0.263865 0.413101 0.835829
0.406294 0.406294 0.829022
0.543960 0.399715 0.822443
0.678189 0.393300 0.816028
0.809742 0.387013 0.809742
0.939109 0.380831 0.803559
1.000000 0.374737 0.797465
0.000000 0.559885 0.838369
0.100850 0.551603 0.830086
0.250949 0.544430 0.822913
0.393378 0.537623 0.816106
0.531044 0.531044 0.809527
0.665273 0.524629 0.803112
0.796826 0.518342 0.796826
0.926193 0.512160 0.790643
1.000000 0.506065 0.784549
0.000000 0.687936 0.825775
0.088257 0.679653 0.817493
0.238356 0.672480 0.810319
0.380785 0.665673 0.803513
0.518450 0.659094 0.796934
0.652679 0.652679 0.790519
0.784232 0.646393 0.784232
0.913599 0.640210 0.778050
1.000000 0.634116 0.771955
0.000000 0.813433 0.813433
0.075914 0.805150 0.805150
0.226013 0.797977 0.797977
0.368442 0.791170 0.791170
0.506108 0.784591 0.784591
0.640337 0.778176 0.778176
0.771890 0.771890 0.771890
0.901257 0.765707 0.765707
1.000000 0.759613 0.759613
0.000000 0.936845 0.801295
0.063777 0.928563 0.793013
0.213876 0.921389 0.785839
0.356305 0.914583 0.779033
0.493970 0.908004 0.772454
0.628200 0.901589 0.766039
0.759752 0.895302 0.759752
0.889120 0.889120 0.753570
1.000000 0.883025 0.747475
0.000000 1.000000 0.789330
0.051812 1.000000 0.781048
0.201911 1.000000 0.773875
0.344340 1.000000 0.767068
0.482006 1.000000 0.760489
0.616235 1.000000 0.754074
0.747787 1.000000 0.747787
0.877155 1.000000 0.741605
1.000000 1.000000 0.735510
0.000000 0.000000 1.000000
0.155115 0.000000 1.000000
0.305214 0.000000 1.000000
0.447643 0.000000 1.000000
0.585309 0.000000 0.999342
0.719538 0.000000 0.992927
0.851090 0.000000 0.986640
0.980458 0.000000 0.980458
1.000000 0.000000 0.974363
0.000000 0.147137 1.000000
0.138855 0.138855 1.000000
0.288954 0.131681 0.996467
0.431382 0.124875 0.989660
0.569048 0.118296 0.983081
0.703277 0.111881 0.976667
0.834830 0.105594 0.970380
0.964197 0.099412 0.964197
1.000000 0.093317 0.958103
0.000000 0.290327 0.997840
0.124772 0.282044 0.989558
0.274871 0.274871 0.982385
0.417300 0.268064 0.975578
0.554966 0.261485 0.968999
0.689195 0.255071 0.962584
0.820747 0.248784 0.956297
0.950115 0.242601 0.950115
1.000000 0.236507 0.944020
0.000000 0.426199 0.984477
0.111409 0.417917 0.976195
0.261508 0.410744 0.969022
0.403937 0.403937 0.962215
0.541603 0.397358 0.955636
0.675832 0.390943 0.949221
0.807384 0.384656 0.942934
0.936752 0.378474 0.936752
1.000000 0.372379 0.930657
0.000000 0.557528 0.971561
0.098493 0.549246 0.963279
0.248592 0.542072 0.956106
0.391021 0.535266 0.949299
0.528687 0.528687 0.942720
0.662916 0.522272 0.936305
0.794468 0.515985 0.930018
0.923836 0.509803 0.923836
1.000000 0.503708 0.917741
0.000000 0.685579 0.958968
0.085900 0.677296 0.950685
0.235999 0.670123 0.943512
0.378427 0.663316 0.936705
0.516093 0.656737 0.930126
0.650322 0.650322 0.923712
0.781875 0.644035 0.917425
0.911242 0.637853 0.911242
1.000000 0.631759 0.905148
0.000000 0.811075 0.946625
0.073557 0.802793 0.938343
0.223656 0.795620 0.931170
0.366085 0.788813 0.924363
0.503751 0.782234 0.917784
0.637980 0.775819 0.911369
0.769532 0.769532 0.905082
0.898900 0.763350 0.898900
1.000000 0.757255 0.892805
0.000000 0.934488 0.934488
0.061420 0.926205 0.926205
0.211519 0.919032 0.919032
0.353947 0.912226 0.912226
0.491613 0.905646 0.905646
0.625842 0.899232 0.899232
0.757395 0.892945 0.892945
0.886762 0.886762 0.886762
1.000000 0.880668 0.880668
0.000000 1.000000 0.922523
0.049455 1.000000 0.914241
0.199554 1.000000 0.907067
0.341983 1.000000 0.900261
0.479649 1.000000 0.893682
0.613878 1.000000 0.887267
0.745430 1.000000 0.880980
0.874798 1.000000 0.874798
1.000000 1.000000 0.868703
0.000000 0.000000 1.000000
0.152791 0.000000 1.000000
0.302890 0.000000 1.000000
0.445319 0.000000 1.000000
0.582985 0.000000 1.000000
0.717214 0.000000 1.000000
0.848767 0.000000 1.000000
0.978134 0.000000 1.000000
1.000000 0.000000 1.000000
0.000000 0.144813 1.000000
0.136531 0.136531 1.000000
0.286630 0.129358 1.000000
0.429059 0.122551 1.000000
0.566725 0.115972 1.000000
0.700954 0.109557 1.000000
0.832506 0.103270 1.000000
0.961874 0.097088 1.000000
1.000000 0.090993 1.000000
0.000000 0.288003 1.000000
0.122448 0.279721 1.000000
0.272547 0.272547 1.000000
0.414976 0.265741 1.000000
0.552642 0.259162 1.000000
0.686871 0.252747 1.000000
0.818424 0.246460 1.000000
0.947791 0.240278 1.000000
1.000000 0.234183 1.000000
0.000000 0.423876 1.000000
0.109086 0.415593 1.000000
0.259185 0.408420 1.000000
0.401613 0.401613 1.000000
0.539279 0.395034 1.000000
0.673508 0.388620 1.000000
0.805061 0.382333 1.000000
0.934428 0.376150 1.000000
1.000000 0.370056 1.000000
0.000000 0.555205 1.000000
0.096169 0.546922 1.000000
0.246268 0.539749 1.000000
0.388697 0.532942 1.000000
0.526363 0.526363 1.000000
0.660592 0.519948 1.000000
0.792145 0.513661 1.000000
0.921512 0.507479 1.000000
1.000000 0.501385 1.000000
0.000000 0.683255 1.000000
0.083576 0.674972 1.000000
0.233675 0.667799 1.000000
0.376104 0.660992 1.000000
0.513770 0.654413 1.000000
0.647999 0.647999 1.000000
0.779551 0.641712 1.000000
0.908919 0.635529 1.000000
1.000000 0.629435 1.000000
0.000000 0.808752 1.000000
0.071233 0.800469 1.000000
0.221332 0.793296 1.000000
0.363761 0.786489 1.000000
0.501427 0.779910 1.000000
0.635656 0.773496 1.000000
0.767209 0.767209 1.000000
0.896576 0.761026 1.000000
1.000000 0.754932 1.000000
0.000000 0.932164 1.000000
0.059096 0.923882 1.000000
0.209195 0.916709 1.000000
0.351624 0.909902 1.000000
0.489290 0.903323 1.000000
0.623519 0.896908 1.000000
0.755071 0.890621 1.000000
0.884439 0.884439 1.000000
1.000000 0.878344 1.000000
0.000000 1.000000 1.000000
0.047131 1.000000 1.000000
0.197230 1.000000 1.000000
0.339659 1.000000 1.000000
0.477325 1.000000 1.000000
0.611554 1.000000 1.000000
0.743107 1.000000 1.000000
0.872474 1.000000 1.000000
1.000000 1.000000 1.000000
