app/assets/luts/07_high_contrast.cube
TITLE "Pocket High Contrast"
# S 曲线增强明暗对比。
# Pocket Live Capture built-in preset (free to use)
# POCKET_CUBE_ORDER=rgb_fastest
LUT_3D_SIZE 9
0.000000 0.000000 0.000000
0.031250 0.000000 0.000000
0.125000 0.000000 0.000000
0.281250 0.000000 0.000000
0.500000 0.000000 0.000000
0.718750 0.000000 0.000000
0.875000 0.000000 0.000000
0.968750 0.000000 0.000000
1.000000 0.000000 0.000000
0.000000 0.031250 0.000000
0.031250 0.031250 0.000000
0.125000 0.031250 0.000000
0.281250 0.031250 0.000000
0.500000 0.031250 0.000000
0.718750 0.031250 0.000000
0.875000 0.031250 0.000000
0.968750 0.031250 0.000000
1.000000 0.031250 0.000000
0.000000 0.125000 0.000000
0.031250 0.125000 0.000000
0.125000 0.125000 0.000000
0.281250 0.125000 0.000000
0.500000 0.125000 0.000000
0.718750 0.125000 0.000000
0.875000 0.125000 0.000000
0.968750 0.125000 0.000000
1.000000 0.125000 0.000000
0.000000 0.281250 0.000000
0.031250 0.281250 0.000000
0.125000 0.281250 0.000000
0.281250 0.281250 0.000000
0.500000 0.281250 0.000000
0.718750 0.281250 0.000000
0.875000 0.281250 0.000000
0.968750 0.281250 0.000000
1.000000 0.281250 0.000000
0.000000 0.500000 0.000000
0.031250 0.500000 0.000000
0.125000 0.500000 0.000000
0.281250 0.500000 0.000000
0.500000 0.500000 0.000000
0.718750 0.500000 0.000000
0.875000 0.500000 0.000000
0.968750 0.500000 0.000000
1.000000 0.500000 0.000000
0.000000 0.718750 0.000000
0.031250 0.718750 0.000000
0.125000 0.718750 0.000000
0.281250 0.718750 0.000000
0.500000 0.718750 0.000000
0.718750 0.718750 0.000000
0.875000 0.718750 0.000000
0.968750 0.718750 0.000000
1.000000 0.718750 0.000000
0.000000 0.875000 0.000000
0.031250 0.875000 0.000000
0.125000 0.875000 0.000000
0.281250 0.875000 0.000000
0.500000 0.875000 0.000000
0.718750 0.875000 0.000000
0.875000 0.875000 0.000000
0.968750 0.875000 0.000000
1.000000 0.875000 0.000000
0.000000 0.968750 0.000000
0.031250 0.968750 0.000000
0.125000 0.968750 0.000000
0.281250 0.968750 0.000000
0.500000 0.968750 0.000000
0.718750 0.968750 0.000000
0.875000 0.968750 0.000000
0.968750 0.968750 0.000000
1.000000 0.968750 0.000000
0.000000 1.000000 0.000000
0.031250 1.000000 0.000000
0.125000 1.000000 0.000000
0.281250 1.000000 0.000000
0.500000 1.000000 0.000000
0.718750 1.000000 0.000000
0.875000 1.000000 0.000000
0.968750 1.000000 0.000000
1.000000 1.000000 0.000000
0.000000 0.000000 0.031250
0.031250 0.000000 0.031250
0.125000 0.000000 0.031250
0.281250 0.000000 0.031250
0.500000 0.000000 0.031250
0.718750 0.000000 0.031250
0.875000 0.000000 0.031250
0.968750 0.000000 0.031250
1.000000 0.000000 0.031250
0.000000 0.031250 0.031250
0.031250 0.031250 0.031250
0.125000 0.031250 0.031250
0.281250 0.031250 0.031250
0.500000 0.031250 0.031250
0.718750 0.031250 0.031250
0.875000 0.031250 0.031250
0.968750 0.031250 0.031250
1.000000 0.031250 0.031250
0.000000 0.125000 0.031250
0.031250 0.125000 0.031250
0.125000 0.125000 0.031250
0.281250 0.125000 0.031250
0.500000 0.125000 0.031250
0.718750 0.125000 0.031250
0.875000 0.125000 0.031250
0.968750 0.125000 0.031250
1.000000 0.125000 0.031250
0.000000 0.281250 0.031250
0.031250 0.281250 0.031250
0.125000 0.281250 0.031250
0.281250 0.281250 0.031250
0.500000 0.281250 0.031250
0.718750 0.281250 0.031250
0.875000 0.281250 0.031250
0.968750 0.281250 0.031250
1.000000 0.281250 0.031250
0.000000 0.500000 0.031250
0.031250 0.500000 0.031250
0.125000 0.500000 0.031250
0.281250 0.500000 0.031250
0.500000 0.500000 0.031250
0.718750 0.500000 0.031250
0.875000 0.500000 0.031250
0.968750 0.500000 0.031250
1.000000 0.500000 0.031250
0.000000 0.718750 0.031250
0.031250 0.718750 0.031250
0.125000 0.718750 0.031250
0.281250 0.718750 0.031250
0.500000 0.718750 0.031250
0.718750 0.718750 0.031250
0.875000 0.718750 0.031250
0.968750 0.718750 0.031250
1.000000 0.718750 0.031250
0.000000 0.875000 0.031250
0.031250 0.875000 0.031250
0.125000 0.875000 0.031250
0.281250 0.875000 0.031250
0.500000 0.875000 0.031250
0.718750 0.875000 0.031250
0.875000 0.875000 0.031250
0.968750 0.875000 0.031250
1.000000 0.875000 0.031250
0.000000 0.968750 0.031250
0.031250 0.968750 0.031250
0.125000 0.968750 0.031250
0.281250 0.968750 0.031250
0.500000 0.968750 0.031250
0.718750 0.968750 0.031250
0.875000 0.968750 0.031250
0.968750 0.968750 0.031250
1.000000 0.968750 0.031250
0.000000 1.000000 0.031250
0.031250 1.000000 0.031250
0.125000 1.000000 0.031250
0.281250 1.000000 0.031250
0.500000 1.000000 0.031250
0.718750 1.000000 0.031250
0.875000 1.000000 0.031250
0.968750 1.000000 0.031250
1.000000 1.000000 0.031250
0.000000 0.000000 0.125000
0.031250 0.000000 0.125000
0.125000 0.000000 0.125000
0.281250 0.000000 0.125000
0.500000 0.000000 0.125000
0.718750 0.000000 0.125000
0.875000 0.000000 0.125000
0.968750 0.000000 0.125000
1.000000 0.000000 0.125000
0.000000 0.031250 0.125000
0.031250 0.031250 0.125000
0.125000 0.031250 0.125000
0.281250 0.031250 0.125000
0.500000 0.031250 0.125000
0.718750 0.031250 0.125000
0.875000 0.031250 0.125000
0.968750 0.031250 0.125000
1.000000 0.031250 0.125000
0.000000 0.125000 0.125000
0.031250 0.125000 0.125000
0.125000 0.125000 0.125000
0.281250 0.125000 0.125000
0.500000 0.125000 0.125000
0.718750 0.125000 0.125000
0.875000 0.125000 0.125000
0.968750 0.125000 0.125000
1.000000 0.125000 0.125000
0.000000 0.281250 0.125000
0.031250 0.281250 0.125000
0.125000 0.281250 0.125000
0.281250 0.281250 0.125000
0.500000 0.281250 0.125000
0.718750 0.281250 0.125000
0.875000 0.281250 0.125000
0.968750 0.281250 0.125000
1.000000 0.281250 0.125000
0.000000 0.500000 0.125000
0.031250 0.500000 0.125000
0.125000 0.500000 0.125000
0.281250 0.500000 0.125000
0.500000 0.500000 0.125000
0.718750 0.500000 0.125000
0.875000 0.500000 0.125000
0.968750 0.500000 0.125000
1.000000 0.500000 0.125000
0.000000 0.718750 0.125000
0.031250 0.718750 0.125000
0.125000 0.718750 0.125000
0.281250 0.718750 0.125000
0.500000 0.718750 0.125000
0.718750 0.718750 0.125000
0.875000 0.718750 0.125000
0.968750 0.718750 0.125000
1.000000 0.718750 0.125000
0.000000 0.875000 0.125000
0.031250 0.875000 0.125000
0.125000 0.875000 0.125000
0.281250 0.875000 0.125000
0.500000 0.875000 0.125000
0.718750 0.875000 0.125000
0.875000 0.875000 0.125000
0.968750 0.875000 0.125000
1.000000 0.875000 0.125000
0.000000 0.968750 0.125000
0.031250 0.968750 0.125000
0.125000 0.968750 0.125000
0.281250 0.968750 0.125000
0.500000 0.968750 0.125000
0.718750 0.968750 0.125000
0.875000 0.968750 0.125000
0.968750 0.968750 0.125000
1.000000 0.968750 0.125000
0.000000 1.000000 0.125000
0.031250 1.000000 0.125000
0.125000 1.000000 0.125000
0.281250 1.000000 0.125000
0.500000 1.000000 0.125000
0.718750 1.000000 0.125000
0.875000 1.000000 0.125000
0.968750 1.000000 0.125000
1.000000 1.000000 0.125000
0.000000 0.000000 0.281250
0.031250 0.000000 0.281250
0.125000 0.000000 0.281250
0.281250 0.000000 0.281250
0.500000 0.000000 0.281250
0.718750 0.000000 0.281250
0.875000 0.000000 0.281250
0.968750 0.000000 0.281250
1.000000 0.000000 0.281250
0.000000 0.031250 0.281250
0.031250 0.031250 0.281250
0.125000 0.031250 0.281250
0.281250 0.031250 0.281250
0.500000 0.031250 0.281250
0.718750 0.031250 0.281250
0.875000 0.031250 0.281250
0.968750 0.031250 0.281250
1.000000 0.031250 0.281250
0.000000 0.125000 0.281250
0.031250 0.125000 0.281250
0.125000 0.125000 0.281250
0.281250 0.125000 0.281250
0.500000 0.125000 0.281250
0.718750 0.125000 0.281250
0.875000 0.125000 0.281250
0.968750 0.125000 0.281250
1.000000 0.125000 0.281250
0.000000 0.281250 0.281250
0.031250 0.281250 0.281250
0.125000 0.281250 0.281250
0.281250 0.281250 0.281250
0.500000 0.281250 0.281250
0.718750 0.281250 0.281250
0.875000 0.281250 0.281250
0.968750 0.281250 0.281250
1.000000 0.281250 0.281250
0.000000 0.500000 0.281250
0.031250 0.500000 0.281250
0.125000 0.500000 0.281250
0.281250 0.500000 0.281250
0.500000 0.500000 0.281250
0.718750 0.500000 0.281250
0.875000 0.500000 0.281250
0.968750 0.500000 0.281250
1.000000 0.500000 0.281250
0.000000 0.718750 0.281250
0.031250 0.718750 0.281250
0.125000 0.718750 0.281250
0.281250 0.718750 0.281250
0.500000 0.718750 0.281250
0.718750 0.718750 0.281250
0.875000 0.718750 0.281250
0.968750 0.718750 0.281250
1.000000 0.718750 0.281250
0.000000 0.875000 0.281250
0.031250 0.875000 0.281250
0.125000 0.875000 0.281250
0.281250 0.875000 0.281250
0.500000 0.875000 0.281250
0.718750 0.875000 0.281250
0.875000 0.875000 0.281250
0.968750 0.875000 0.281250
1.000000 0.875000 0.281250
0.000000 0.968750 0.281250
0.031250 0.968750 0.281250
0.125000 0.968750 0.281250
0.281250 0.968750 0.281250
0.500000 0.968750 0.281250
0.718750 0.968750 0.281250
0.875000 0.968750 0.281250
0.968750 0.968750 0.281250
1.000000 0.968750 0.281250
0.000000 1.000000 0.281250
0.031250 1.000000 0.281250
0.125000 1.000000 0.281250
0.281250 1.000000 0.281250
0.500000 1.000000 0.281250
0.718750 1.000000 0.281250
0.875000 1.000000 0.281250
0.968750 1.000000 0.281250
1.000000 1.000000 0.281250
0.000000 0.000000 0.500000
0.031250 0.000000 0.500000
0.125000 0.000000 0.500000
0.281250 0.000000 0.500000
0.500000 0.000000 0.500000
0.718750 0.000000 0.500000
0.875000 0.000000 0.500000
0.968750 0.000000 0.500000
1.000000 0.000000 0.500000
0.000000 0.031250 0.500000
0.031250 0.031250 0.500000
0.125000 0.031250 0.500000
0.281250 0.031250 0.500000
0.500000 0.031250 0.500000
0.718750 0.031250 0.500000
0.875000 0.031250 0.500000
0.968750 0.031250 0.500000
1.000000 0.031250 0.500000
0.000000 0.125000 0.500000
0.031250 0.125000 0.500000
0.125000 0.125000 0.500000
0.281250 0.125000 0.500000
0.500000 0.125000 0.500000
0.718750 0.125000 0.500000
0.875000 0.125000 0.500000
0.968750 0.125000 0.500000
1.000000 0.125000 0.500000
0.000000 0.281250 0.500000
0.031250 0.281250 0.500000
0.125000 0.281250 0.500000
0.281250 0.281250 0.500000
0.500000 0.281250 0.500000
0.718750 0.281250 0.500000
0.875000 0.281250 0.500000
0.968750 0.281250 0.500000
1.000000 0.281250 0.500000
0.000000 0.500000 0.500000
0.031250 0.500000 0.500000
0.125000 0.500000 0.500000
0.281250 0.500000 0.500000
0.500000 0.500000 0.500000
0.718750 0.500000 0.500000
0.875000 0.500000 0.500000
0.968750 0.500000 0.500000
1.000000 0.500000 0.500000
0.000000 0.718750 0.500000
0.031250 0.718750 0.500000
0.125000 0.718750 0.500000
0.281250 0.718750 0.500000
0.500000 0.718750 0.500000
0.718750 0.718750 0.500000
0.875000 0.718750 0.500000
0.968750 0.718750 0.500000
1.000000 0.718750 0.500000
0.000000 0.875000 0.500000
0.031250 0.875000 0.500000
0.125000 0.875000 0.500000
0.281250 0.875000 0.500000
0.500000 0.875000 0.500000
0.718750 0.875000 0.500000
0.875000 0.875000 0.500000
0.968750 0.875000 0.500000
1.000000 0.875000 0.500000
0.000000 0.968750 0.500000
0.031250 0.968750 0.500000
0.125000 0.968750 0.500000
0.281250 0.968750 0.500000
0.500000 0.968750 0.500000
0.718750 0.968750 0.500000
0.875000 0.968750 0.500000
0.968750 0.968750 0.500000
1.000000 0.968750 0.500000
0.000000 1.000000 0.500000
0.031250 1.000000 0.500000
0.125000 1.000000 0.500000
0.281250 1.000000 0.500000
0.500000 1.000000 0.500000
0.718750 1.000000 0.500000
0.875000 1.000000 0.500000
0.968750 1.000000 0.500000
1.000000 1.000000 0.500000
0.000000 0.000000 0.718750
0.031250 0.000000 0.718750
0.125000 0.000000 0.718750
0.281250 0.000000 0.718750
0.500000 0.000000 0.718750
0.718750 0.000000 0.718750
0.875000 0.000000 0.718750
0.968750 0.000000 0.718750
1.000000 0.000000 0.718750
0.000000 0.031250 0.718750
0.031250 0.031250 0.718750
0.125000 0.031250 0.718750
0.281250 0.031250 0.718750
0.500000 0.031250 0.718750
0.718750 0.031250 0.718750
0.875000 0.031250 0.718750
0.968750 0.031250 0.718750
1.000000 0.031250 0.718750
0.000000 0.125000 0.718750
0.031250 0.125000 0.718750
0.125000 0.125000 0.718750
0.281250 0.125000 0.718750
0.500000 0.125000 0.718750
0.718750 0.125000 0.718750
0.875000 0.125000 0.718750
0.968750 0.125000 0.718750
1.000000 0.125000 0.718750
0.000000 0.281250 0.718750
0.031250 0.281250 0.718750
0.125000 0.281250 0.718750
0.281250 0.281250 0.718750
0.500000 0.281250 0.718750
0.718750 0.281250 0.718750
0.875000 0.281250 0.718750
0.968750 0.281250 0.718750
1.000000 0.281250 0.718750
0.000000 0.500000 0.718750
0.031250 0.500000 0.718750
0.125000 0.500000 0.718750
0.281250 0.500000 0.718750
0.500000 0.500000 0.718750
0.718750 0.500000 0.718750
0.875000 0.500000 0.718750
0.968750 0.500000 0.718750
1.000000 0.500000 0.718750
0.000000 0.718750 0.718750
0.031250 0.718750 0.718750
0.125000 0.718750 0.718750
0.281250 0.718750 0.718750
0.500000 0.718750 0.718750
0.718750 0.718750 0.718750
0.875000 0.718750 0.718750
0.968750 0.718750 0.718750
1.000000 0.718750 0.718750
0.000000 0.875000 0.718750
0.031250 0.875000 0.718750
0.125000 0.875000 0.718750
0.281250 0.875000 0.718750
0.500000 0.875000 0.718750
0.718750 0.875000 0.718750
0.875000 0.875000 0.718750
0.968750 0.875000 0.718750
1.000000 0.875000 0.718750
0.000000 0.968750 0.718750
0.031250 0.968750 0.718750
0.125000 0.968750 0.718750
0.281250 0.968750 0.718750
0.500000 0.968750 0.718750
0.718750 0.968750 0.718750
0.875000 0.968750 0.718750
0.968750 0.968750 0.718750
1.000000 0.968750 0.718750
0.000000 1.000000 0.718750
0.031250 1.000000 0.718750
0.125000 1.000000 0.718750
0.281250 1.000000 0.718750
0.500000 1.000000 0.718750
0.718750 1.000000 0.718750
0.875000 1.000000 0.718750
0.968750 1.000000 0.718750
1.000000 1.000000 0.718750
0.000000 0.000000 0.875000
0.031250 0.000000 0.875000
0.125000 0.000000 0.875000
0.281250 0.000000 0.875000
0.500000 0.000000 0.875000
0.718750 0.000000 0.875000
0.875000 0.000000 0.875000
0.968750 0.000000 0.875000
1.000000 0.000000 0.875000
0.000000 0.031250 0.875000
0.031250 0.031250 0.875000
0.125000 0.031250 0.875000
0.281250 0.031250 0.875000
0.500000 0.031250 0.875000
0.718750 0.031250 0.875000
0.875000 0.031250 0.875000
0.968750 0.031250 0.875000
1.000000 0.031250 0.875000
0.000000 0.125000 0.875000
0.031250 0.125000 0.875000
0.125000 0.125000 0.875000
0.281250 0.125000 0.875000
0.500000 0.125000 0.875000
0.718750 0.125000 0.875000
0.875000 0.125000 0.875000
0.968750 0.125000 0.875000
1.000000 0.125000 0.875000
0.000000 0.281250 0.875000
0.031250 0.281250 0.875000
0.125000 0.281250 0.875000
0.281250 0.281250 0.875000
0.500000 0.281250 0.875000
0.718750 0.281250 0.875000
0.875000 0.281250 0.875000
0.968750 0.281250 0.875000
1.000000 0.281250 0.875000
0.000000 0.500000 0.875000
0.031250 0.500000 0.875000
0.125000 0.500000 0.875000
0.281250 0.500000 0.875000
0.500000 0.500000 0.875000
0.718750 0.500000 0.875000
0.875000 0.500000 0.875000
0.968750 0.500000 0.875000
1.000000 0.500000 0.875000
0.000000 0.718750 0.875000
0.031250 0.718750 0.875000
0.125000 0.718750 0.875000
0.281250 0.718750 0.875000
0.500000 0.718750 0.875000
0.718750 0.718750 0.875000
0.875000 0.718750 0.875000
0.968750 0.718750 0.875000
1.000000 0.718750 0.875000
0.000000 0.875000 0.875000
0.031250 0.875000 0.875000
0.125000 0.875000 0.875000
0.281250 0.875000 0.875000
0.500000 0.875000 0.875000
0.718750 0.875000 0.875000
0.875000 0.875000 0.875000
0.968750 0.875000 0.875000
1.000000 0.875000 0.875000
0.000000 0.968750 0.875000
0.031250 0.968750 0.875000
0.125000 0.968750 0.875000
0.281250 0.968750 0.875000
0.500000 0.968750 0.875000
0.718750 0.968750 0.875000
0.875000 0.968750 0.875000
0.968750 0.968750 0.875000
1.000000 0.968750 0.875000
0.000000 1.000000 0.875000
0.031250 1.000000 0.875000
0.125000 1.000000 0.875000
0.281250 1.000000 0.875000
0.500000 1.000000 0.875000
0.718750 1.000000 0.875000
0.875000 1.000000 0.875000
0.968750 1.000000 0.875000
1.000000 1.000000 0.875000
0.000000 0.000000 0.968750
0.031250 0.000000 0.968750
0.125000 0.000000 0.968750
0.281250 0.000000 0.968750
0.500000 0.000000 0.968750
0.718750 0.000000 0.968750
0.875000 0.000000 0.968750
0.968750 0.000000 0.968750
1.000000 0.000000 0.968750
0.000000 0.031250 0.968750
0.031250 0.031250 0.968750
0.125000 0.031250 0.968750
0.281250 0.031250 0.968750
0.500000 0.031250 0.968750
0.718750 0.031250 0.968750
0.875000 0.031250 0.968750
0.968750 0.031250 0.968750
1.000000 0.031250 0.968750
0.000000 0.125000 0.968750
0.031250 0.125000 0.968750
0.125000 0.125000 0.968750
0.281250 0.125000 0.968750
0.500000 0.125000 0.968750
0.718750 0.125000 0.968750
0.875000 0.125000 0.968750
0.968750 0.125000 0.968750
1.000000 0.125000 0.968750
0.000000 0.281250 0.968750
0.031250 0.281250 0.968750
0.125000 0.281250 0.968750
0.281250 0.281250 0.968750
0.500000 0.281250 0.968750
0.718750 0.281250 0.968750
0.875000 0.281250 0.968750
0.968750 0.281250 0.968750
1.000000 0.281250 0.968750
0.000000 0.500000 0.968750
0.031250 0.500000 0.968750
0.125000 0.500000 0.968750
0.281250 0.500000 0.968750
0.500000 0.500000 0.968750
0.718750 0.500000 0.968750
0.875000 0.500000 0.968750
0.968750 0.500000 0.968750
1.000000 0.500000 0.968750
0.000000 0.718750 0.968750
0.031250 0.718750 0.968750
0.125000 0.718750 0.968750
0.281250 0.718750 0.968750
0.500000 0.718750 0.968750
0.718750 0.718750 0.968750
0.875000 0.718750 0.968750
0.968750 0.718750 0.968750
1.000000 0.718750 0.968750
0.000000 0.875000 0.968750
0.031250 0.875000 0.968750
0.125000 0.875000 0.968750
0.281250 0.875000 0.968750
0.500000 0.875000 0.968750
0.718750 0.875000 0.968750
0.875000 0.875000 0.968750
0.968750 0.875000 0.968750
1.000000 0.875000 0.968750
0.000000 0.968750 0.968750
0.031250 0.968750 0.968750
0.125000 0.968750 0.968750
0.281250 0.968750 0.968750
0.500000 0.968750 0.968750
0.718750 0.968750 0.968750
0.875000 0.968750 0.968750
0.968750 0.968750 0.968750
1.000000 0.968750 0.968750
0.000000 1.000000 0.968750
0.031250 1.000000 0.968750
0.125000 1.000000 0.968750
0.281250 1.000000 0.968750
0.500000 1.000000 0.968750
0.718750 1.000000 0.968750
0.875000 1.000000 0.968750
0.968750 1.000000 0.968750
1.000000 1.000000 0.968750
0.000000 0.000000 1.000000
0.031250 0.000000 1.000000
0.125000 0.000000 1.000000
0.281250 0.000000 1.000000
0.500000 0.000000 1.000000
0.718750 0.000000 1.000000
0.875000 0.000000 1.000000
0.968750 0.000000 1.000000
1.000000 0.000000 1.000000
0.000000 0.031250 1.000000
0.031250 0.031250 1.000000
0.125000 0.031250 1.000000
0.281250 0.031250 1.000000
0.500000 0.031250 1.000000
0.718750 0.031250 1.000000
0.875000 0.031250 1.000000
0.968750 0.031250 1.000000
1.000000 0.031250 1.000000
0.000000 0.125000 1.000000
0.031250 0.125000 1.000000
0.125000 0.125000 1.000000
0.281250 0.125000 1.000000
0.500000 0.125000 1.000000
0.718750 0.125000 1.000000
0.875000 0.125000 1.000000
0.968750 0.125000 1.000000
1.000000 0.125000 1.000000
0.000000 0.281250 1.000000
0.031250 0.281250 1.000000
0.125000 0.281250 1.000000
0.281250 0.281250 1.000000
0.500000 0.281250 1.000000
0.718750 0.281250 1.000000
0.875000 0.281250 1.000000
0.968750 0.281250 1.000000
1.000000 0.281250 1.000000
0.000000 0.500000 1.000000
0.031250 0.500000 1.000000
0.125000 0.500000 1.000000
0.281250 0.500000 1.000000
0.500000 0.500000 1.000000
0.718750 0.500000 1.000000
0.875000 0.500000 1.000000
0.968750 0.500000 1.000000
1.000000 0.500000 1.000000
0.000000 0.718750 1.000000
0.031250 0.718750 1.000000
0.125000 0.718750 1.000000
0.281250 0.718750 1.000000
0.500000 0.718750 1.000000
0.718750 0.718750 1.000000
0.875000 0.718750 1.000000
0.968750 0.718750 1.000000
1.000000 0.718750 1.000000
0.000000 0.875000 1.000000
0.031250 0.875000 1.000000
0.125000 0.875000 1.000000
0.281250 0.875000 1.000000
0.500000 0.875000 1.000000
0.718750 0.875000 1.000000
0.875000 0.875000 1.000000
0.968750 0.875000 1.000000
1.000000 0.875000 1.000000
0.000000 0.968750 1.000000
0.031250 0.968750 1.000000
0.125000 0.968750 1.000000
0.281250 0.968750 1.000000
0.500000 0.968750 1.000000
0.718750 0.968750 1.000000
0.875000 0.968750 1.000000
0.968750 0.968750 1.000000
1.000000 0.968750 1.000000
0.000000 1.000000 1.000000
0.031250 1.000000 1.000000
0.125000 1.000000 1.000000
0.281250 1.000000 1.000000
0.500000 1.000000 1.000000
0.718750 1.000000 1.000000
0.875000 1.000000 1.000000
0.968750 1.000000 1.000000
1.000000 1.000000 1.000000
