app/assets/luts/07_high_contrast.cube
TITLE "Pocket High Contrast"
# S 曲线增强明暗对比。
# Pocket Live Capture built-in preset (free to use)
# POCKET_CUBE_ORDER=rgb_fastest
LUT_3D_SIZE 17
0.000000 0.000000 0.000000
0.007812 0.000000 0.000000
0.031250 0.000000 0.000000
0.070312 0.000000 0.000000
0.125000 0.000000 0.000000
0.195312 0.000000 0.000000
0.281250 0.000000 0.000000
0.382812 0.000000 0.000000
0.500000 0.000000 0.000000
0.617188 0.000000 0.000000
0.718750 0.000000 0.000000
0.804688 0.000000 0.000000
0.875000 0.000000 0.000000
0.929688 0.000000 0.000000
0.968750 0.000000 0.000000
0.992188 0.000000 0.000000
1.000000 0.000000 0.000000
0.000000 0.007812 0.000000
0.007812 0.007812 0.000000
0.031250 0.007812 0.000000
0.070312 0.007812 0.000000
0.125000 0.007812 0.000000
0.195312 0.007812 0.000000
0.281250 0.007812 0.000000
0.382812 0.007812 0.000000
0.500000 0.007812 0.000000
0.617188 0.007812 0.000000
0.718750 0.007812 0.000000
0.804688 0.007812 0.000000
0.875000 0.007812 0.000000
0.929688 0.007812 0.000000
0.968750 0.007812 0.000000
0.992188 0.007812 0.000000
1.000000 0.007812 0.000000
0.000000 0.031250 0.000000
0.007812 0.031250 0.000000
0.031250 0.031250 0.000000
0.070312 0.031250 0.000000
0.125000 0.031250 0.000000
0.195312 0.031250 0.000000
0.281250 0.031250 0.000000
0.382812 0.031250 0.000000
0.500000 0.031250 0.000000
0.617188 0.031250 0.000000
0.718750 0.031250 0.000000
0.804688 0.031250 0.000000
0.875000 0.031250 0.000000
0.929688 0.031250 0.000000
0.968750 0.031250 0.000000
0.992188 0.031250 0.000000
1.000000 0.031250 0.000000
0.000000 0.070312 0.000000
0.007812 0.070312 0.000000
0.031250 0.070312 0.000000
0.070312 0.070312 0.000000
0.125000 0.070312 0.000000
0.195312 0.070312 0.000000
0.281250 0.070312 0.000000
0.382812 0.070312 0.000000
0.500000 0.070312 0.000000
0.617188 0.070312 0.000000
0.718750 0.070312 0.000000
0.804688 0.070312 0.000000
0.875000 0.070312 0.000000
0.929688 0.070312 0.000000
0.968750 0.070312 0.000000
0.992188 0.070312 0.000000
1.000000 0.070312 0.000000
0.000000 0.125000 0.000000
0.007812 0.125000 0.000000
0.031250 0.125000 0.000000
0.070312 0.125000 0.000000
0.125000 0.125000 0.000000
0.195312 0.125000 0.000000
0.281250 0.125000 0.000000
0.382812 0.125000 0.000000
0.500000 0.125000 0.000000
0.617188 0.125000 0.000000
0.718750 0.125000 0.000000
0.804688 0.125000 0.000000
0.875000 0.125000 0.000000
0.929688 0.125000 0.000000
0.968750 0.125000 0.000000
0.992188 0.125000 0.000000
1.000000 0.125000 0.000000
0.000000 0.195312 0.000000
0.007812 0.195312 0.000000
0.031250 0.195312 0.000000
0.070312 0.195312 0.000000
0.125000 0.195312 0.000000
0.195312 0.195312 0.000000
0.281250 0.195312 0.000000
0.382812 0.195312 0.000000
0.500000 0.195312 0.000000
0.617188 0.195312 0.000000
0.718750 0.195312 0.000000
0.804688 0.195312 0.000000
0.875000 0.195312 0.000000
0.929688 0.195312 0.000000
0.968750 0.195312 0.000000
0.992188 0.195312 0.000000
1.000000 0.195312 0.000000
0.000000 0.281250 0.000000
0.007812 0.281250 0.000000
0.031250 0.281250 0.000000
0.070312 0.281250 0.000000
0.125000 0.281250 0.000000
0.195312 0.281250 0.000000
0.281250 0.281250 0.000000
0.382812 0.281250 0.000000
0.500000 0.281250 0.000000
0.617188 0.281250 0.000000
0.718750 0.281250 0.000000
0.804688 0.281250 0.000000
0.875000 0.281250 0.000000
0.929688 0.281250 0.000000
0.968750 0.281250 0.000000
0.992188 0.281250 0.000000
1.000000 0.281250 0.000000
0.000000 0.382812 0.000000
0.007812 0.382812 0.000000
0.031250 0.382812 0.000000
0.070312 0.382812 0.000000
0.125000 0.382812 0.000000
0.195312 0.382812 0.000000
0.281250 0.382812 0.000000
0.382812 0.382812 0.000000
0.500000 0.382812 0.000000
0.617188 0.382812 0.000000
0.718750 0.382812 0.000000
0.804688 0.382812 0.000000
0.875000 0.382812 0.000000
0.929688 0.382812 0.000000
0.968750 0.382812 0.000000
0.992188 0.382812 0.000000
1.000000 0.382812 0.000000
0.000000 0.500000 0.000000
0.007812 0.500000 0.000000
0.031250 0.500000 0.000000
0.070312 0.500000 0.000000
0.125000 0.500000 0.000000
0.195312 0.500000 0.000000
0.281250 0.500000 0.000000
0.382812 0.500000 0.000000
0.500000 0.500000 0.000000
0.617188 0.500000 0.000000
0.718750 0.500000 0.000000
0.804688 0.500000 0.000000
0.875000 0.500000 0.000000
0.929688 0.500000 0.000000
0.968750 0.500000 0.000000
0.992188 0.500000 0.000000
1.000000 0.500000 0.000000
0.000000 0.617188 0.000000
0.007812 0.617188 0.000000
0.031250 0.617188 0.000000
0.070312 0.617188 0.000000
0.125000 0.617188 0.000000
0.195312 0.617188 0.000000
0.281250 0.617188 0.000000
0.382812 0.617188 0.000000
0.500000 0.617188 0.000000
0.617188 0.617188 0.000000
0.718750 0.617188 0.000000
0.804688 0.617188 0.000000
0.875000 0.617188 0.000000
0.929688 0.617188 0.000000
0.968750 0.617188 0.000000
0.992188 0.617188 0.000000
1.000000 0.617188 0.000000
0.000000 0.718750 0.000000
0.007812 0.718750 0.000000
0.031250 0.718750 0.000000
0.070312 0.718750 0.000000
0.125000 0.718750 0.000000
0.195312 0.718750 0.000000
0.281250 0.718750 0.000000
0.382812 0.718750 0.000000
0.500000 0.718750 0.000000
0.617188 0.718750 0.000000
0.718750 0.718750 0.000000
0.804688 0.718750 0.000000
0.875000 0.718750 0.000000
0.929688 0.718750 0.000000
0.968750 0.718750 0.000000
0.992188 0.718750 0.000000
1.000000 0.718750 0.000000
0.000000 0.804688 0.000000
0.007812 0.804688 0.000000
0.031250 0.804688 0.000000
0.070312 0.804688 0.000000
0.125000 0.804688 0.000000
0.195312 0.804688 0.000000
0.281250 0.804688 0.000000
0.382812 0.804688 0.000000
0.500000 0.804688 0.000000
0.617188 0.804688 0.000000
0.718750 0.804688 0.000000
0.804688 0.804688 0.000000
0.875000 0.804688 0.000000
0.929688 0.804688 0.000000
0.968750 0.804688 0.000000
0.992188 0.804688 0.000000
1.000000 0.804688 0.000000
0.000000 0.875000 0.000000
0.007812 0.875000 0.000000
0.031250 0.875000 0.000000
0.070312 0.875000 0.000000
0.125000 0.875000 0.000000
0.195312 0.875000 0.000000
0.281250 0.875000 0.000000
0.382812 0.875000 0.000000
0.500000 0.875000 0.000000
0.617188 0.875000 0.000000
0.718750 0.875000 0.000000
0.804688 0.875000 0.000000
0.875000 0.875000 0.000000
0.929688 0.875000 0.000000
0.968750 0.875000 0.000000
0.992188 0.875000 0.000000
1.000000 0.875000 0.000000
0.000000 0.929688 0.000000
0.007812 0.929688 0.000000
0.031250 0.929688 0.000000
0.070312 0.929688 0.000000
0.125000 0.929688 0.000000
0.195312 0.929688 0.000000
0.281250 0.929688 0.000000
0.382812 0.929688 0.000000
0.500000 0.929688 0.000000
0.617188 0.929688 0.000000
0.718750 0.929688 0.000000
0.804688 0.929688 0.000000
0.875000 0.929688 0.000000
0.929688 0.929688 0.000000
0.968750 0.929688 0.000000
0.992188 0.929688 0.000000
1.000000 0.929688 0.000000
0.000000 0.968750 0.000000
0.007812 0.968750 0.000000
0.031250 0.968750 0.000000
0.070312 0.968750 0.000000
0.125000 0.968750 0.000000
0.195312 0.968750 0.000000
0.281250 0.968750 0.000000
0.382812 0.968750 0.000000
0.500000 0.968750 0.000000
0.617188 0.968750 0.000000
0.718750 0.968750 0.000000
0.804688 0.968750 0.000000
0.875000 0.968750 0.000000
0.929688 0.968750 0.000000
0.968750 0.968750 0.000000
0.992188 0.968750 0.000000
1.000000 0.968750 0.000000
0.000000 0.992188 0.000000
0.007812 0.992188 0.000000
0.031250 0.992188 0.000000
0.070312 0.992188 0.000000
0.125000 0.992188 0.000000
0.195312 0.992188 0.000000
0.281250 0.992188 0.000000
0.382812 0.992188 0.000000
0.500000 0.992188 0.000000
0.617188 0.992188 0.000000
0.718750 0.992188 0.000000
0.804688 0.992188 0.000000
0.875000 0.992188 0.000000
0.929688 0.992188 0.000000
0.968750 0.992188 0.000000
0.992188 0.992188 0.000000
1.000000 0.992188 0.000000
0.000000 1.000000 0.000000
0.007812 1.000000 0.000000
0.031250 1.000000 0.000000
0.070312 1.000000 0.000000
0.125000 1.000000 0.000000
0.195312 1.000000 0.000000
0.281250 1.000000 0.000000
0.382812 1.000000 0.000000
0.500000 1.000000 0.000000
0.617188 1.000000 0.000000
0.718750 1.000000 0.000000
0.804688 1.000000 0.000000
0.875000 1.000000 0.000000
0.929688 1.000000 0.000000
0.968750 1.000000 0.000000
0.992188 1.000000 0.000000
1.000000 1.000000 0.000000
0.000000 0.000000 0.007812
0.007812 0.000000 0.007812
0.031250 0.000000 0.007812
0.070312 0.000000 0.007812
0.125000 0.000000 0.007812
0.195312 0.000000 0.007812
0.281250 0.000000 0.007812
0.382812 0.000000 0.007812
0.500000 0.000000 0.007812
0.617188 0.000000 0.007812
0.718750 0.000000 0.007812
0.804688 0.000000 0.007812
0.875000 0.000000 0.007812
0.929688 0.000000 0.007812
0.968750 0.000000 0.007812
0.992188 0.000000 0.007812
1.000000 0.000000 0.007812
0.000000 0.007812 0.007812
0.007812 0.007812 0.007812
0.031250 0.007812 0.007812
0.070312 0.007812 0.007812
0.125000 0.007812 0.007812
0.195312 0.007812 0.007812
0.281250 0.007812 0.007812
0.382812 0.007812 0.007812
0.500000 0.007812 0.007812
0.617188 0.007812 0.007812
0.718750 0.007812 0.007812
0.804688 0.007812 0.007812
0.875000 0.007812 0.007812
0.929688 0.007812 0.007812
0.968750 0.007812 0.007812
0.992188 0.007812 0.007812
1.000000 0.007812 0.007812
0.000000 0.031250 0.007812
0.007812 0.031250 0.007812
0.031250 0.031250 0.007812
0.070312 0.031250 0.007812
0.125000 0.031250 0.007812
0.195312 0.031250 0.007812
0.281250 0.031250 0.007812
0.382812 0.031250 0.007812
0.500000 0.031250 0.007812
0.617188 0.031250 0.007812
0.718750 0.031250 0.007812
0.804688 0.031250 0.007812
0.875000 0.031250 0.007812
0.929688 0.031250 0.007812
0.968750 0.031250 0.007812
0.992188 0.031250 0.007812
1.000000 0.031250 0.007812
0.000000 0.070312 0.007812
0.007812 0.070312 0.007812
0.031250 0.070312 0.007812
0.070312 0.070312 0.007812
0.125000 0.070312 0.007812
0.195312 0.070312 0.007812
0.281250 0.070312 0.007812
0.382812 0.070312 0.007812
0.500000 0.070312 0.007812
0.617188 0.070312 0.007812
0.718750 0.070312 0.007812
0.804688 0.070312 0.007812
0.875000 0.070312 0.007812
0.929688 0.070312 0.007812
0.968750 0.070312 0.007812
0.992188 0.070312 0.007812
1.000000 0.070312 0.007812
0.000000 0.125000 0.007812
0.007812 0.125000 0.007812
0.031250 0.125000 0.007812
0.070312 0.125000 0.007812
0.125000 0.125000 0.007812
0.195312 0.125000 0.007812
0.281250 0.125000 0.007812
0.382812 0.125000 0.007812
0.500000 0.125000 0.007812
0.617188 0.125000 0.007812
0.718750 0.125000 0.007812
0.804688 0.125000 0.007812
0.875000 0.125000 0.007812
0.929688 0.125000 0.007812
0.968750 0.125000 0.007812
0.992188 0.125000 0.007812
1.000000 0.125000 0.007812
0.000000 0.195312 0.007812
0.007812 0.195312 0.007812
0.031250 0.195312 0.007812
0.070312 0.195312 0.007812
0.125000 0.195312 0.007812
0.195312 0.195312 0.007812
0.281250 0.195312 0.007812
0.382812 0.195312 0.007812
0.500000 0.195312 0.007812
0.617188 0.195312 0.007812
0.718750 0.195312 0.007812
0.804688 0.195312 0.007812
0.875000 0.195312 0.007812
0.929688 0.195312 0.007812
0.968750 0.195312 0.007812
0.992188 0.195312 0.007812
1.000000 0.195312 0.007812
0.000000 0.281250 0.007812
0.007812 0.281250 0.007812
0.031250 0.281250 0.007812
0.070312 0.281250 0.007812
0.125000 0.281250 0.007812
0.195312 0.281250 0.007812
0.281250 0.281250 0.007812
0.382812 0.281250 0.007812
0.500000 0.281250 0.007812
0.617188 0.281250 0.007812
0.718750 0.281250 0.007812
0.804688 0.281250 0.007812
0.875000 0.281250 0.007812
0.929688 0.281250 0.007812
0.968750 0.281250 0.007812
0.992188 0.281250 0.007812
1.000000 0.281250 0.007812
0.000000 0.382812 0.007812
0.007812 0.382812 0.007812
0.031250 0.382812 0.007812
0.070312 0.382812 0.007812
0.125000 0.382812 0.007812
0.195312 0.382812 0.007812
0.281250 0.382812 0.007812
0.382812 0.382812 0.007812
0.500000 0.382812 0.007812
0.617188 0.382812 0.007812
0.718750 0.382812 0.007812
0.804688 0.382812 0.007812
0.875000 0.382812 0.007812
0.929688 0.382812 0.007812
0.968750 0.382812 0.007812
0.992188 0.382812 0.007812
1.000000 0.382812 0.007812
0.000000 0.500000 0.007812
0.007812 0.500000 0.007812
0.031250 0.500000 0.007812
0.070312 0.500000 0.007812
0.125000 0.500000 0.007812
0.195312 0.500000 0.007812
0.281250 0.500000 0.007812
0.382812 0.500000 0.007812
0.500000 0.500000 0.007812
0.617188 0.500000 0.007812
0.718750 0.500000 0.007812
0.804688 0.500000 0.007812
0.875000 0.500000 0.007812
0.929688 0.500000 0.007812
0.968750 0.500000 0.007812
0.992188 0.500000 0.007812
1.000000 0.500000 0.007812
0.000000 0.617188 0.007812
0.007812 0.617188 0.007812
0.031250 0.617188 0.007812
0.070312 0.617188 0.007812
0.125000 0.617188 0.007812
0.195312 0.617188 0.007812
0.281250 0.617188 0.007812
0.382812 0.617188 0.007812
0.500000 0.617188 0.007812
0.617188 0.617188 0.007812
0.718750 0.617188 0.007812
0.804688 0.617188 0.007812
0.875000 0.617188 0.007812
0.929688 0.617188 0.007812
0.968750 0.617188 0.007812
0.992188 0.617188 0.007812
1.000000 0.617188 0.007812
0.000000 0.718750 0.007812
0.007812 0.718750 0.007812
0.031250 0.718750 0.007812
0.070312 0.718750 0.007812
0.125000 0.718750 0.007812
0.195312 0.718750 0.007812
0.281250 0.718750 0.007812
0.382812 0.718750 0.007812
0.500000 0.718750 0.007812
0.617188 0.718750 0.007812
0.718750 0.718750 0.007812
0.804688 0.718750 0.007812
0.875000 0.718750 0.007812
0.929688 0.718750 0.007812
0.968750 0.718750 0.007812
0.992188 0.718750 0.007812
1.000000 0.718750 0.007812
0.000000 0.804688 0.007812
0.007812 0.804688 0.007812
0.031250 0.804688 0.007812
0.070312 0.804688 0.007812
0.125000 0.804688 0.007812
0.195312 0.804688 0.007812
0.281250 0.804688 0.007812
0.382812 0.804688 0.007812
0.500000 0.804688 0.007812
0.617188 0.804688 0.007812
0.718750 0.804688 0.007812
0.804688 0.804688 0.007812
0.875000 0.804688 0.007812
0.929688 0.804688 0.007812
0.968750 0.804688 0.007812
0.992188 0.804688 0.007812
1.000000 0.804688 0.007812
0.000000 0.875000 0.007812
0.007812 0.875000 0.007812
0.031250 0.875000 0.007812
0.070312 0.875000 0.007812
0.125000 0.875000 0.007812
0.195312 0.875000 0.007812
0.281250 0.875000 0.007812
0.382812 0.875000 0.007812
0.500000 0.875000 0.007812
0.617188 0.875000 0.007812
0.718750 0.875000 0.007812
0.804688 0.875000 0.007812
0.875000 0.875000 0.007812
0.929688 0.875000 0.007812
0.968750 0.875000 0.007812
0.992188 0.875000 0.007812
1.000000 0.875000 0.007812
0.000000 0.929688 0.007812
0.007812 0.929688 0.007812
0.031250 0.929688 0.007812
0.070312 0.929688 0.007812
0.125000 0.929688 0.007812
0.195312 0.929688 0.007812
0.281250 0.929688 0.007812
0.382812 0.929688 0.007812
0.500000 0.929688 0.007812
0.617188 0.929688 0.007812
0.718750 0.929688 0.007812
0.804688 0.929688 0.007812
0.875000 0.929688 0.007812
0.929688 0.929688 0.007812
0.968750 0.929688 0.007812
0.992188 0.929688 0.007812
1.000000 0.929688 0.007812
0.000000 0.968750 0.007812
0.007812 0.968750 0.007812
0.031250 0.968750 0.007812
0.070312 0.968750 0.007812
0.125000 0.968750 0.007812
0.195312 0.968750 0.007812
0.281250 0.968750 0.007812
0.382812 0.968750 0.007812
0.500000 0.968750 0.007812
0.617188 0.968750 0.007812
0.718750 0.968750 0.007812
0.804688 0.968750 0.007812
0.875000 0.968750 0.007812
0.929688 0.968750 0.007812
0.968750 0.968750 0.007812
0.992188 0.968750 0.007812
1.000000 0.968750 0.007812
0.000000 0.992188 0.007812
0.007812 0.992188 0.007812
0.031250 0.992188 0.007812
0.070312 0.992188 0.007812
0.125000 0.992188 0.007812
0.195312 0.992188 0.007812
0.281250 0.992188 0.007812
0.382812 0.992188 0.007812
0.500000 0.992188 0.007812
0.617188 0.992188 0.007812
0.718750 0.992188 0.007812
0.804688 0.992188 0.007812
0.875000 0.992188 0.007812
0.929688 0.992188 0.007812
0.968750 0.992188 0.007812
0.992188 0.992188 0.007812
1.000000 0.992188 0.007812
0.000000 1.000000 0.007812
0.007812 1.000000 0.007812
0.031250 1.000000 0.007812
0.070312 1.000000 0.007812
0.125000 1.000000 0.007812
0.195312 1.000000 0.007812
0.281250 1.000000 0.007812
0.382812 1.000000 0.007812
0.500000 1.000000 0.007812
0.617188 1.000000 0.007812
0.718750 1.000000 0.007812
0.804688 1.000000 0.007812
0.875000 1.000000 0.007812
0.929688 1.000000 0.007812
0.968750 1.000000 0.007812
0.992188 1.000000 0.007812
1.000000 1.000000 0.007812
0.000000 0.000000 0.031250
0.007812 0.000000 0.031250
0.031250 0.000000 0.031250
0.070312 0.000000 0.031250
0.125000 0.000000 0.031250
0.195312 0.000000 0.031250
0.281250 0.000000 0.031250
0.382812 0.000000 0.031250
0.500000 0.000000 0.031250
0.617188 0.000000 0.031250
0.718750 0.000000 0.031250
0.804688 0.000000 0.031250
0.875000 0.000000 0.031250
0.929688 0.000000 0.031250
0.968750 0.000000 0.031250
0.992188 0.000000 0.031250
1.000000 0.000000 0.031250
0.000000 0.007812 0.031250
0.007812 0.007812 0.031250
0.031250 0.007812 0.031250
0.070312 0.007812 0.031250
0.125000 0.007812 0.031250
0.195312 0.007812 0.031250
0.281250 0.007812 0.031250
0.382812 0.007812 0.031250
0.500000 0.007812 0.031250
0.617188 0.007812 0.031250
0.718750 0.007812 0.031250
0.804688 0.007812 0.031250
0.875000 0.007812 0.031250
0.929688 0.007812 0.031250
0.968750 0.007812 0.031250
0.992188 0.007812 0.031250
1.000000 0.007812 0.031250
0.000000 0.031250 0.031250
0.007812 0.031250 0.031250
0.031250 0.031250 0.031250
0.070312 0.031250 0.031250
0.125000 0.031250 0.031250
0.195312 0.031250 0.031250
0.281250 0.031250 0.031250
0.382812 0.031250 0.031250
0.500000 0.031250 0.031250
0.617188 0.031250 0.031250
0.718750 0.031250 0.031250
0.804688 0.031250 0.031250
0.875000 0.031250 0.031250
0.929688 0.031250 0.031250
0.968750 0.031250 0.031250
0.992188 0.031250 0.031250
1.000000 0.031250 0.031250
0.000000 0.070312 0.031250
0.007812 0.070312 0.031250
0.031250 0.070312 0.031250
0.070312 0.070312 0.031250
0.125000 0.070312 0.031250
0.195312 0.070312 0.031250
0.281250 0.070312 0.031250
0.382812 0.070312 0.031250
0.500000 0.070312 0.031250
0.617188 0.070312 0.031250
0.718750 0.070312 0.031250
0.804688 0.070312 0.031250
0.875000 0.070312 0.031250
0.929688 0.070312 0.031250
0.968750 0.070312 0.031250
0.992188 0.070312 0.031250
1.000000 0.070312 0.031250
0.000000 0.125000 0.031250
0.007812 0.125000 0.031250
0.031250 0.125000 0.031250
0.070312 0.125000 0.031250
0.125000 0.125000 0.031250
0.195312 0.125000 0.031250
0.281250 0.125000 0.031250
0.382812 0.125000 0.031250
0.500000 0.125000 0.031250
0.617188 0.125000 0.031250
0.718750 0.125000 0.031250
0.804688 0.125000 0.031250
0.875000 0.125000 0.031250
0.929688 0.125000 0.031250
0.968750 0.125000 0.031250
0.992188 0.125000 0.031250
1.000000 0.125000 0.031250
0.000000 0.195312 0.031250
0.007812 0.195312 0.031250
0.031250 0.195312 0.031250
0.070312 0.195312 0.031250
0.125000 0.195312 0.031250
0.195312 0.195312 0.031250
0.281250 0.195312 0.031250
0.382812 0.195312 0.031250
0.500000 0.195312 0.031250
0.617188 0.195312 0.031250
0.718750 0.195312 0.031250
0.804688 0.195312 0.031250
0.875000 0.195312 0.031250
0.929688 0.195312 0.031250
0.968750 0.195312 0.031250
0.992188 0.195312 0.031250
1.000000 0.195312 0.031250
0.000000 0.281250 0.031250
0.007812 0.281250 0.031250
0.031250 0.281250 0.031250
0.070312 0.281250 0.031250
0.125000 0.281250 0.031250
0.195312 0.281250 0.031250
0.281250 0.281250 0.031250
0.382812 0.281250 0.031250
0.500000 0.281250 0.031250
0.617188 0.281250 0.031250
0.718750 0.281250 0.031250
0.804688 0.281250 0.031250
0.875000 0.281250 0.031250
0.929688 0.281250 0.031250
0.968750 0.281250 0.031250
0.992188 0.281250 0.031250
1.000000 0.281250 0.031250
0.000000 0.382812 0.031250
0.007812 0.382812 0.031250
0.031250 0.382812 0.031250
0.070312 0.382812 0.031250
0.125000 0.382812 0.031250
0.195312 0.382812 0.031250
0.281250 0.382812 0.031250
0.382812 0.382812 0.031250
0.500000 0.382812 0.031250
0.617188 0.382812 0.031250
0.718750 0.382812 0.031250
0.804688 0.382812 0.031250
0.875000 0.382812 0.031250
0.929688 0.382812 0.031250
0.968750 0.382812 0.031250
0.992188 0.382812 0.031250
1.000000 0.382812 0.031250
0.000000 0.500000 0.031250
0.007812 0.500000 0.031250
0.031250 0.500000 0.031250
0.070312 0.500000 0.031250
0.125000 0.500000 0.031250
0.195312 0.500000 0.031250
0.281250 0.500000 0.031250
0.382812 0.500000 0.031250
0.500000 0.500000 0.031250
0.617188 0.500000 0.031250
0.718750 0.500000 0.031250
0.804688 0.500000 0.031250
0.875000 0.500000 0.031250
0.929688 0.500000 0.031250
0.968750 0.500000 0.031250
0.992188 0.500000 0.031250
1.000000 0.500000 0.031250
0.000000 0.617188 0.031250
0.007812 0.617188 0.031250
0.031250 0.617188 0.031250
0.070312 0.617188 0.031250
0.125000 0.617188 0.031250
0.195312 0.617188 0.031250
0.281250 0.617188 0.031250
0.382812 0.617188 0.031250
0.500000 0.617188 0.031250
0.617188 0.617188 0.031250
0.718750 0.617188 0.031250
0.804688 0.617188 0.031250
0.875000 0.617188 0.031250
0.929688 0.617188 0.031250
0.968750 0.617188 0.031250
0.992188 0.617188 0.031250
1.000000 0.617188 0.031250
0.000000 0.718750 0.031250
0.007812 0.718750 0.031250
0.031250 0.718750 0.031250
0.070312 0.718750 0.031250
0.125000 0.718750 0.031250
0.195312 0.718750 0.031250
0.281250 0.718750 0.031250
0.382812 0.718750 0.031250
0.500000 0.718750 0.031250
0.617188 0.718750 0.031250
0.718750 0.718750 0.031250
0.804688 0.718750 0.031250
0.875000 0.718750 0.031250
0.929688 0.718750 0.031250
0.968750 0.718750 0.031250
0.992188 0.718750 0.031250
1.000000 0.718750 0.031250
0.000000 0.804688 0.031250
0.007812 0.804688 0.031250
0.031250 0.804688 0.031250
0.070312 0.804688 0.031250
0.125000 0.804688 0.031250
0.195312 0.804688 0.031250
0.281250 0.804688 0.031250
0.382812 0.804688 0.031250
0.500000 0.804688 0.031250
0.617188 0.804688 0.031250
0.718750 0.804688 0.031250
0.804688 0.804688 0.031250
0.875000 0.804688 0.031250
0.929688 0.804688 0.031250
0.968750 0.804688 0.031250
0.992188 0.804688 0.031250
1.000000 0.804688 0.031250
0.000000 0.875000 0.031250
0.007812 0.875000 0.031250
0.031250 0.875000 0.031250
0.070312 0.875000 0.031250
0.125000 0.875000 0.031250
0.195312 0.875000 0.031250
0.281250 0.875000 0.031250
0.382812 0.875000 0.031250
0.500000 0.875000 0.031250
0.617188 0.875000 0.031250
0.718750 0.875000 0.031250
0.804688 0.875000 0.031250
0.875000 0.875000 0.031250
0.929688 0.875000 0.031250
0.968750 0.875000 0.031250
0.992188 0.875000 0.031250
1.000000 0.875000 0.031250
0.000000 0.929688 0.031250
0.007812 0.929688 0.031250
0.031250 0.929688 0.031250
0.070312 0.929688 0.031250
0.125000 0.929688 0.031250
0.195312 0.929688 0.031250
0.281250 0.929688 0.031250
0.382812 0.929688 0.031250
0.500000 0.929688 0.031250
0.617188 0.929688 0.031250
0.718750 0.929688 0.031250
0.804688 0.929688 0.031250
0.875000 0.929688 0.031250
0.929688 0.929688 0.031250
0.968750 0.929688 0.031250
0.992188 0.929688 0.031250
1.000000 0.929688 0.031250
0.000000 0.968750 0.031250
0.007812 0.968750 0.031250
0.031250 0.968750 0.031250
0.070312 0.968750 0.031250
0.125000 0.968750 0.031250
0.195312 0.968750 0.031250
0.281250 0.968750 0.031250
0.382812 0.968750 0.031250
0.500000 0.968750 0.031250
0.617188 0.968750 0.031250
0.718750 0.968750 0.031250
0.804688 0.968750 0.031250
0.875000 0.968750 0.031250
0.929688 0.968750 0.031250
0.968750 0.968750 0.031250
0.992188 0.968750 0.031250
1.000000 0.968750 0.031250
0.000000 0.992188 0.031250
0.007812 0.992188 0.031250
0.031250 0.992188 0.031250
0.070312 0.992188 0.031250
0.125000 0.992188 0.031250
0.195312 0.992188 0.031250
0.281250 0.992188 0.031250
0.382812 0.992188 0.031250
0.500000 0.992188 0.031250
0.617188 0.992188 0.031250
0.718750 0.992188 0.031250
0.804688 0.992188 0.031250
0.875000 0.992188 0.031250
0.929688 0.992188 0.031250
0.968750 0.992188 0.031250
0.992188 0.992188 0.031250
1.000000 0.992188 0.031250
0.000000 1.000000 0.031250
0.007812 1.000000 0.031250
0.031250 1.000000 0.031250
0.070312 1.000000 0.031250
0.125000 1.000000 0.031250
0.195312 1.000000 0.031250
0.281250 1.000000 0.031250
0.382812 1.000000 0.031250
0.500000 1.000000 0.031250
0.617188 1.000000 0.031250
0.718750 1.000000 0.031250
0.804688 1.000000 0.031250
0.875000 1.000000 0.031250
0.929688 1.000000 0.031250
0.968750 1.000000 0.031250
0.992188 1.000000 0.031250
1.000000 1.000000 0.031250
0.000000 0.000000 0.070312
0.007812 0.000000 0.070312
0.031250 0.000000 0.070312
0.070312 0.000000 0.070312
0.125000 0.000000 0.070312
0.195312 0.000000 0.070312
0.281250 0.000000 0.070312
0.382812 0.000000 0.070312
0.500000 0.000000 0.070312
0.617188 0.000000 0.070312
0.718750 0.000000 0.070312
0.804688 0.000000 0.070312
0.875000 0.000000 0.070312
0.929688 0.000000 0.070312
0.968750 0.000000 0.070312
0.992188 0.000000 0.070312
